!!!COM: Haydn, Franz Joseph
!!!OPR: London Symphonies
!!!OTL: Symphony no. 93 in D major
!!!SCT: Hob. I:93
!!!OMV: 1
!!!OMD: Adagio--Allegro assai
!!!ODT: 1791///
!!!MPD: 1792/02/17/
**kern	**kern	**kern	**kern	**kern	**kern	**kern	**kern	**kern	**kern	**kern	**kern	**kern	**kern	**kern	**kern
*ITrd7c12	*	*	*	*	*	*ITrd-1c-2	*ITrd-1c-2	*ITrd-1c-2	*ITrd-1c-2	*	*	*	*	*	*
*Icbass	*Icello	*Iviola	*Ivioln	*Ivioln	*Itimpa	*Itromp	*Itromp	*Icor	*Icor	*Ifagot	*Ifagot	*Ioboe	*Ioboe	*Iflt	*Iflt
*I"Basso	*I"Violoncello	*I"Viola	*I"Violino II	*I"Violino I	*I"Timpani	*I"Tromba 2	*I"Tromba 1	*I"Corno 2	*I"Corno 1	*I"Fagotto 2	*I"Fagotto 1	*I"Oboe 2	*I"Oboe 1	*I"Flauto 2	*I"Flauto 1
*	*	*	*I#2	*I#1	*	*I#2	*I#1	*I#2	*I#1	*I#2	*I#1	*I#2	*I#1	*I#2	*I#1
*>[A,B,B1,B,B2,C]	*>[A,B,B1,B,B2,C]	*>[A,B,B1,B,B2,C]	*>[A,B,B1,B,B2,C]	*>[A,B,B1,B,B2,C]	*>[A,B,B1,B,B2,C]	*>[A,B,B1,B,B2,C]	*>[A,B,B1,B,B2,C]	*>[A,B,B1,B,B2,C]	*>[A,B,B1,B,B2,C]	*>[A,B,B1,B,B2,C]	*>[A,B,B1,B,B2,C]	*>[A,B,B1,B,B2,C]	*>[A,B,B1,B,B2,C]	*>[A,B,B1,B,B2,C]	*>[A,B,B1,B,B2,C]
*>norep[A,B,B2,C]	*>norep[A,B,B2,C]	*>norep[A,B,B2,C]	*>norep[A,B,B2,C]	*>norep[A,B,B2,C]	*>norep[A,B,B2,C]	*>norep[A,B,B2,C]	*>norep[A,B,B2,C]	*>norep[A,B,B2,C]	*>norep[A,B,B2,C]	*>norep[A,B,B2,C]	*>norep[A,B,B2,C]	*>norep[A,B,B2,C]	*>norep[A,B,B2,C]	*>norep[A,B,B2,C]	*>norep[A,B,B2,C]
*staff11	*staff10	*staff9	*staff8	*staff7	*staff6	*staff5	*staff5	*staff4	*staff4	*staff3	*staff3	*staff2	*staff2	*staff1	*staff1
*clefF4	*clefF4	*clefC3	*clefG2	*clefG2	*clefF4	*clefG2	*clefG2	*clefG2	*clefG2	*clefF4	*clefF4	*clefG2	*clefG2	*clefG2	*clefG2
*k[f#c#]	*k[f#c#]	*k[f#c#]	*k[f#c#]	*k[f#c#]	*M3/4	*M3/4	*M3/4	*M3/4	*M3/4	*k[f#c#]	*k[f#c#]	*k[f#c#]	*k[f#c#]	*k[f#c#]	*k[f#c#]
*D:	*D:	*D:	*D:	*D:	*D:	*D:	*D:	*D:	*D:	*D:	*D:	*D:	*D:	*D:	*D:
*M3/4	*M3/4	*M3/4	*M3/4	*M3/4	*	*	*	*	*	*M3/4	*M3/4	*M3/4	*M3/4	*M3/4	*M3/4
*>A	*>A	*>A	*>A	*>A	*>A	*>A	*>A	*>A	*>A	*>A	*>A	*>A	*>A	*>A	*>A
=1-	=1-	=1-	=1-	=1-	=1-	=1-	=1-	=1-	=1-	=1-	=1-	=1-	=1-	=1-	=1-
*MM42	*MM42	*MM42	*MM42	*MM42	*MM42	*MM42	*MM42	*MM42	*MM42	*MM42	*MM42	*MM42	*MM42	*MM42	*MM42
2DD;	2D;	2d;	2d;	2d;	2DT;y	2d;	2dd;y	2d;	2dd;y	2D;	2D;	2d;	2d;	2dd;	2dd;
8.r	8.r	8.r	8.r	8.r	8.r	8.ryy	8.r	8.ryy	8.r	8.r	8.r	8.r	8.r	8.r	8.r
16DD	16D	16d	16d	16d	16D	16d	16dd	16d	16dd	16D	16D	16d	16d	16dd	16dd
=2	=2	=2	=2	=2	=2	=2	=2	=2	=2	=2	=2	=2	=2	=2	=2
2DD;	2D;	2d;	2d;	2d;	2DT;y	2d;	2dd;y	2d;	2dd;y	2D;	2D;	2d;	2d;	2dd;	2dd;
4r	4r	4r	4r	4r	4r	4ryy	4r	4ryy	4r	4r	4r	4r	4r	4r	4r
=3	=3	=3	=3	=3	=3	=3	=3	=3	=3	=3	=3	=3	=3	=3	=3
2.r	2.r	2.r	2.r	4ff#	2.r	2.r	2.r	2.r	2.r	2.r	2.r	2.r	2.r	2.r	2.r
.	.	.	.	4dd	.	.	.	.	.	.	.	.	.	.	.
.	.	.	.	4a	.	.	.	.	.	.	.	.	.	.	.
=4	=4	=4	=4	=4	=4	=4	=4	=4	=4	=4	=4	=4	=4	=4	=4
8..BB	8..B	8..B	8..d	8g	2.r	2.r	2.r	2.r	2.r	2.r	2.r	2.r	2.r	2.r	2.r
.	.	.	.	32aQ	.	.	.	.	.	.	.	.	.	.	.
.	.	.	.	32gQ	.	.	.	.	.	.	.	.	.	.	.
.	.	.	.	32f#Q	.	.	.	.	.	.	.	.	.	.	.
.	.	.	.	16.g	.	.	.	.	.	.	.	.	.	.	.
32AA	32A	32A	32c#	32a	.	.	.	.	.	.	.	.	.	.	.
8GG	8G	8G	8B	8b	.	.	.	.	.	.	.	.	.	.	.
8r	8r	8r	8r	8r	.	.	.	.	.	.	.	.	.	.	.
4r	4r	4r	4r	4r	.	.	.	.	.	.	.	.	.	.	.
=5	=5	=5	=5	=5	=5	=5	=5	=5	=5	=5	=5	=5	=5	=5	=5
2.r	2.r	2.r	2.r	4b	2.r	2.r	2.r	2.r	2.r	2.r	2.r	2.r	2.r	2.r	2.r
.	.	.	.	4g	.	.	.	.	.	.	.	.	.	.	.
.	.	.	.	4e	.	.	.	.	.	.	.	.	.	.	.
=6	=6	=6	=6	=6	=6	=6	=6	=6	=6	=6	=6	=6	=6	=6	=6
4AAA	4AA	4E	8..G	8c#	2.r	2.r	2.r	4ryy	4r	2.r	2.r	2.r	2.r	2.r	2.r
.	.	.	.	32dQ	.	.	.	.	.	.	.	.	.	.	.
.	.	.	.	32c#Q	.	.	.	.	.	.	.	.	.	.	.
.	.	.	.	32BQ	.	.	.	.	.	.	.	.	.	.	.
.	.	.	.	16.c#	.	.	.	.	.	.	.	.	.	.	.
.	.	.	32g	32e	.	.	.	.	.	.	.	.	.	.	.
8DD	8D	8F#	8f#	8d	.	.	.	8ryy	8r	.	.	.	.	.	.
8r	8r	8r	8r	8r	.	.	.	8d'	[8dd'y	.	.	.	.	.	.
4r	4r	4r	4r	4r	.	.	.	8d'	8dd']y	.	.	.	.	.	.
.	.	.	.	.	.	.	.	8d'	8dd'y	.	.	.	.	.	.
=7	=7	=7	=7	=7	=7	=7	=7	=7	=7	=7	=7	=7	=7	=7	=7
8DD	8D	8g	8c# 8e	4gg	4D	4d	4dd	4d	4dd	2.G	2.c#	2.ee	2.gg	2.ccc#	2.ccc#
8DD	8D	8g	8c# 8e	.	.	.	.	.	.	.	.	.	.	.	.
8DD	8D	8g	8c# 8e	4ee	4r	4ryy	4r	4ryy	4r	.	.	.	.	.	.
8DD	8D	8g	8c# 8e	.	.	.	.	.	.	.	.	.	.	.	.
8DD	8D	8g	8c# 8e	4cc#	4r	4ryy	4r	4ryy	4r	.	.	.	.	.	.
8DD	8D	8g	8c# 8e	.	.	.	.	.	.	.	.	.	.	.	.
=8	=8	=8	=8	=8	=8	=8	=8	=8	=8	=8	=8	=8	=8	=8	=8
8DD	8D	8f#	8A 8f#	4aa	4D	4d	4dd	4d	4dd	2.F#	2.d	2.dd	2.ff#	2.ddd	2.ddd
8DD	8D	8f#	8A 8f#	.	.	.	.	.	.	.	.	.	.	.	.
8DD	8D	8f#	8A 8f#	4ff#	4r	4ryy	4r	4ryy	4r	.	.	.	.	.	.
8DD	8D	8f#	8A 8f#	.	.	.	.	.	.	.	.	.	.	.	.
8DD	8D	8f#	8A 8f#	4dd	4r	4ryy	4r	4ryy	4r	.	.	.	.	.	.
8DD	8D	8f#	8A 8f#	.	.	.	.	.	.	.	.	.	.	.	.
=9	=9	=9	=9	=9	=9	=9	=9	=9	=9	=9	=9	=9	=9	=9	=9
8BB	8B	8B	4b	4b	2.r	2.r	2.r	2.r	2.r	4B	4B	4b	4bb	4bb	4bb
8BB	8B	8B	.	.	.	.	.	.	.	.	.	.	.	.	.
8GG#	8G#	8G#	4g#	4g#	.	.	.	.	.	4G#	4G#	4g#	4gg#X	4gg#	4gg#
8GG#	8G#	8G#	.	.	.	.	.	.	.	.	.	.	.	.	.
8EE	8E	8E	4e	4e	.	.	.	.	.	4E	4E	4e	4ee	4ee	4ee
8EE	8E	8E	.	.	.	.	.	.	.	.	.	.	.	.	.
=10	=10	=10	=10	=10	=10	=10	=10	=10	=10	=10	=10	=10	=10	=10	=10
2AA	2A	2A	2A	2.a	4AA	4a	4a	4a	4a	2A	2A	2a	2aa	2aa	2aa
.	.	.	.	.	4r	4ryy	4r	4ryy	4r	.	.	.	.	.	.
4r	4r	4r	4r	.	4r	4ryy	4r	4ryy	4r	4r	4r	4ryy	4r	4r	4r
=11	=11	=11	=11	=11	=11	=11	=11	=11	=11	=11	=11	=11	=11	=11	=11
8GGG'	8GG'	4E-	8B- 8e-'	4b-	2.r	2.r	2.r	2.r	2.r	2.r	2.r	2.r	2.r	2.r	2.r
8GGG'	8GG'	.	8B-' 8e-'y	.	.	.	.	.	.	.	.	.	.	.	.
8GGG'	8GG'	4G	8B-' 8e-'y	4g	.	.	.	.	.	.	.	.	.	.	.
8GGG'	8GG'	.	8B-' 8e-'y	.	.	.	.	.	.	.	.	.	.	.	.
8GGG'	8GG'	4B-	8B-' 8e-'y	4e-	.	.	.	.	.	.	.	.	.	.	.
8GGG'	8GG'	.	8B-' 8e-'y	.	.	.	.	.	.	.	.	.	.	.	.
=12	=12	=12	=12	=12	=12	=12	=12	=12	=12	=12	=12	=12	=12	=12	=12
4FFF	4FFn	4B-	4A-	8d	2.r	2.r	2.r	2.r	2.r	2.r	2.r	2.r	2.r	2.r	2.r
.	.	.	.	32e-Q	.	.	.	.	.	.	.	.	.	.	.
.	.	.	.	32dQ	.	.	.	.	.	.	.	.	.	.	.
.	.	.	.	32cnQ	.	.	.	.	.	.	.	.	.	.	.
.	.	.	.	16.d	.	.	.	.	.	.	.	.	.	.	.
.	.	.	.	32e-X	.	.	.	.	.	.	.	.	.	.	.
4r	4r	4r	4r	8fn	.	.	.	.	.	.	.	.	.	.	.
.	.	.	.	8r	.	.	.	.	.	.	.	.	.	.	.
4r	4r	4r	4r	4r	.	.	.	.	.	.	.	.	.	.	.
=13	=13	=13	=13	=13	=13	=13	=13	=13	=13	=13	=13	=13	=13	=13	=13
8FFF'	8FFn'	2D	16A-	4a-	2.r	2.r	2.r	2.r	2.r	2.BB-	2.BB-	2.r	2.r	2.r	2.r
.	.	.	16B-	.	.	.	.	.	.	.	.	.	.	.	.
8FFF'	8FF'	.	16A-	.	.	.	.	.	.	.	.	.	.	.	.
.	.	.	16B-	.	.	.	.	.	.	.	.	.	.	.	.
8FFF'	8FF'	.	16A-	4fn	.	.	.	.	.	.	.	.	.	.	.
.	.	.	16B-	.	.	.	.	.	.	.	.	.	.	.	.
8FFF'	8FF'	.	16A-	.	.	.	.	.	.	.	.	.	.	.	.
.	.	.	16B-	.	.	.	.	.	.	.	.	.	.	.	.
8FFF'	8FF'	4B-	16A-	4d	.	.	.	.	.	.	.	.	.	.	.
.	.	.	16B-	.	.	.	.	.	.	.	.	.	.	.	.
8FFF'	8FF'	.	16A-	.	.	.	.	.	.	.	.	.	.	.	.
.	.	.	16B-	.	.	.	.	.	.	.	.	.	.	.	.
=14	=14	=14	=14	=14	=14	=14	=14	=14	=14	=14	=14	=14	=14	=14	=14
4GGG	4GG	4B-	4G	8e-	2.r	2.r	2.r	2.r	2.r	4E-	4E-	2.r	2.r	2.r	2.r
.	.	.	.	32fnQ	.	.	.	.	.	.	.	.	.	.	.
.	.	.	.	32e-Q	.	.	.	.	.	.	.	.	.	.	.
.	.	.	.	32dQ	.	.	.	.	.	.	.	.	.	.	.
.	.	.	.	16.e-	.	.	.	.	.	.	.	.	.	.	.
.	.	.	.	32fn	.	.	.	.	.	.	.	.	.	.	.
4r	4r	4r	4r	8g	.	.	.	.	.	4r	4r	.	.	.	.
.	.	.	.	8r	.	.	.	.	.	.	.	.	.	.	.
4r	4r	4r	4r	4r	.	.	.	.	.	4r	4r	.	.	.	.
=15	=15	=15	=15	=15	=15	=15	=15	=15	=15	=15	=15	=15	=15	=15	=15
8GGG	8GG	8G	8B- 8e-	8.b- 8.bb-X	2.r	2.r	2.r	2.r	2.r	2G	2G	4e-	8.bb-	4bb-	4bb-
8GGG	8GG	8g	8e- 8b-X	.	.	.	.	.	.	.	.	.	.	.	.
.	.	.	.	16gg	.	.	.	.	.	.	.	.	16gg	.	.
8GGG	8GG	8g	8e- 8b-	4ee-	.	.	.	.	.	.	.	4b-X	4ee-X	4eee-	4eee-
8GGG	8GG	8g	8e- 8b-	.	.	.	.	.	.	.	.	.	.	.	.
8GGG#	8GG#	8bn	8fn	4dd	.	.	.	.	.	4G#	4G#	4fn	4dd	4ddd	4ddd
8GGG#	8GG#	8b	8f	.	.	.	.	.	.	.	.	.	.	.	.
=16	=16	=16	=16	=16	=16	=16	=16	=16	=16	=16	=16	=16	=16	=16	=16
4AAA	4AA	4a	4e	8cc#X	4AA	4A	4a	4A	4a	4A	4A	4en	8cc#X	8ccc#X	8ccc#X
.	.	.	.	8a 8aa	.	.	.	.	.	.	.	.	8aa	8aa	8aa
8r	8r	8r	8r	8a 8aa	8r	8ryy	8r	8ryy	8r	8r	8r	8r	8aa	8aa	8aa
8AA	8A	8A	8c#X	8a 8aa	8AA	8A	8a	8A	8a	8A	8A	8cc#X	8aa	8aa	8aa
8BB	8Bn	8Bn	8d	8a 8aa	8AA	8A	8a	8A	8a	8Bn	8Bn	8dd	8aa	8aa	8aa
8C#X	8c#X	8c#X	8e	8a 8aa	8AA	8A	8a	8A	8a	8c#X	8c#X	8ee	8aa	8aa	8aa
=17	=17	=17	=17	=17	=17	=17	=17	=17	=17	=17	=17	=17	=17	=17	=17
8D	8d	8d	8fn	8a 8aa	4AA	4A	4a	4A	4a	8d	8d	8ffn	[8aa	8aa	8aa
32EQ	32eQ	32eQ	32gQ	.	.	.	.	.	.	32eQ	32eQ	32ggQ	.	.	.
32DQ	32dQ	32dQ	32fQ	.	.	.	.	.	.	32dQ	32dQ	32ffQ	.	.	.
32C#Q	32c#Q	32c#Q	32eQ	.	.	.	.	.	.	32c#Q	32c#Q	32eeQ	.	.	.
16.D	16.d	16.d	16.f	8a 8aa	.	.	.	.	.	16.d	16.d	16.ff	8aa]	8aa	8aa
32E	32e	32e	32g	.	.	.	.	.	.	32e	32e	32gg	.	.	.
8F	8fn	8fn	8a	8a 8aa	8r	8ryy	8r	8ryy	8r	8fn	8fn	8aa	8aa	8aa	8aa
8F	8f	8f	8a	8a 8aa	8AA	8A	8a	8A	8a	8f	8f	8aa	8aa	8aa	8aa
16E	16e	16e	16g	8a 8aa	8AA	8A	8a	8A	8a	16e	16e	16gg	[8aa	8aa	8aa
16D	16d	16d	16f	.	.	.	.	.	.	16d	16d	16ff	.	.	.
16C#	16c#	16c#	16e	8a 8aa	8AA	8A	8a	8A	8a	16c#	16c#	16ee	8aa]	8aa	8aa
16D	16d	16d	16f	.	.	.	.	.	.	16d	16d	16ff	.	.	.
=18	=18	=18	=18	=18	=18	=18	=18	=18	=18	=18	=18	=18	=18	=18	=18
2BB	2Bn	2Bn	2d	8.aa	4D	2d	2dd	2d	2dd	2Bn	2Bn	2dd	8.aa	8.aa	8.aa
.	.	.	.	16gg#	.	.	.	.	.	.	.	.	16gg#	16gg#	16gg#
.	.	.	.	4gg#	4r	.	.	.	.	.	.	.	4gg#	4gg#	4gg#
8.r	8.r	8.r	8.r	8.r	8.r	8.ryy	8.r	8.ryy	8.r	8.r	8.r	8.ryy	8.r	8.r	8.r
16BB-	16B-	16B-	16d 16dd	16ggn	16D	16d	16dd	16d	16dd	16B-	16B-	16dd	16ggn	16ggn	16ggn
=19	=19	=19	=19	=19	=19	=19	=19	=19	=19	=19	=19	=19	=19	=19	=19
2BB-	2B-	2B-	2d 2dd	2gg	4D	2d	2dd	2d	2dd	2B-	2B-	2dd	2gg	2gg	2gg
.	.	.	.	.	4r	.	.	.	.	.	.	.	.	.	.
8.r	8.r	8.r	8.r	8.r	8.r	8.ryy	8.r	8.ryy	8.r	8.r	8.r	8.ryy	8.r	8.r	8.r
16AA	16A	16A	16e 16cc#	16gg	16AA	16a	16ee	16a	16ee	16A	16A	16cc#	16gg	16eee	16eee
=20	=20	=20	=20	=20	=20	=20	=20	=20	=20	=20	=20	=20	=20	=20	=20
8AA	8A	8A	8e 8cc#	8gg	8AA	8a	8ee	8a	8ee	8A	8A	8cc#	8gg	8eee	8eee
8r	8r	8r	8r	8r	8r	8ryy	8r	8ryy	8r	8r	8r	8ryy	8r	8r	8r
8AAA	8AA	8A 8g	8A 8g 8ee	8a 8eee	8AA	8a	8ee	8a	8ee	8AA	8AA	8cc#	8gg	8eee	8eee
8r	8r	8r	8r	8r	8r	8ryy	8r	8ryy	8r	8r	8r	8ryy	8r	8r	8r
4r	4r	4r	4r	4r	4r	4ryy	4r	4ryy	4r	4r	4r	4ryy	4r	4r	4r
*>B	*>B	*>B	*>B	*>B	*>B	*>B	*>B	*>B	*>B	*>B	*>B	*>B	*>B	*>B	*>B
!!!OMD: Allegro assai
*MM200	*MM200	*MM200	*MM200	*MM200	*MM200	*MM200	*MM200	*MM200	*MM200	*MM200	*MM200	*MM200	*MM200	*MM200	*MM200
=21|:	=21|:	=21|:	=21|:	=21|:	=21|:	=21|:	=21|:	=21|:	=21|:	=21|:	=21|:	=21|:	=21|:	=21|:	=21|:
4DD	4DD	4D	2d	2f#	2.r	2.r	2.r	2.r	2.r	2.r	2.r	2.r	2.r	2.r	2.r
4r	4D	4d	.	.	.	.	.	.	.	.	.	.	.	.	.
4r	4D	4d	8e	8g	.	.	.	.	.	.	.	.	.	.	.
.	.	.	8c#	8e	.	.	.	.	.	.	.	.	.	.	.
=22	=22	=22	=22	=22	=22	=22	=22	=22	=22	=22	=22	=22	=22	=22	=22
2.r	4D	4d	4d	4f#	2.r	2.r	2.r	2.r	2.r	2.r	2.r	2.r	2.r	2.r	2.r
.	4D	4d	4e	4g	.	.	.	.	.	.	.	.	.	.	.
.	4D	4d	4f#	4a	.	.	.	.	.	.	.	.	.	.	.
=23	=23	=23	=23	=23	=23	=23	=23	=23	=23	=23	=23	=23	=23	=23	=23
4DD	4DD	4D	2.g	2b	2.r	2.r	2.r	2.r	2.r	2.r	2.r	2.r	2.r	2.r	2.r
4r	4D	4d	.	.	.	.	.	.	.	.	.	.	.	.	.
4r	4D	4d	.	8ee	.	.	.	.	.	.	.	.	.	.	.
.	.	.	.	8cc#	.	.	.	.	.	.	.	.	.	.	.
=24	=24	=24	=24	=24	=24	=24	=24	=24	=24	=24	=24	=24	=24	=24	=24
2.r	4D	4d	4f#	4dd	2.r	2.r	2.r	2.r	2.r	2.r	2.r	2.r	2.r	2.r	2.r
.	4r	4r	4r	4a	.	.	.	.	.	.	.	.	.	.	.
.	4r	4r	4r	4a'	.	.	.	.	.	.	.	.	.	.	.
=25	=25	=25	=25	=25	=25	=25	=25	=25	=25	=25	=25	=25	=25	=25	=25
2BBz	2Bz	2.r	2dz	4az	2.r	2.r	2.r	2.r	2.r	2.r	2.r	2.r	2.r	2.r	2.r
.	.	.	.	4g	.	.	.	.	.	.	.	.	.	.	.
4AA	4A	.	4c#	4f#	.	.	.	.	.	.	.	.	.	.	.
=26	=26	=26	=26	=26	=26	=26	=26	=26	=26	=26	=26	=26	=26	=26	=26
2GGz	2Gz	2.r	2Bz	4f#z	2.r	2.r	2.r	2.r	2.r	2.r	2.r	2.r	2.r	2.r	2.r
.	.	.	.	4e	.	.	.	.	.	.	.	.	.	.	.
4FF#	4F#	.	4A	4d	.	.	.	.	.	.	.	.	.	.	.
=27	=27	=27	=27	=27	=27	=27	=27	=27	=27	=27	=27	=27	=27	=27	=27
2EE	2E	2.r	4G	8c#	2.r	2.r	2.r	2.r	2.r	2.r	2.r	2.r	2.r	2.r	2.r
.	.	.	.	8a	.	.	.	.	.	.	.	.	.	.	.
.	.	.	4c#	4g'	.	.	.	.	.	.	.	.	.	.	.
4DD	4D	.	4d'	4f#'	.	.	.	.	.	.	.	.	.	.	.
=28	=28	=28	=28	=28	=28	=28	=28	=28	=28	=28	=28	=28	=28	=28	=28
4AAA	4AA	2.r	2d	2f#	2.r	2.r	2.r	2.r	2.r	2.r	2.r	2.r	2.r	2.r	2.r
4AA	4A	.	.	.	.	.	.	.	.	.	.	.	.	.	.
4AA	4AA	.	8c#	8e	.	.	.	.	.	.	.	.	.	.	.
.	.	.	8r	8r	.	.	.	.	.	.	.	.	.	.	.
=29	=29	=29	=29	=29	=29	=29	=29	=29	=29	=29	=29	=29	=29	=29	=29
4DD	4DD	4D	2d	2f#	2.r	2.r	2.r	2.r	2.r	2.r	2.r	2.r	2.r	2.r	2.r
4r	4D	4d	.	.	.	.	.	.	.	.	.	.	.	.	.
4r	4D	4d	8e	8g	.	.	.	.	.	.	.	.	.	.	.
.	.	.	8c#	8e	.	.	.	.	.	.	.	.	.	.	.
=30	=30	=30	=30	=30	=30	=30	=30	=30	=30	=30	=30	=30	=30	=30	=30
2.r	4D	4d	4d	4f#	2.r	2.r	2.r	2.r	2.r	2.r	2.r	2.r	2.r	2.r	2.r
.	4D	4d	4e	4g	.	.	.	.	.	.	.	.	.	.	.
.	4D	4d	4f#	4a	.	.	.	.	.	.	.	.	.	.	.
=31	=31	=31	=31	=31	=31	=31	=31	=31	=31	=31	=31	=31	=31	=31	=31
4DD	4DD	4D	2.g	2b	2.r	2.r	2.r	2.r	2.r	2.r	2.r	2.r	2.r	2.r	2.r
4r	4D	4d	.	.	.	.	.	.	.	.	.	.	.	.	.
4r	4D	4d	.	8ee	.	.	.	.	.	.	.	.	.	.	.
.	.	.	.	8cc#	.	.	.	.	.	.	.	.	.	.	.
=32	=32	=32	=32	=32	=32	=32	=32	=32	=32	=32	=32	=32	=32	=32	=32
2.r	4D	4d	4f#	4dd	2.r	2.r	2.r	2.r	2.r	2.r	2.r	2.r	2.r	2.r	2.r
.	4r	4r	4r	4a	.	.	.	.	.	.	.	.	.	.	.
.	4r	4r	4r	4a'	.	.	.	.	.	.	.	.	.	.	.
=33	=33	=33	=33	=33	=33	=33	=33	=33	=33	=33	=33	=33	=33	=33	=33
2BBz	2Bz	2d#z	4f#z	4az	2.r	2.r	2.r	2.r	2.r	2.r	2.r	2.r	2.r	2.r	2.r
.	.	.	4d#	4f#	.	.	.	.	.	.	.	.	.	.	.
4EE	4E	4e	4e'	4g'	.	.	.	.	.	.	.	.	.	.	.
=34	=34	=34	=34	=34	=34	=34	=34	=34	=34	=34	=34	=34	=34	=34	=34
2AAz	2Az	2c#z	4ez	4gz	2.r	2.r	2.r	2.r	2.r	2.r	2.r	2.r	2.r	2.r	2.r
.	.	.	4c#	4e	.	.	.	.	.	.	.	.	.	.	.
4DD	4D	4dn	4dn'	4f#'	.	.	.	.	.	.	.	.	.	.	.
=35	=35	=35	=35	=35	=35	=35	=35	=35	=35	=35	=35	=35	=35	=35	=35
4GGG	4GG	4B	8B	8f#	2.r	2.r	2.r	2.r	2.r	2.r	2.r	2.r	2.r	2.r	2.r
.	.	.	8g	8e	.	.	.	.	.	.	.	.	.	.	.
4AAA	4AA	4A	4f#	4d	.	.	.	.	.	.	.	.	.	.	.
4AAA	4AA	8G	4e	4c#	.	.	.	.	.	.	.	.	.	.	.
.	.	8E	.	.	.	.	.	.	.	.	.	.	.	.	.
=36	=36	=36	=36	=36	=36	=36	=36	=36	=36	=36	=36	=36	=36	=36	=36
4DD	4D	8D	4A 4f#	4.d 4.dd	4D	2.f#	2.dd	2.f#	2.dd	2.d	2.d	2a	2.dd	4.ddd	4.ddd
.	.	8F#	.	.	.	.	.	.	.	.	.	.	.	.	.
4DD	4D	8A'	4A 4f#	.	4D	.	.	.	.	.	.	.	.	.	.
.	.	8d'	.	8a'	.	.	.	.	.	.	.	.	.	8aa'	8aa'
4DD	4D	8f#'	4A 4f#	8f#'	4D	.	.	.	.	.	.	4f#	.	8ff#'	8ff#'
.	.	8a'	.	8d'	.	.	.	.	.	.	.	.	.	8dd'	8dd'
=37	=37	=37	=37	=37	=37	=37	=37	=37	=37	=37	=37	=37	=37	=37	=37
4EE	4E	4g	4A 4g	8c#	4AA	4a	4a	4a	4a	4e	4e	4g	4cc#	4cc#	4cc#
.	.	.	.	8e	.	.	.	.	.	.	.	.	.	.	.
4r	4r	4r	4r	8a'	4r	4ryy	4r	4ryy	4r	4r	4r	4ryy	4r	4r	4r
.	.	.	.	8cc#'	.	.	.	.	.	.	.	.	.	.	.
4r	4r	4r	4r	8ee'	4r	4ryy	4r	4ryy	4r	4r	4r	4ryy	4r	4r	4r
.	.	.	.	8r	.	.	.	.	.	.	.	.	.	.	.
=38	=38	=38	=38	=38	=38	=38	=38	=38	=38	=38	=38	=38	=38	=38	=38
4AAA	4AA	8A	4c# 4e	4.ee	4AA	2.a	2.ee	2.a	2.ee	2.c#	2.c#	2.g	2.ee	4.eee	4.eee
.	.	8c#	.	.	.	.	.	.	.	.	.	.	.	.	.
4AAA	4AA	8e'	4c# 4e	.	4AA	.	.	.	.	.	.	.	.	.	.
.	.	8a'	.	8cc#'	.	.	.	.	.	.	.	.	.	8ccc#'	8ccc#'
4AAA	4AA	8cc#'	4c# 4e	8a'	4AA	.	.	.	.	.	.	.	.	8aa'	8aa'
.	.	8a'	.	8e'	.	.	.	.	.	.	.	.	.	8ee'	8ee'
=39	=39	=39	=39	=39	=39	=39	=39	=39	=39	=39	=39	=39	=39	=39	=39
4DD	4D	4dd	4d 4f#	8d	4D	4dd	4ff#	4dd	4ff#	4d	4d	4f#	4dd	4ff#	4ff#
.	.	.	.	8f#	.	.	.	.	.	.	.	.	.	.	.
4r	4r	4r	4r	8a'	4r	4ryy	4r	4ryy	4r	4r	4r	4ryy	4r	4r	4r
.	.	.	.	8dd'	.	.	.	.	.	.	.	.	.	.	.
4r	4r	4r	4r	8ff#'	4r	4ryy	4r	4ryy	4r	4r	4r	4ryy	4r	4r	4r
.	.	.	.	8r	.	.	.	.	.	.	.	.	.	.	.
=40	=40	=40	=40	=40	=40	=40	=40	=40	=40	=40	=40	=40	=40	=40	=40
2.r	2.r	2.r	2.r	8d	2.r	2.r	2.r	2.r	2.r	2.r	2.r	2.r	2.r	2.ryy	8d
.	.	.	.	8f#	.	.	.	.	.	.	.	.	.	.	8f#
.	.	.	.	8a'	.	.	.	.	.	.	.	.	.	.	8a'
.	.	.	.	8dd'	.	.	.	.	.	.	.	.	.	.	8dd'
.	.	.	.	8ff#'	.	.	.	.	.	.	.	.	.	.	8ff#
.	.	.	.	8r	.	.	.	.	.	.	.	.	.	.	8r
=41	=41	=41	=41	=41	=41	=41	=41	=41	=41	=41	=41	=41	=41	=41	=41
2.r	2.r	2.r	2.r	8d	2.r	2.r	2.r	2.r	2.r	2.r	8D	2.r	2.r	2.r	2.r
.	.	.	.	8f#	.	.	.	.	.	.	8F#	.	.	.	.
.	.	.	.	8a'	.	.	.	.	.	.	8A'	.	.	.	.
.	.	.	.	8dd'	.	.	.	.	.	.	8d'	.	.	.	.
.	.	.	.	8ff#'	.	.	.	.	.	.	8f#	.	.	.	.
.	.	.	.	8r	.	.	.	.	.	.	8r	.	.	.	.
=42	=42	=42	=42	=42	=42	=42	=42	=42	=42	=42	=42	=42	=42	=42	=42
2.r	2.r	2.r	2.r	8d	2.r	2.r	2.r	2.r	2.r	2.r	2.r	2.ryy	8d	2.r	2.r
.	.	.	.	8f#	.	.	.	.	.	.	.	.	8f#	.	.
.	.	.	.	8a'	.	.	.	.	.	.	.	.	8a'	.	.
.	.	.	.	8dd'	.	.	.	.	.	.	.	.	8dd'	.	.
.	.	.	.	8ff#'	.	.	.	.	.	.	.	.	8ff#	.	.
.	.	.	.	8r	.	.	.	.	.	.	.	.	8r	.	.
=43	=43	=43	=43	=43	=43	=43	=43	=43	=43	=43	=43	=43	=43	=43	=43
2GG	2G	2.A 2.a	2cc# 2ee	8cc#'	4AA	4ryy	4r	4ryy	4r	4r	4r	4ryy	4r	4r	4r
.	.	.	.	8ee'	.	.	.	.	.	.	.	.	.	.	.
.	.	.	.	8aa'	4r	4a	4ee	4a	4ee	4G	4G	4ee	4aa	4ccc#	4ccc#
.	.	.	.	8ccc#'	.	.	.	.	.	.	.	.	.	.	.
4FF#	4F#	.	4d 4a 4ff#	8ddd'	4D	4dd	4ff#	4dd	4ff#	4F#	4F#	4ff#	4ddd	4ddd	4ddd
.	.	.	.	8dd'	.	.	.	.	.	.	.	.	.	.	.
=44	=44	=44	=44	=44	=44	=44	=44	=44	=44	=44	=44	=44	=44	=44	=44
2GG	2G	2.A 2.a	2cc# 2ee	8cc#	4AA	4ryy	4r	4ryy	4r	4r	4r	4ryy	4r	4r	4r
.	.	.	.	8ee	.	.	.	.	.	.	.	.	.	.	.
.	.	.	.	8a	4r	4a	4ee	4a	4ee	4G	4G	4ee	4aa	4ccc#	4ccc#
.	.	.	.	8ccc#	.	.	.	.	.	.	.	.	.	.	.
4FF#	4F#	.	4d 4a 4ff#	8ddd	4D	4dd	4ff#	4dd	4ff#	4F#	4F#	4ff#	4ddd	4ddd	4ddd
.	.	.	.	8dd	.	.	.	.	.	.	.	.	.	.	.
=45	=45	=45	=45	=45	=45	=45	=45	=45	=45	=45	=45	=45	=45	=45	=45
4GG	4G	4A 4a	4cc# 4ee	8cc#	4AA	4ryy	4r	4ryy	4r	4r	4r	4ryy	4r	4r	4r
.	.	.	.	8ee	.	.	.	.	.	.	.	.	.	.	.
4GG	4G	4A 4a	4cc# 4ee	8a	4AA	4a	4ee	4a	4ee	4G	4G	4ee	4aa	4ccc#	4ccc#
.	.	.	.	8ccc#	.	.	.	.	.	.	.	.	.	.	.
4FF#	4F#	4A 4a	4d 4a 4ff#	8ddd	4D	4dd	4ff#	4dd	4ff#	4F#	4F#	4ff#	4ddd	4ddd	4ddd
.	.	.	.	8dd	.	.	.	.	.	.	.	.	.	.	.
=46	=46	=46	=46	=46	=46	=46	=46	=46	=46	=46	=46	=46	=46	=46	=46
4CC#	4C#	4A 4a	4a 4ee	8a	4AA	2ee	2gg	2a	2ee	4C#	4C#	2ee	4aa	4aa	4aa
.	.	.	.	8aa	.	.	.	.	.	.	.	.	.	.	.
4C#	4c#	4c#	4a 4ee	8gg	4AA	.	.	.	.	4c#	4c#	.	4gg	4gg	4gg
.	.	.	.	8a	.	.	.	.	.	.	.	.	.	.	.
4D	4d	4d	8ff#	8ff#	4D	4dd	4ff#	4dd	4ff#	4d	4d	4dd'y	4ff#'	4ff#'	4ff#'
.	.	.	8dd	8a	.	.	.	.	.	.	.	.	.	.	.
=47	=47	=47	=47	=47	=47	=47	=47	=47	=47	=47	=47	=47	=47	=47	=47
8AAA'	8AA'	8A'	8cc#'	8ee	4AA	4a	4ee	4a	4ee	8AA'	8AA'	8cc#'y	8ee'	8ee'	8ee'
8AA'	8A'	8a'	8r	8r	.	.	.	.	.	8A'	8A'	8ryy	8r	8r	8r
8GG'	8G'	8g'	8a'y 8ee'	8ccc#'	4r	4ryy	4r	4ryy	4r	8G'	8G'	8ee'y	8ccc#'	8ccc#'	8ccc#'
8AA'	8A'	8a'	8r	8r	.	.	.	.	.	8A'	8A'	8ryy	8r	8r	8r
8FF#'	8F#'	8f#'	8a'y 8ff#'	8ddd'	4r	4ryy	4r	4ryy	4r	8F#'	8F#'	8ff#'y	8ddd'	8ddd'	8ddd'
8AA'	8A'	8a'	8r	8r	.	.	.	.	.	8A'	8A'	8ryy	8r	8r	8r
=48	=48	=48	=48	=48	=48	=48	=48	=48	=48	=48	=48	=48	=48	=48	=48
8CC#	8C#	8c#	8a'y 8ee'	8a'y 8aa'	4AA	2a	2ee	2a	2ee	8C#	8C#	2ee	4aa	8eee'	8eee'
8AA	8A	8a	8r	8r	.	.	.	.	.	8A	8A	.	.	8r	8r
8C#	8c#	8cc#	8a'y 8ee'	8a'y 8gg'	8AA	.	.	.	.	8c#	8c#	.	4gg	8gg'	8gg'
8AA	8A	8a	8r	8r	8AA	.	.	.	.	8A	8A	.	.	8r	8r
8D	8d	8dd	8dd'	8a'y 8ff#'	4D	4dd	4ff#	4dd	4ff#	8d	8d	4dd'y	4ff#'	8ff#'	8ff#'
8DD	8D	8d	8r	8r	.	.	.	.	.	8D	8D	.	.	8r	8r
=49	=49	=49	=49	=49	=49	=49	=49	=49	=49	=49	=49	=49	=49	=49	=49
8AAA	8AA	8A	8cc#'	8a'y 8ee'	4AA	4a	4ee	4a	4ee	8AA	8AA	8cc#'y	8ee'	8ee'	8ee'
8AA	8A	8a	8r	8r	.	.	.	.	.	8A	8A	8ryy	8r	8r	8r
8GG	8G	8g	8a'y 8ee'	8ccc#'	4r	4ryy	4r	4ryy	4r	8G	8G	8ee'y	8ccc#'	8ccc#'	8ccc#'
8AA	8A	8a	8r	8r	.	.	.	.	.	8A	8A	8ryy	8r	8r	8r
8FF#	8F#	8f#	8a'y 8ff#'	8ddd'	4r	4ryy	4r	4ryy	4r	8F#	8F#	8ff#'y	8ddd'	8ddd'	8ddd'
8AA	8A	8a	8r	8r	.	.	.	.	.	8A	8A	8ryy	8r	8r	8r
=50	=50	=50	=50	=50	=50	=50	=50	=50	=50	=50	=50	=50	=50	=50	=50
8CC#	8C#	8c#	8a'y 8ee'	8a'y 8aa'	4AA	2a	2ee	2a	2ee	8C#	8C#	2ee	4aa	8eee'	8eee'
8AA	8A	8a	8r	8r	.	.	.	.	.	8A	8A	.	.	8r	8r
8C#	8c#	8cc#	8a'y 8ee'	8a'y 8gg'	8AA	.	.	.	.	8c#	8c#	.	4gg	8gg'	8gg'
8AA	8A	8a	8r	8r	8AA	.	.	.	.	8A	8A	.	.	8r	8r
8D	8d	8dd	8dd'	8a'y 8ff#'	4D	4dd	4ff#	4dd	4ff#	8d	8d	4dd	4ff#	8ff#'	8ff#'
8DD	8D	8d	8r	8r	.	.	.	.	.	8D	8D	.	.	8r	8r
=51	=51	=51	=51	=51	=51	=51	=51	=51	=51	=51	=51	=51	=51	=51	=51
4AA	4A	4a	4cc#	8ee	4AA	4a	4ee	4a	4ee	4A	4A	4cc#	4ee	4ee	4ee
.	.	.	.	8A	.	.	.	.	.	.	.	.	.	.	.
4AAA	4AA	4A	4e 4cc#	8c#	8AA	4a	4ee	4a	4ee	4AA	4AA	4cc#	4ee	4aa	4aa
.	.	.	.	8e	8AA	.	.	.	.	.	.	.	.	.	.
4AAA	4AA	4A	4e 4cc#	8a	8AA	4a	4ee	4a	4ee	4AA	4AA	4cc#	4ee	4aa	4aa
.	.	.	.	8cc#	8AA	.	.	.	.	.	.	.	.	.	.
=52	=52	=52	=52	=52	=52	=52	=52	=52	=52	=52	=52	=52	=52	=52	=52
4AAA	4AA	4A	4e 4cc#	8ee	4AA	4a	4ee	4a	4ee	4AA	4AA	4cc#	4ee	4aa	4aa
.	.	.	.	8a	.	.	.	.	.	.	.	.	.	.	.
4r	4r	4r	4r	8cc#	4r	4ryy	4r	4ryy	4r	4r	4r	4ryy	4r	4r	4r
.	.	.	.	8ee	.	.	.	.	.	.	.	.	.	.	.
4r	4r	4r	4r	8aa	4r	4ryy	4r	4ryy	4r	4r	4r	4ryy	4r	4r	4r
.	.	.	.	8aa	.	.	.	.	.	.	.	.	.	.	.
=53	=53	=53	=53	=53	=53	=53	=53	=53	=53	=53	=53	=53	=53	=53	=53
8AAA'	8AA'	8A'	8cc#'	2aa	4AA	2.a	2.ee	2.a	2.ee	2.AA	2.AA	[2.ee	2aa	2aa	2aa
8BBB'	8BB'	8B'	8dd'	.	.	.	.	.	.	.	.	.	.	.	.
8CC#'	8C#'	8c#'	8ee'	.	4r	.	.	.	.	.	.	.	.	.	.
8DD'	8D'	8d'	8ff#'	.	.	.	.	.	.	.	.	.	.	.	.
8EE'	8E'	8e'	8gg'	4gg	4r	.	.	.	.	.	.	.	4gg	4gg	4gg
8CC#'	8C#'	8c#'	8ee'	.	.	.	.	.	.	.	.	.	.	.	.
=54	=54	=54	=54	=54	=54	=54	=54	=54	=54	=54	=54	=54	=54	=54	=54
4DD	8D	8d	4ee	[2.ff#z	4D	4dd	4ff#	4dd	4ff#	4D	4D	4ee]	[2.ff#z	[2.ff#z	[2.ff#z
.	8E	8e	.	.	.	.	.	.	.	.	.	.	.	.	.
4r	8F#	8f#	4dd	.	4r	4ryy	4r	4ryy	4r	4F#	4F#	4dd	.	.	.
.	8B	8b	.	.	.	.	.	.	.	.	.	.	.	.	.
4r	8A#	8a#	4cc#	.	4r	4ryy	4r	4ryy	4r	4A#	4A#	4cc#	.	.	.
.	8F#	8f#	.	.	.	.	.	.	.	.	.	.	.	.	.
=55	=55	=55	=55	=55	=55	=55	=55	=55	=55	=55	=55	=55	=55	=55	=55
4BBB	[2B	4b	[2.ddz	8ff#]	2.r	2.r	2.r	2.r	2.r	4B	4B	[2.ddz	2.ff#]	8ff#]	8ff#]
.	.	.	.	8aa#	.	.	.	.	.	.	.	.	.	8aa#	8aa#
4r	.	4B	.	8bb	.	.	.	.	.	4BB	4BB	.	.	8bb	8bb
.	.	.	.	8ccc#	.	.	.	.	.	.	.	.	.	8ccc#	8ccc#
4r	8B]	8B	.	8ddd	.	.	.	.	.	8B	8B	.	.	8ddd	8ddd
.	8An	8An	.	8ff#	.	.	.	.	.	8An	8An	.	.	8ff#	8ff#
=56	=56	=56	=56	=56	=56	=56	=56	=56	=56	=56	=56	=56	=56	=56	=56
4EE	8G#	8G#	4dd]	[2.eez	2.r	2.r	2.r	2.r	2.r	2.G#	2.G#	4dd]	[2.eez	[2.eez	[2.eez
.	8A	8A	.	.	.	.	.	.	.	.	.	.	.	.	.
4r	8B	8B	4cc#	.	.	.	.	.	.	.	.	4cc#	.	.	.
.	8c#	8c#	.	.	.	.	.	.	.	.	.	.	.	.	.
4r	8d	8d	4b	.	.	.	.	.	.	.	.	4b	.	.	.
.	8G#	8G#	.	.	.	.	.	.	.	.	.	.	.	.	.
=57	=57	=57	=57	=57	=57	=57	=57	=57	=57	=57	=57	=57	=57	=57	=57
4AAA	2A	4A	[2.cc#z	8ee]	2.r	2.r	2.r	2.r	2.r	4A	4A	[2.cc#z	2.ee]	8ee]	8ee]
.	.	.	.	8gg#	.	.	.	.	.	.	.	.	.	8gg#	8gg#
4r	.	4r	.	8aan	.	.	.	.	.	4AA	4AA	.	.	8aa	8aa
.	.	.	.	8bb	.	.	.	.	.	.	.	.	.	8bb	8bb
8AA	8A	8a	.	8ccc#	.	.	.	.	.	8A	8A	.	.	8ccc#	8ccc#
8GG#	8G#	8g#	.	8ee	.	.	.	.	.	8G#	8G#	.	.	8ee	8ee
=58	=58	=58	=58	=58	=58	=58	=58	=58	=58	=58	=58	=58	=58	=58	=58
8FF#	8F#	8f#	4cc#]	2.ddz	2.r	2.r	2.r	2.r	2.r	8F#	8F#	4cc#]	2.ddz	2.ddz	2.ddz
8AA	8A	8a	.	.	.	.	.	.	.	8A	8A	.	.	.	.
8GG#	8G#	8g#	4b	.	.	.	.	.	.	8G#	8G#	4b	.	.	.
8BB	8B	8b	.	.	.	.	.	.	.	8B	8B	.	.	.	.
8EE	8E	8e	[4bz	.	.	.	.	.	.	8E	8E	[4bbz	.	.	.
8GG#	8G#	8g#	.	.	.	.	.	.	.	8G#	8G#	.	.	.	.
=59	=59	=59	=59	=59	=59	=59	=59	=59	=59	=59	=59	=59	=59	=59	=59
8AA	8A	8a	4b]	2.cc#z	2.r	2.r	2.r	2.r	2.r	8A	8A	4bb]	2.cc#z	4cc#	4cc#
8GG#	8G#	8g#	.	.	.	.	.	.	.	8G#	8G#	.	.	.	.
8FF#	8F#	8f#	4a	.	.	.	.	.	.	8F#	8F#	4aa	.	4ccc#	4ccc#
8EE	8E	8e	.	.	.	.	.	.	.	8E	8E	.	.	.	.
8DD	8D	8d	4a	.	.	.	.	.	.	8D	8D	4aa	.	4ccc#	4ccc#
8CC#	8C#	8c#	.	.	.	.	.	.	.	8C#	8C#	.	.	.	.
=60	=60	=60	=60	=60	=60	=60	=60	=60	=60	=60	=60	=60	=60	=60	=60
8DD	8D	8d	4a	4b	2.r	2.r	2.r	2.r	2.r	8D	8D	4aa	2b	2bb	2bb
8FF#	8F#	8f#	.	.	.	.	.	.	.	8F#	8F#	.	.	.	.
8DD	8D	8d	4.aT	4b	.	.	.	.	.	8D	8D	4a	.	.	.
8FF#	8F#	8f#	.	.	.	.	.	.	.	8F#	8F#	.	.	.	.
.	.	.	.	8ddq	.	.	.	.	.	.	.	.	8ddq	8dddq	8dddq
8DD#	8D#	8d#	.	8cc#	.	.	.	.	.	8D#	8D#	4a	8cc#	8ccc#	8ccc#
8FF#	8F#	8f#	16g#	8b	.	.	.	.	.	8F#	8F#	.	8b	8bb	8bb
.	.	.	16a	.	.	.	.	.	.	.	.	.	.	.	.
=61	=61	=61	=61	=61	=61	=61	=61	=61	=61	=61	=61	=61	=61	=61	=61
[2.EE	[2.E	4e	4g#	4b	2.r	4ee	4ee	4ee	4ee	4E	4E	4g#	4b	4bb	4bb
.	.	4g#	4ee	8e	.	4r	4r	4r	4r	4E	4E	4g#	2ee	4eee	4eee
.	.	.	.	8g#	.	.	.	.	.	.	.	.	.	.	.
.	.	4g#	4ee	8b	.	4r	4r	4r	4r	4E	4E	4g#	.	4eee	4eee
.	.	.	.	8ee	.	.	.	.	.	.	.	.	.	.	.
=62	=62	=62	=62	=62	=62	=62	=62	=62	=62	=62	=62	=62	=62	=62	=62
2.EEz_	2.Ez_	2.az	2.dd#z	4ff#z	2.r	4ee	4ee	4ee	4ee	4EE	4EE	2.a	2.ff#z	2.ddd#z	2.ddd#z
.	.	.	.	8f#	.	4r	4r	4r	4r	4E	4E	.	.	.	.
.	.	.	.	8a	.	.	.	.	.	.	.	.	.	.	.
.	.	.	.	8dd#	.	4r	4r	4r	4r	4E	4E	.	.	.	.
.	.	.	.	8ff#	.	.	.	.	.	.	.	.	.	.	.
=63	=63	=63	=63	=63	=63	=63	=63	=63	=63	=63	=63	=63	=63	=63	=63
2.EEz_	2.Ez_	4bz	4ddnz	4gg#z	2.r	4ee	4ee	4ee	4ee	4EE	4EE	2.b	2.gg#z	2.dddnz	2.dddnz
.	.	4b	4dd	8g#X	.	4r	4r	4r	4r	4E	4E	.	.	.	.
.	.	.	.	8b	.	.	.	.	.	.	.	.	.	.	.
.	.	4b	4dd	8ee	.	4r	4r	4r	4r	4E	4E	.	.	.	.
.	.	.	.	8gg#	.	.	.	.	.	.	.	.	.	.	.
=64	=64	=64	=64	=64	=64	=64	=64	=64	=64	=64	=64	=64	=64	=64	=64
2.EEz_	2.Ez_	2.az	2.cc#z	4aaz	2.r	4ee	4ee	4ee	4ee	4EE	4EE	2.cc#	2.aaz	2.ccc#z	2.ccc#z
.	.	.	.	16a	.	4r	4r	4r	4r	4E	4E	.	.	.	.
.	.	.	.	16b	.	.	.	.	.	.	.	.	.	.	.
.	.	.	.	16cc#	.	.	.	.	.	.	.	.	.	.	.
.	.	.	.	16dd	.	.	.	.	.	.	.	.	.	.	.
.	.	.	.	16ee	.	4r	4r	4r	4r	4E	4E	.	.	.	.
.	.	.	.	16ff#	.	.	.	.	.	.	.	.	.	.	.
.	.	.	.	16gg#	.	.	.	.	.	.	.	.	.	.	.
.	.	.	.	16aa	.	.	.	.	.	.	.	.	.	.	.
=65	=65	=65	=65	=65	=65	=65	=65	=65	=65	=65	=65	=65	=65	=65	=65
2.EEz]	2.Ez]	4dz	4g#z	4bbz	2.r	4ee	4ee	4ee	4ee	4EE	4EE	2.dd	2.bbz	2.gg#z	2.gg#z
.	.	4d	4g#	8b	.	4r	4r	4r	4r	4E	4E	.	.	.	.
.	.	.	.	8dd	.	.	.	.	.	.	.	.	.	.	.
.	.	4d	4g#	8gg#	.	4r	4r	4r	4r	4E	4E	.	.	.	.
.	.	.	.	8bb	.	.	.	.	.	.	.	.	.	.	.
=66	=66	=66	=66	=66	=66	=66	=66	=66	=66	=66	=66	=66	=66	=66	=66
4AAA	4AA	4c#	8a	8ccc#	4AA	2.a	[2.ee	2.a	[2.ee	4AA	4AA	4cc#	8ccc#	8aa	8aa
.	.	.	8r	8r	.	.	.	.	.	.	.	.	8r	8r	8r
4r	4r	4r	[12ccc#	[12eee	4r	.	.	.	.	4r	4r	4r	8ccc#	8eee	8eee
.	.	.	12ccc#]	12eee]	.	.	.	.	.	.	.	.	.	.	.
.	.	.	.	.	.	.	.	.	.	.	.	.	8r	8r	8r
.	.	.	12ccc#	12eee	.	.	.	.	.	.	.	.	.	.	.
4r	4r	4r	[12aa	[12ccc#	4r	.	.	.	.	4r	4r	4r	8aa	8ccc#	8ccc#
.	.	.	12aa]	12ccc#]	.	.	.	.	.	.	.	.	.	.	.
.	.	.	.	.	.	.	.	.	.	.	.	.	8r	8r	8r
.	.	.	12aa	12ccc#	.	.	.	.	.	.	.	.	.	.	.
=67	=67	=67	=67	=67	=67	=67	=67	=67	=67	=67	=67	=67	=67	=67	=67
2.r	2.r	2.r	[12ee	[12aa	2.r	2.a	2.ee]	2.a	2.ee]	2.r	2.r	2.r	8ee	8aa	8aa
.	.	.	12ee]	12aa]	.	.	.	.	.	.	.	.	.	.	.
.	.	.	.	.	.	.	.	.	.	.	.	.	8r	8r	8r
.	.	.	12ee	12aa	.	.	.	.	.	.	.	.	.	.	.
.	.	.	[12cc#	[12ee	.	.	.	.	.	.	.	.	8cc#	8ee	8ee
.	.	.	12cc#]	12ee]	.	.	.	.	.	.	.	.	.	.	.
.	.	.	.	.	.	.	.	.	.	.	.	.	8r	8r	8r
.	.	.	12cc#	12ee	.	.	.	.	.	.	.	.	.	.	.
.	.	.	[12a	[12cc#	.	.	.	.	.	.	.	.	8a	8cc#	8cc#
.	.	.	12a]	12cc#]	.	.	.	.	.	.	.	.	.	.	.
.	.	.	.	.	.	.	.	.	.	.	.	.	8r	8r	8r
.	.	.	12a	12cc#	.	.	.	.	.	.	.	.	.	.	.
=68	=68	=68	=68	=68	=68	=68	=68	=68	=68	=68	=68	=68	=68	=68	=68
4DD	4D	4A	12dd	[12ff#	4D	2.dd	[2.ff#	2.dd	[2.ff#	4D	4D	2.r	8dd	8ff#	8ff#
.	.	.	12dd	12ff#]	.	.	.	.	.	.	.	.	.	.	.
.	.	.	.	.	.	.	.	.	.	.	.	.	8r	8r	8r
.	.	.	12dd	12ff#	.	.	.	.	.	.	.	.	.	.	.
4r	4r	4r	12ff#	[12aa	4r	.	.	.	.	4r	4r	.	8ff#	8aa	8aa
.	.	.	12ff#	12aa]	.	.	.	.	.	.	.	.	.	.	.
.	.	.	.	.	.	.	.	.	.	.	.	.	8r	8r	8r
.	.	.	12ff#	12aa	.	.	.	.	.	.	.	.	.	.	.
4r	4r	4r	12dd	[12ff#	4r	.	.	.	.	4r	4r	.	8dd	8ff#	8ff#
.	.	.	12dd	12ff#]	.	.	.	.	.	.	.	.	.	.	.
.	.	.	.	.	.	.	.	.	.	.	.	.	8r	8r	8r
.	.	.	12dd	12ff#	.	.	.	.	.	.	.	.	.	.	.
=69	=69	=69	=69	=69	=69	=69	=69	=69	=69	=69	=69	=69	=69	=69	=69
2.r	2.r	2.r	12b	12dd	2.r	2.dd	2.ff#]	2.dd	2.ff#]	2.r	2.r	2.r	8b	8dd	8dd
.	.	.	12b	12dd	.	.	.	.	.	.	.	.	.	.	.
.	.	.	.	.	.	.	.	.	.	.	.	.	8r	8r	8r
.	.	.	12b	12dd	.	.	.	.	.	.	.	.	.	.	.
.	.	.	12dd	12ff#	.	.	.	.	.	.	.	.	8dd	8ff#	8ff#
.	.	.	12dd	12ff#	.	.	.	.	.	.	.	.	.	.	.
.	.	.	.	.	.	.	.	.	.	.	.	.	8r	8r	8r
.	.	.	12dd	12ff#	.	.	.	.	.	.	.	.	.	.	.
.	.	.	12b	12dd	.	.	.	.	.	.	.	.	8b	8dd	8dd
.	.	.	12b	12dd	.	.	.	.	.	.	.	.	.	.	.
.	.	.	.	.	.	.	.	.	.	.	.	.	8r	8r	8r
.	.	.	12b	12dd	.	.	.	.	.	.	.	.	.	.	.
=70	=70	=70	=70	=70	=70	=70	=70	=70	=70	=70	=70	=70	=70	=70	=70
2DDz	2Dz	2.ez	2g#z	2ez 2bz	4Dz	4ee	4eez	4ee	4eez	2.ez	2.ez	2b	2g#z	2bz	2bz
.	.	.	.	.	4r	4ryy	4r	4ryy	4r	.	.	.	.	.	.
8D	8d	.	8g#	8ff#	4r	4ryy	4r	4ryy	4r	.	.	8g#X	8ff#	8ff#	8ff#
8C#	8c#	.	8a	8ee	.	.	.	.	.	.	.	8a	8ee	8ee	8ee
=71	=71	=71	=71	=71	=71	=71	=71	=71	=71	=71	=71	=71	=71	=71	=71
4C#z	4c#z	4ez	4az	4eez	4AAz	2.a	2.eez	2.a	2.eez	4ez	4ez	4a	4eez	4eez	4eez
2CC#	2C#	2E	2A 2e	2a 2aa	8AA	.	.	.	.	2E	2E	2ee	2aa	2aa	2aa
.	.	.	.	.	8AA	.	.	.	.	.	.	.	.	.	.
.	.	.	.	.	4AA	.	.	.	.	.	.	.	.	.	.
=72	=72	=72	=72	=72	=72	=72	=72	=72	=72	=72	=72	=72	=72	=72	=72
4DD	4D	4D	4A 4f#	8gg#	4D	4dd	4ff#	4dd	4ff#	4F#	4F#	4a	8gg#	8gg#	8gg#
.	.	.	.	8ff#	.	.	.	.	.	.	.	.	8ff#	8ff#	8ff#
4r	4r	4r	4r	8ee	4r	4ryy	4r	4ryy	4r	4r	4r	4r	8ee	8ee	8ee
.	.	.	.	8dd	.	.	.	.	.	.	.	.	8dd	8dd	8dd
4r	4r	4r	4r	8cc#	4r	4ryy	4r	4ryy	4r	4r	4r	4r	8cc#	8cc#	8cc#
.	.	.	.	8b	.	.	.	.	.	.	.	.	8b	8b	8b
=73	=73	=73	=73	=73	=73	=73	=73	=73	=73	=73	=73	=73	=73	=73	=73
2.EE	2.E	4E	2c#	2a	2.r	2.ee	[2.ee	2.ee	[2.ee	2.E	2.E	2cc#	2a	2ee	2ee
.	.	4A	.	.	.	.	.	.	.	.	.	.	.	.	.
.	.	4G#	8e	8cc#	.	.	.	.	.	.	.	4g#	8cc#	4gg#	4gg#
.	.	.	8d	8b	.	.	.	.	.	.	.	.	8b	.	.
=74	=74	=74	=74	=74	=74	=74	=74	=74	=74	=74	=74	=74	=74	=74	=74
4AAA	4AA	4A	4c#	8a	4AA	4a	4ee]	4a	4ee]	4AA	4AA	4a	4a	4aa	4aa
.	.	.	.	8A'	.	.	.	.	.	.	.	.	.	.	.
4r	4r	4r	4r	8B'	4r	4ryy	4r	4ryy	4r	4r	4r	4ryy	4r	4r	4r
.	.	.	.	8c#'	.	.	.	.	.	.	.	.	.	.	.
4r	4r	4r	4r	8d'	4r	4ryy	4r	4ryy	4r	4r	4r	4ryy	4r	4r	4r
.	.	.	.	8e'	.	.	.	.	.	.	.	.	.	.	.
=75	=75	=75	=75	=75	=75	=75	=75	=75	=75	=75	=75	=75	=75	=75	=75
2.r	2.r	2.r	2.r	8f#'	2.r	2.r	2.r	2.r	2.r	2.r	2.r	2.r	2.r	2.r	2.r
.	.	.	.	8g#'	.	.	.	.	.	.	.	.	.	.	.
.	.	.	.	8a'	.	.	.	.	.	.	.	.	.	.	.
.	.	.	.	8b'	.	.	.	.	.	.	.	.	.	.	.
.	.	.	.	8cc#'	.	.	.	.	.	.	.	.	.	.	.
.	.	.	.	8dd'	.	.	.	.	.	.	.	.	.	.	.
=76	=76	=76	=76	=76	=76	=76	=76	=76	=76	=76	=76	=76	=76	=76	=76
4AAA	4AA	8A'	8c#'	2ee	2.r	2.r	2.r	2.r	2.r	2.r	2.r	2.r	2.r	2.r	2.r
.	.	8c#'	8e'	.	.	.	.	.	.	.	.	.	.	.	.
4r	4r	8A'	8c#'	.	.	.	.	.	.	.	.	.	.	.	.
.	.	8c#'	8e'	.	.	.	.	.	.	.	.	.	.	.	.
4r	4r	8A'	8c#'	8cc#	.	.	.	.	.	.	.	.	.	.	.
.	.	8c#'	8e'	8a	.	.	.	.	.	.	.	.	.	.	.
=77	=77	=77	=77	=77	=77	=77	=77	=77	=77	=77	=77	=77	=77	=77	=77
4EE	4E	8B'	8d'	8a	2.r	2.r	2.r	2.r	2.r	2.r	2.r	2.r	2.r	2.r	2.r
.	.	8d'	8e'	8g#	.	.	.	.	.	.	.	.	.	.	.
4r	4r	8B'	8d'	4g#'	.	.	.	.	.	.	.	.	.	.	.
.	.	8d'	8e'	.	.	.	.	.	.	.	.	.	.	.	.
4r	4r	8B'	8d'	4e'	.	.	.	.	.	.	.	.	.	.	.
.	.	8d'	8e'	.	.	.	.	.	.	.	.	.	.	.	.
=78	=78	=78	=78	=78	=78	=78	=78	=78	=78	=78	=78	=78	=78	=78	=78
4AAA	4AA	8A	8c#	8a	2.r	2.r	2.r	2.r	2.r	2.r	2.r	2.r	2.r	2.r	2.r
.	.	8c#	8e	8g#	.	.	.	.	.	.	.	.	.	.	.
4r	4r	8A	8c#	8a	.	.	.	.	.	.	.	.	.	.	.
.	.	8c#	8e	8b	.	.	.	.	.	.	.	.	.	.	.
4r	4r	8A	8c#	8cc#	.	.	.	.	.	.	.	.	.	.	.
.	.	8c#	8e	8dd	.	.	.	.	.	.	.	.	.	.	.
=79	=79	=79	=79	=79	=79	=79	=79	=79	=79	=79	=79	=79	=79	=79	=79
4EE	4E	8G#	8d	4b	2.r	2.r	2.r	2.r	2.r	2.r	2.r	2.r	2.r	2.r	2.r
.	.	8d	8e	.	.	.	.	.	.	.	.	.	.	.	.
4r	4r	8B	8d	4e	.	.	.	.	.	.	.	.	.	.	.
.	.	8d	8e	.	.	.	.	.	.	.	.	.	.	.	.
4r	4r	8G#	8d	8ff#	.	.	.	.	.	.	.	.	.	.	.
.	.	8B	8e	8ee	.	.	.	.	.	.	.	.	.	.	.
=80	=80	=80	=80	=80	=80	=80	=80	=80	=80	=80	=80	=80	=80	=80	=80
4AAA	4AA	8A	8c#	2ee	2.r	2.r	2.r	2.r	2.r	2.r	2.r	2.r	2.r	2.r	2.r
.	.	8c#	8e	.	.	.	.	.	.	.	.	.	.	.	.
4r	4r	8A	8c#	.	.	.	.	.	.	.	.	.	.	.	.
.	.	8c#	8e	.	.	.	.	.	.	.	.	.	.	.	.
4r	4r	8A	8c#	8cc#	.	.	.	.	.	.	.	.	.	.	.
.	.	8c#	8e	8a	.	.	.	.	.	.	.	.	.	.	.
=81	=81	=81	=81	=81	=81	=81	=81	=81	=81	=81	=81	=81	=81	=81	=81
4EE	4E	8B	8d	8a	2.r	2.r	2.r	2.r	2.r	2.r	2.r	2.r	2.r	2.r	2.r
.	.	8d	8e	8g#	.	.	.	.	.	.	.	.	.	.	.
4r	4r	8B	8d	4g#'	.	.	.	.	.	.	.	.	.	.	.
.	.	8d	8e	.	.	.	.	.	.	.	.	.	.	.	.
4r	4r	8B	8d	4e'	.	.	.	.	.	.	.	.	.	.	.
.	.	8d	8e	.	.	.	.	.	.	.	.	.	.	.	.
=82	=82	=82	=82	=82	=82	=82	=82	=82	=82	=82	=82	=82	=82	=82	=82
4AAA	4AA	8A	8c#	8a	2.r	2.r	2.r	2.r	2.r	2.r	2.r	2.r	2.r	2.r	2.r
.	.	8c#	8e	8g#	.	.	.	.	.	.	.	.	.	.	.
4r	4r	8e	8c#	8a	.	.	.	.	.	.	.	.	.	.	.
.	.	8A	8e	8cc#	.	.	.	.	.	.	.	.	.	.	.
4EE	4E	8G#	8d	8b	.	.	.	.	.	.	.	.	.	.	.
.	.	8B	8B	8g#	.	.	.	.	.	.	.	.	.	.	.
=83	=83	=83	=83	=83	=83	=83	=83	=83	=83	=83	=83	=83	=83	=83	=83
4AAA	4AA	4A	4c#	8a	2.r	2.r	2.r	2.r	2.r	2.r	2.r	2.r	2.r	2.r	8r
.	.	.	.	8A'	.	.	.	.	.	.	.	.	.	.	8a'
4r	4r	4r	4r	8B'	.	.	.	.	.	.	.	.	.	.	8b'
.	.	.	.	8c#'	.	.	.	.	.	.	.	.	.	.	8cc#'
4r	4r	4r	4r	8d'	.	.	.	.	.	.	.	.	.	.	8dd'
.	.	.	.	8e'	.	.	.	.	.	.	.	.	.	.	8ee'
=84	=84	=84	=84	=84	=84	=84	=84	=84	=84	=84	=84	=84	=84	=84	=84
2.r	2.r	2.r	2.r	8f#'	2.r	2.r	2.r	2.r	2.r	2.r	2.r	2.r	2.r	2.r	8ff#'
.	.	.	.	8g#'	.	.	.	.	.	.	.	.	.	.	8gg#'
.	.	.	.	8a'	.	.	.	.	.	.	.	.	.	.	8aa'
.	.	.	.	8b'	.	.	.	.	.	.	.	.	.	.	8bb'
.	.	.	.	8cc#'	.	.	.	.	.	.	.	.	.	.	8ccc#'
.	.	.	.	8dd'	.	.	.	.	.	.	.	.	.	.	8ddd'
=85	=85	=85	=85	=85	=85	=85	=85	=85	=85	=85	=85	=85	=85	=85	=85
4AAA	4AA	4r	4r	2ee	2.r	2.r	2.r	2.r	2.r	8A'y	8c#'	2.r	2.r	2.r	2eee
.	.	.	.	.	.	.	.	.	.	8c#'y	8e'	.	.	.	.
4r	4r	4A	4c#	.	.	.	.	.	.	8A'y	8c#'	.	.	.	.
.	.	.	.	.	.	.	.	.	.	8c#'y	8e'	.	.	.	.
4r	4r	4A	4c#	8cc#	.	.	.	.	.	8A'y	8c#'	.	.	.	8ccc#
.	.	.	.	8a	.	.	.	.	.	8c#'y	8e'	.	.	.	8aa
=86	=86	=86	=86	=86	=86	=86	=86	=86	=86	=86	=86	=86	=86	=86	=86
4EE	2d	4r	4r	8a	2.r	2.r	2.r	2.r	2.r	8B'y	8d'	2.r	2.r	2.r	8aa
.	.	.	.	8g#	.	.	.	.	.	8d'y	8e'	.	.	.	8gg#
4r	.	4B	4d	4g#'	.	.	.	.	.	8B'y	8d'	.	.	.	4gg#'
.	.	.	.	.	.	.	.	.	.	8d'y	8e'	.	.	.	.
4r	8B	4G#	4d	4e'	.	.	.	.	.	8B'y	8d'	.	.	.	4ee'
.	8G#	.	.	.	.	.	.	.	.	8G#'y	8e'	.	.	.	.
=87	=87	=87	=87	=87	=87	=87	=87	=87	=87	=87	=87	=87	=87	=87	=87
4AAA	4A	4r	4r	8a	2.r	2.r	2.r	2.r	2.r	8A'y	8c#'	2.r	2.r	2.r	8aa
.	.	.	.	8g#	.	.	.	.	.	8c#'y	8e'	.	.	.	8gg#
4r	4r	4A	4c#	8a	.	.	.	.	.	8A'y	8c#'	.	.	.	8aa
.	.	.	.	8b	.	.	.	.	.	8c#'y	8e'	.	.	.	8bb
4r	4r	4A	4c#	8cc#	.	.	.	.	.	8A'y	8c#'	.	.	.	8ccc#
.	.	.	.	8dd	.	.	.	.	.	8c#'y	8e'	.	.	.	8ddd
=88	=88	=88	=88	=88	=88	=88	=88	=88	=88	=88	=88	=88	=88	=88	=88
4EE	4E	4r	4r	4b	2.r	2.r	2.r	2.r	2.r	8B'y	8d'	4ryy	4r	4r	4bb
.	.	.	.	.	.	.	.	.	.	8d'y	8e'	.	.	.	.
4r	4r	4B	4g#	4e	.	.	.	.	.	8B'y	8d'	4ryy	4r	4r	4ee
.	.	.	.	.	.	.	.	.	.	8d'y	8e'	.	.	.	.
8D	8d	8d	8g#	8ff#	.	.	.	.	.	8B'y	8d'	8g#	8ff#	8ff#	8ff#
8C#	8c#	8c#	8a	8ee	.	.	.	.	.	8d'y	8e'	8a	8ee	8ee	8ee
=89	=89	=89	=89	=89	=89	=89	=89	=89	=89	=89	=89	=89	=89	=89	=89
4C#	4c#	4c#	4a	4ee	2.r	2.r	2.r	2.r	2.r	4A	4c#	4a	4ee	4ee	4ee
4r	4r	4r	4r	2a 2aa	.	.	.	.	.	4ryy	4r	2a	2aaz	4r	4r
8D^	8d^	8d^	8A^ 8f#^y	.	.	.	.	.	.	8d	8f#	.	.	8ff#	8ff#
8C#	8c#	8c#	8e	.	.	.	.	.	.	8c#	8e	.	.	8ee	8ee
=90	=90	=90	=90	=90	=90	=90	=90	=90	=90	=90	=90	=90	=90	=90	=90
4C#	4c#	4c#	4A 4e	4r	2.r	2.r	2.r	2.r	2.r	4c#	4e	4ryy	4r	4ee	4ee
4r	4r	4r	4r	2a 2aa	.	.	.	.	.	4ryy	4r	2a	2aaz	4r	4r
8D^	8d^	8d^	8A^ 8f#^y	.	.	.	.	.	.	8d	8f#	.	.	8ff#	8ff#
8C#	8c#	8c#	8e	.	.	.	.	.	.	8c#	8e	.	.	8ee	8ee
=91	=91	=91	=91	=91	=91	=91	=91	=91	=91	=91	=91	=91	=91	=91	=91
4C#	4c#	4c#	4e	4r	2.r	2.r	2.r	2.r	2.r	4c#	4e	4ryy	4r	4ee	4ee
4r	4r	4r	4r	2aa#z	.	.	.	.	.	4ryy	4r	2a#	2aa#Xz	4r	4r
8E^	8e^	8e^	8gn^	.	.	.	.	.	.	8e	8gn	.	.	8ggn	8ggn
8D	8d	8d	8f#	.	.	.	.	.	.	8d	8f#	.	.	8ff#	8ff#
=92	=92	=92	=92	=92	=92	=92	=92	=92	=92	=92	=92	=92	=92	=92	=92
4D'	4d'	4d'	4f#'	4bb'	2.r	2.r	2.r	2.r	2.r	4d'y	4f#'	8b	8bb	8ff#	8ff#
.	.	.	.	.	.	.	.	.	.	.	.	8ryy	8r	8r	8r
4C#'	4c#'	4e'	4e'	4ccc#'	.	.	.	.	.	4c#'y	4e'	8cc#	8ccc#	8ee	8ee
.	.	.	.	.	.	.	.	.	.	.	.	8ryy	8r	8r	8r
4BB'	4B'	4f#'	4d'	4ddd'	.	.	.	.	.	4B'y	4d'	8dd	8ddd	8dd	8dd
.	.	.	.	.	.	.	.	.	.	.	.	8ryy	8r	8r	8r
=93	=93	=93	=93	=93	=93	=93	=93	=93	=93	=93	=93	=93	=93	=93	=93
4E	4e	4e	4c#	4aan	2.r	2.r	2.r	2.r	2.r	4A	4c#	4cc#	4aan	4cc#	4cc#
4r	4r	4r	4r	4r	.	.	.	.	.	4ryy	4r	4ryy	4r	4r	4r
4r	4r	4r	4r	4r	.	.	.	.	.	4ryy	4r	4ryy	4r	4r	4r
=94	=94	=94	=94	=94	=94	=94	=94	=94	=94	=94	=94	=94	=94	=94	=94
4EE	4E	4e	4B 4d	4b 4gg#	2.r	2.r	2.r	2.r	2.r	4E	4E	4b	4gg#	4gg#	4gg#
4r	4r	4r	4r	4r	.	.	.	.	.	4r	4r	4ryy	4r	4r	4r
4r	4r	4r	4r	4r	.	.	.	.	.	4r	4r	4ryy	4r	4r	4r
=95	=95	=95	=95	=95	=95	=95	=95	=95	=95	=95	=95	=95	=95	=95	=95
8AA	8A	8a	8c#	8aa	4AA	4a	4a	4a	4aa	4AA	4AA	4a	4aa	4aa	4aa
8AAA'	8AA'	8A'	8A'	8A'	.	.	.	.	.	.	.	.	.	.	.
8BBB'	8BB'	8B'	8B'	8B'	4r	4r	4r	4ryy	4r	4r	4r	4ryy	4r	4r	4r
8CC#'	8C#'	8c#'	8c#'	8c#'	.	.	.	.	.	.	.	.	.	.	.
8DD'	8D'	8d'	8d'	8d'	4r	4r	4r	4ryy	4r	4r	4r	4ryy	4r	4r	4r
8CC#'	8C#'	8c#'	8c#'	8c#'	.	.	.	.	.	.	.	.	.	.	.
=96	=96	=96	=96	=96	=96	=96	=96	=96	=96	=96	=96	=96	=96	=96	=96
8DD'	8D'	8d'	8d'	8d'	4AA	4a	4a	4a	4aa	4AA	4AA	4a	4aa	4aa	4aa
8EE'	8E'	8e'	8e'	8e'	.	.	.	.	.	.	.	.	.	.	.
8FF#'	8F#'	8f#'	8f#'	8f#'	4r	4r	4r	4ryy	4r	4r	4r	4ryy	4r	4r	4r
8EE'	8E'	8e'	8e'	8e'	.	.	.	.	.	.	.	.	.	.	.
8FF#'	8F#'	8f#'	8f#'	8f#'	4r	4r	4r	4ryy	4r	4r	4r	4ryy	4r	4r	4r
8GG#'	8G#'	8g#'	8g#'	8g#'	.	.	.	.	.	.	.	.	.	.	.
=97	=97	=97	=97	=97	=97	=97	=97	=97	=97	=97	=97	=97	=97	=97	=97
8AA'	8A'	8a'	8a'	8a'	4AA	4a	4a	4a	4aa	4AA	4AA	4a	4aa	4aa	4aa
8GG#	8G#	8G#	8g#	8g#	.	.	.	.	.	.	.	.	.	.	.
8AA	8A	8A	8a	8a	4r	4r	4r	4ryy	4r	4r	4r	4ryy	4r	4r	4r
8BB	8B	8B	8b	8b	.	.	.	.	.	.	.	.	.	.	.
8C#	8c#	8c#	8cc#	8cc#	4r	4r	4r	4ryy	4r	4r	4r	4ryy	4r	4r	4r
8BB	8B	8B	8b	8b	.	.	.	.	.	.	.	.	.	.	.
=98	=98	=98	=98	=98	=98	=98	=98	=98	=98	=98	=98	=98	=98	=98	=98
8C#	8c#	8c#	8cc#	8cc#	4AA	4a	4a	4a	4aa	4AA	4AA	4a	4aa	4aa	4aa
8D	8d	8d	8dd	8dd	.	.	.	.	.	.	.	.	.	.	.
8E	8e	8e	8ee	8ee	4r	4r	4r	4ryy	4r	4r	4r	4ryy	4r	4r	4r
8D#	8d#	8d#	8dd#	8dd#	.	.	.	.	.	.	.	.	.	.	.
8E	8e	8e	8ee	8ee	4r	4r	4r	4ryy	4r	4r	4r	4ryy	4r	4r	4r
8F#	8f#	8f#	8ff#	8ff#	.	.	.	.	.	.	.	.	.	.	.
=99	=99	=99	=99	=99	=99	=99	=99	=99	=99	=99	=99	=99	=99	=99	=99
8E	8e	8e	8ee	8ee	4AA	4a	4a	4a	4aa	4AA	4AA	4a	4aa	4aa	4aa
8D#	8d#	8d#	8dd#	8dd#	.	.	.	.	.	.	.	.	.	.	.
8E	8e	8e	8ee	8ee	4r	4r	4r	4ryy	4r	4r	4r	4ryy	4r	4r	4r
8F#	8f#	8f#	8ff#	8ff#	.	.	.	.	.	.	.	.	.	.	.
8E	8e	8e	8ee	8ee	4r	4r	4r	4ryy	4r	4r	4r	4ryy	4r	4r	4r
8D#	8d#	8d#	8dd#	8dd#	.	.	.	.	.	.	.	.	.	.	.
=100	=100	=100	=100	=100	=100	=100	=100	=100	=100	=100	=100	=100	=100	=100	=100
8E	8e	8e	8ee	8ee	4AA	4a	4a	4a	4aa	4AA	4AA	4a	4aa	4aa	4aa
8D#	8d#	8d#	8dd#	8dd#	.	.	.	.	.	.	.	.	.	.	.
8E	8e	8e	8ee	8ee	4r	4r	4r	4ryy	4r	4r	4r	4ryy	4r	4r	4r
8F#	8f#	8f#	8ff#	8ff#	.	.	.	.	.	.	.	.	.	.	.
8E	8e	8e	8ee	8ee	4r	4r	4r	4ryy	4r	4r	4r	4ryy	4r	4r	4r
8D	8dn	8dn	8gg#	8gg#	.	.	.	.	.	.	.	.	.	.	.
=101	=101	=101	=101	=101	=101	=101	=101	=101	=101	=101	=101	=101	=101	=101	=101
8C#	8c#	8c#	8aa	8aa	4AA	2a	2a	2a	2aa	8c#	8c#	8a	2aa	8aa	8aa
8AA	8A	8a	8ccc#	8ccc#	.	.	.	.	.	8A	8A	8cc#	.	8ccc#	8ccc#
8C#	8c#	8c#	8ee	8aa	4r	.	.	.	.	8c#	8c#	4ee	.	8aa	8aa
8AA	8A	8a	8ee	8ccc#	.	.	.	.	.	8A	8A	.	.	8ccc#	8ccc#
8GG#	8G#	8g#	8ee	8bb	4r	4ee	4ee	4ee	4ee	8G#	8G#	8b	4bb	8bb	8bb
8EE	8E	8b	8ee	8eee	.	.	.	.	.	8E	8E	8dd	.	8eee	8eee
=102	=102	=102	=102	=102	=102	=102	=102	=102	=102	=102	=102	=102	=102	=102	=102
8C#	8c#	8cc#	8aa	8aa	4AA	2a	2a	2a	2aa	8c#	8c#	4cc#	2aa	8aa	8aa
8AA	8A	8a	8ccc#	8ccc#	.	.	.	.	.	8A	8A	.	.	8ccc#	8ccc#
8C#	8c#	8cc#	8ee	8aa	4r	.	.	.	.	8c#	8c#	4ee	.	8aa	8aa
8AA	8A	8a	8ee	8ccc#	.	.	.	.	.	8A	8A	.	.	8ccc#	8ccc#
8GG#	8G#	8g#	8ee	8bb	4r	4ee	4ee	4ee	4ee	8G#	8G#	8b	4bb	8bb	8bb
8EE	8E	8b	8ee	8eee	.	.	.	.	.	8E	8E	8dd	.	8eee	8eee
=103	=103	=103	=103	=103	=103	=103	=103	=103	=103	=103	=103	=103	=103	=103	=103
8C#	8c#	8cc#	8aa	8aa	4AA	2a	2aa	2a	2aa	8c#	8c#	4cc#	2aa	8aa	8aa
8AA	8A	8a	8ccc#	8ccc#	.	.	.	.	.	8A	8A	.	.	8ccc#	8ccc#
8C#	8c#	8cc#	8ee	8aa	4r	.	.	.	.	8c#	8c#	4ee	.	8aa	8aa
8AA	8A	8a	8ee	8ccc#	.	.	.	.	.	8A	8A	.	.	8ccc#	8ccc#
8D	8d	8dd	8ff#	8ff#	4D	4dd	4ff#	4dd	4ff#	8d	8d	4dd	4ff#	8ff#	8ff#
8DD	8D	8d	8dd	8ddd	.	.	.	.	.	8D	8D	.	.	8ddd	8ddd
=104	=104	=104	=104	=104	=104	=104	=104	=104	=104	=104	=104	=104	=104	=104	=104
4EE	4E	8e	8cc#	8cc#	4AA	2.ee	[2.ee	2.ee	[2.ee	4E	4E	4cc#	4ee	8ee	8ee
.	.	8e	8ee	8dd	.	.	.	.	.	.	.	.	.	8ccc#	8ccc#
4EE	4E	8e	8b	8ee	4r	.	.	.	.	4E	4E	4b	4dd	8dd	8dd
.	.	8e	8dd	8dd#	.	.	.	.	.	.	.	.	.	8bb	8bb
4EE	4E	8e	8g#	8ee	4r	.	.	.	.	4E	4E	4g#	4b	8b	8b
.	.	8e	8b	8gg#	.	.	.	.	.	.	.	.	.	8gg#	8gg#
=105	=105	=105	=105	=105	=105	=105	=105	=105	=105	=105	=105	=105	=105	=105	=105
4AAA	4AA	8a	8cc#	8aa	4AA	4a	4ee]	4a	4ee]	4AA	4AA	4a	4a	8aa	8aa
.	.	8e	8e	8r	.	.	.	.	.	.	.	.	.	8r	8r
4r	4r	8a	8cc#	8eee	4r	4ryy	4r	4ryy	4r	4r	4r	4ryy	4r	8eee	8eee
.	.	8e	8e	8r	.	.	.	.	.	.	.	.	.	8r	8r
4EE	4E	8b	8dd	8b 8gg#	4r	4ee	4ee	4ee	4ee	4E	4E	4b	4gg#	8gg#	8gg#
.	.	8e	8e	8r	.	.	.	.	.	.	.	.	.	8r	8r
=106	=106	=106	=106	=106	=106	=106	=106	=106	=106	=106	=106	=106	=106	=106	=106
4AAA	4AA	8cc#	8cc#	8cc# 8aa	4AA	4ee	4ee	4a	4aa	4AA	4AA	4cc#	4aa	8aa	8aa
.	.	8e	8e	8r	.	.	.	.	.	.	.	.	.	8r	8r
4r	4r	8a	8cc#	8eee	4r	4ryy	4r	4ryy	4r	4r	4r	4ryy	4r	8eee	8eee
.	.	8e	8e	8r	.	.	.	.	.	.	.	.	.	8r	8r
4EE	4E	8b	8dd	8b 8gg#	4r	4ee	4ee	4ee	4ee	4E	4E	4b	4gg#	8gg#	8gg#
.	.	8e	8e	8r	.	.	.	.	.	.	.	.	.	8r	8r
=107	=107	=107	=107	=107	=107	=107	=107	=107	=107	=107	=107	=107	=107	=107	=107
4AAA	4AA	4cc#	4cc#	4a 4aa	4AA	4a	4ee	4a	4aa	4AA	4AA	4a	4aa	4aa	4aa
4AA	4A	4a	4a 4aa	4a 4aa	4AA	4a	4aa	4a	4aa	4A	4A	4a	4aa	4aa	4aa
4AA	4A	4a	4a 4aa	4a 4aa	4AA	4a	4aa	4a	4aa	4A	4A	4a	4aa	4aa	4aa
=108||	=108||	=108||	=108||	=108||	=108||	=108||	=108||	=108||	=108||	=108||	=108||	=108||	=108||	=108||	=108||
*>B1	*B1	*B1	*B1	*B1	*B1	*B1	*B1	*B1	*B1	*B1	*B1	*B1	*B1	*B1	*B1
4AA	4A	4a	4a 4aa	4a 4aa	4AA	4a	4aa	4a	4aa	4A	4A	4a	4aa	4aa	4aa
4.BBz	4.Bz	4.bz	4.bbz	4.bbz	4r	4ryy	4r	4ryy	4r	4.Bz	4.Bz	4.b	4.bbz	4.bbz	4.bbz
.	.	.	.	.	4r	4ryy	4r	4ryy	4r	.	.	.	.	.	.
8AA	8A	8a	8aa	8aa	.	.	.	.	.	8A	8A	8a	8aa	8aa	8aa
=109	=109	=109	=109	=109	=109	=109	=109	=109	=109	=109	=109	=109	=109	=109	=109
8GG	8Gn	8gn	8ggn	8ggn	2.r	2.r	2.r	2.r	2.r	8Gn	8Gn	8gn	8ggn	8ggn	8ggn
8FF#	8F#	8f#	8ff#	8ff#	.	.	.	.	.	8F#	8F#	8f#	8ff#	8ff#	8ff#
8EE	8E	8e	8ee	8ee	.	.	.	.	.	8E	8E	8e	8ee	8ee	8ee
8DD	8D	8d	8dd	8dd	.	.	.	.	.	8D	8D	8dd	8dd	8dd	8dd
8CC#	8C#	8c#	8cc#	8cc#	.	.	.	.	.	8C#	8C#	8cc#	8cc#	8cc#	8cc#
8BBB	8BB	8B	8b	8b	.	.	.	.	.	8BB	8BB	8b	8b	8b	8b
=110	=110	=110	=110	=110	=110	=110	=110	=110	=110	=110	=110	=110	=110	=110	=110
4AAA	4AA	4A	4a	4a	4AA	4a	4ee	4a	4aa	4AA	4AA	8a	4a	4a	4a
.	.	.	.	.	.	.	.	.	.	.	.	8cc#	.	.	.
4AAA	4AA	4A	4cc# 4ee	4a 4gg	4AA	4a	4ee	4a	4aa	4AA	4AA	4ee	4gg	4gg	4gg
4AAA	4AA	4A	4cc# 4ee	4a 4gg	4AA	4a	4ee	4a	4aa	4AA	4AA	4ee	4gg	4gg	4gg
=111	=111	=111	=111	=111	=111	=111	=111	=111	=111	=111	=111	=111	=111	=111	=111
4AAA	4AA	4A	4cc# 4ee	4a 4gg	4AA	4a	4ee	4a	4aa	4AA	4AA	4ee	4gg	4gg	4gg
4r	4r	4r	4r	4r	4r	4ryy	4r	4ryy	4r	4r	4r	4ryy	4r	4r	4r
4r	4r	4r	4r	4r	4r	4ryy	4r	4ryy	4r	4r	4r	4ryy	4r	4r	4r
=112	=112	=112	=112	=112	=112	=112	=112	=112	=112	=112	=112	=112	=112	=112	=112
2.r	2.r	2.r	2.r	2.r	2.r	2.r	2.r	2.r	2.r	2.r	2.r	2.r	2.r	2.r	2.r
=113:|	=113:|	=113:|	=113:|	=113:|	=113:|	=113:|	=113:|	=113:|	=113:|	=113:|	=113:|	=113:|	=113:|	=113:|	=113:|
*>B2	*>B2	*>B2	*>B2	*>B2	*>B2	*>B2	*>B2	*>B2	*>B2	*>B2	*>B2	*>B2	*>B2	*>B2	*>B2
4AA	4A	4a	4a 4aa	4a 4aa	4AA	4a	4aa	4a	4aa	4A	4A	4a	4aa	4aa	4aa
4.Cz	4.cnz	4.ccnz	4.cccnz	4.cccnz	4r	4ryy	4r	4ryy	4r	4.cnz	4.cnz	4.cccnz	4.cccnz	4.cccnz	4.cccnz
.	.	.	.	.	4r	4ryy	4r	4ryy	4r	.	.	.	.	.	.
8BB	8B	8b	8bb	8bb	.	.	.	.	.	8B	8B	8bb	8bb	8bb	8bb
=114	=114	=114	=114	=114	=114	=114	=114	=114	=114	=114	=114	=114	=114	=114	=114
8AA	8A	8a	8aa	8aa	2.r	2.r	2.r	2.r	2.r	8A	8A	8aa	8aa	8aa	8aa
8GG	8G	8g	8gg	8gg	.	.	.	.	.	8G	8G	8gg	8gg	8gg	8gg
8FF#	8F#	8f#	8ff#	8ff#	.	.	.	.	.	8F#	8F#	8ff#	8ff#	8ff#	8ff#
8EE	8E	8e	8ee	8ee	.	.	.	.	.	8E	8E	8ee	8ee	8ee	8ee
8DD#	8D#	8d#	8dd#	8dd#	.	.	.	.	.	8D#	8D#	8dd#	8dd#	8dd#	8dd#
8CC#X	8C#X	8c#X	8cc#X	8cc#X	.	.	.	.	.	8C#X	8C#X	8cc#	8cc#	8cc#X	8cc#X
=115	=115	=115	=115	=115	=115	=115	=115	=115	=115	=115	=115	=115	=115	=115	=115
*>C	*>C	*>C	*>C	*>C	*>C	*>C	*>C	*>C	*>C	*>C	*>C	*>C	*>C	*>C	*>C
8BBB	8BB	8B	[2.b	4b	2.r	2.r	2.r	2.ff#	2.ff#	8BB	8BB	[2.b	4b	4b	4b
8CC#	8C#	8c#	.	.	.	.	.	.	.	8C#	8C#	.	.	.	.
8DD#	8D#	8d#	.	4bb	.	.	.	.	.	8D#	8D#	.	4bb	4bb	4bb
8BBB	8BB	8B	.	.	.	.	.	.	.	8BB	8BB	.	.	.	.
8CC#	8C#	8c#	.	4aa	.	.	.	.	.	8C#	8C#	.	4aa	4aa	4aa
8DD#	8D#	8d#	.	.	.	.	.	.	.	8D#	8D#	.	.	.	.
=116	=116	=116	=116	=116	=116	=116	=116	=116	=116	=116	=116	=116	=116	=116	=116
8EE	8E	8e	4b]	4gg	2.r	2.r	2.r	4ee	4ee	8E	8E	4b]	4gg'	4gg'	4gg'
8DD#	8D#	8d#	.	.	.	.	.	.	.	8D#	8D#	.	.	.	.
8EE	8E	8e	4g'	4ee'	.	.	.	4ryy	4r	8E	8E	4ryy	4r	4r	4r
8FF#	8F#	8f#	.	.	.	.	.	.	.	8F#	8F#	.	.	.	.
8GG	8G	8g	4g'	4ee'	.	.	.	4ryy	4r	8G	8G	4ryy	4r	4r	4r
8FF#	8F#	8f#	.	.	.	.	.	.	.	8F#	8F#	.	.	.	.
=117	=117	=117	=117	=117	=117	=117	=117	=117	=117	=117	=117	=117	=117	=117	=117
8GG	8G	8g	8gz	8eez	2.r	2.r	2.r	4ryy	4r	8G	8G	2.r	2.r	2.r	2.r
8AA	8A	8a	8f#	8dd#	.	.	.	.	.	8A	8A	.	.	.	.
8BB	8B	8b	4f#	4dd#	.	.	.	4ff#	4aa	8B	8B	.	.	.	.
8AA	8A	8a	.	.	.	.	.	.	.	8A	8A	.	.	.	.
8BB	8B	8b	4r	4r	.	.	.	4ff#	4aa	8B	8B	.	.	.	.
8C	8cn	8ccn	.	.	.	.	.	.	.	8cn	8cn	.	.	.	.
=118	=118	=118	=118	=118	=118	=118	=118	=118	=118	=118	=118	=118	=118	=118	=118
8DD#	8D#	8d#	4r	4r	2.r	2.r	2.r	2.ff#	2.aa	8D#	8D#	2.r	2.r	2.r	2.r
8C	8cn	8ccn	.	.	.	.	.	.	.	8cn	8cn	.	.	.	.
8BB	8B	8b	4a'	4ff#'	.	.	.	.	.	8B	8B	.	.	.	.
8BBB	8BB	8B	.	.	.	.	.	.	.	8BB	8BB	.	.	.	.
8CC#	8C#	8c#	4a'	4ff#'	.	.	.	.	.	8C#	8C#	.	.	.	.
8DD#X	8D#X	8d#X	.	.	.	.	.	.	.	8D#X	8D#X	.	.	.	.
=119	=119	=119	=119	=119	=119	=119	=119	=119	=119	=119	=119	=119	=119	=119	=119
4EE	8E	8e	8az	8ff#z	2.r	2.r	2.r	4ee	4gg	8E	8E	4r	2.ryy	2.r	2.r
.	8B	8B	8g	8ee	.	.	.	.	.	8B	8B	.	.	.	.
4r	8c#	8c#	4g	4ee	.	.	.	4ryy	4r	8c#	8c#	4r	.	.	.
.	8d#	8d#	.	.	.	.	.	.	.	8d#	8d#	.	.	.	.
4r	8e	8e	8r	4r	.	.	.	4ryy	4r	8e	8e	8r	.	.	.
.	8d#	8d#	8f#	.	.	.	.	.	.	8d#	8d#	8f#	.	.	.
=120	=120	=120	=120	=120	=120	=120	=120	=120	=120	=120	=120	=120	=120	=120	=120
2.r	8f#	8f#	8a	4r	2.r	2.r	2.r	2.r	2.r	8f#	8f#	8a	4r	4r	4r
.	8e	8e	8g	.	.	.	.	.	.	8e	8e	8g	.	.	.
.	8g	8g	8b	4bb'	.	.	.	.	.	8g	8g	8b	4b'	4bb'	4bb'
.	8f#	8f#	8aa	.	.	.	.	.	.	8f#	8f#	8a	.	.	.
.	8e	8e	8gg	4bb'	.	.	.	.	.	8e	8e	8g	4b'	4bb'	4bb'
.	8dn	8dn	8ff#	.	.	.	.	.	.	8dn	8dn	8f#	.	.	.
=121	=121	=121	=121	=121	=121	=121	=121	=121	=121	=121	=121	=121	=121	=121	=121
2.r	8c#	8c#	8ee	8bbz	2.r	2.r	2.r	2.r	2.r	8c#	8c#	4e	8bz	8bbz	8bbz
.	8d	8d	8ff#	8aa#	.	.	.	.	.	8d	8d	.	8a#	8aa#	8aa#
.	8e	8e	8gg	4aa#	.	.	.	.	.	8e	8e	8gg	4a#	4aa#	4aa#
.	8d	8d	8ff#	.	.	.	.	.	.	8d	8d	8ff#	.	.	.
.	8c#	8c#	8ee	4r	.	.	.	.	.	8c#	8c#	8ee	4r	4r	4r
.	8B	8B	8ddn	.	.	.	.	.	.	8B	8B	8dd	.	.	.
=122	=122	=122	=122	=122	=122	=122	=122	=122	=122	=122	=122	=122	=122	=122	=122
4r	8A#	8A#	8cc#	4r	2.r	2.r	2.r	4r	4r	8A#	8A#	8cc#	4r	4r	4r
.	8B	8B	8dd	.	.	.	.	.	.	8B	8B	8dd	.	.	.
8r	8c#	8c#	8ee	4ccc#'	.	.	.	4ff#	4ff#	8c#	8c#	8ee	4cc#'	4ccc#'	4ccc#'
8FF#	8F#	8f#	8a#	.	.	.	.	.	.	8F#	8F#	8a#	.	.	.
8GG#	8G#	8g#	8b	4ccc#'	.	.	.	4ff#	4ff#	8G#	8G#	8b	4cc#'	4ccc#'	4ccc#'
8AA#	8A#X	8a#X	8cc#	.	.	.	.	.	.	8A#X	8A#X	8cc#	.	.	.
=123	=123	=123	=123	=123	=123	=123	=123	=123	=123	=123	=123	=123	=123	=123	=123
8BB	8B	8b	8dd	8ccc#z	2.r	2.r	2.r	2ff#	2ff#	8B	8B	8dd	8cc#z	8ccc#z	8ccc#z
8C#	8c#	8cc#	8ee	8bb	.	.	.	.	.	8c#	8c#	8ee	8b	8bb	8bb
8D	8d	8dd	8ff#	4bb	.	.	.	.	.	8d	8d	8ff#	4b	4bb	4bb
8C#	8c#	8cc#	8ee	.	.	.	.	.	.	8c#	8c#	8ee	.	.	.
8BB	8B	8b	8dd	4r	.	.	.	4r	4r	8B	8B	8dd	4r	4r	4r
8AA	8An	8an	8cc#	.	.	.	.	.	.	8An	8An	8cc#	.	.	.
=124	=124	=124	=124	=124	=124	=124	=124	=124	=124	=124	=124	=124	=124	=124	=124
8GG	8Gn	8gn	8b	4r	2.r	2.r	2.r	4r	4r	8Gn	8Gn	8b	4r	4r	4r
8AA	8A	8a	8cc#	.	.	.	.	.	.	8A	8A	8cc#	.	.	.
8BB	8B	8b	8dd	4ddd'	.	.	.	4dd	4dd	8B	8B	8dd	4dd'	4ddd'	4ddd'
8AA	8A	8a	8cc#	.	.	.	.	.	.	8A	8A	8cc#	.	.	.
8GG	8G	8g	8b	4ddd'	.	.	.	4dd	4dd	8G	8G	8b	4dd'	4ddd'	4ddd'
8FF#	8F#	8f#	8an	.	.	.	.	.	.	8F#	8F#	8an	.	.	.
=125	=125	=125	=125	=125	=125	=125	=125	=125	=125	=125	=125	=125	=125	=125	=125
8EE	8E	8e	8g	8dddz	2.r	2.r	2.r	8dd	8dd	8E	8E	8g	8ddz	8dddz	8dddz
8FF#	8F#	8f#	8a	8ccc#	.	.	.	8ee	8ee	8F#	8F#	8a	8cc#	8ccc#	8ccc#
8GG	8G	8g	8b	4ccc#	.	.	.	4ee	4ee	8G	8G	8b	4cc#	4ccc#	4ccc#
8FF#	8F#	8f#	8a	.	.	.	.	.	.	8F#	8F#	8a	.	.	.
8EE	8E	8e	8g	16eee	.	.	.	4r	4r	8E	8E	8g	16ee	16eee	16eee
.	.	.	.	16ddd	.	.	.	.	.	.	.	.	16dd	16ddd	16ddd
8DD	8D	8d	8f#	16ccc#	.	.	.	.	.	8D	8D	8f#	16cc#	16ccc#	16ccc#
.	.	.	.	16ddd	.	.	.	.	.	.	.	.	16dd	16ddd	16ddd
=126	=126	=126	=126	=126	=126	=126	=126	=126	=126	=126	=126	=126	=126	=126	=126
8CC#	8C#	8c#	8e	4eee	4AA	2.a	2.ee	2.a	2.ee	8C#	8C#	4e	4ee	4eee	4eee
8DD	8D	8d	8f#	.	.	.	.	.	.	8D	8D	.	.	.	.
8EE	8E	8e	8g	4gg	8AA	.	.	.	.	8E	8E	4cc#	4gg	4gg	4gg
8AAA	8AA	8A	8c#	.	8AA	.	.	.	.	8AA	8AA	.	.	.	.
8BBB	8BB	8B	8d	4gg	8AA	.	.	.	.	8BB	8BB	4cc#	4gg	4gg	4gg
8CC#	8C#	8c#	8e	.	8AA	.	.	.	.	8C#	8C#	.	.	.	.
=127	=127	=127	=127	=127	=127	=127	=127	=127	=127	=127	=127	=127	=127	=127	=127
4DD	4D	4d	4f#	4ff#	4D	4dd	4ff#	4dd	4ff#	4D	4D	4dd	4ff#	4ff#	4ff#
4r	4f#'	4f#'	4a'	4dd'	4r	4ryy	4r	4ryy	4r	4r	4r	4ryy	4r	4r	4r
4r	4f#'	4f#'	4a'	4dd'	4r	4ryy	4r	4ryy	4r	4r	4r	4ryy	4r	4r	4r
=128	=128	=128	=128	=128	=128	=128	=128	=128	=128	=128	=128	=128	=128	=128	=128
2.r	8f#	8f#	8a	8dd	2.r	2.r	2.r	2.r	2.r	2.r	2.r	4ryy	4r	2.r	2.r
.	8e	8e	8g	8cc#	.	.	.	.	.	.	.	.	.	.	.
.	4e	4e	4g	4cc#	.	.	.	.	.	.	.	4cc#'y	4ee'	.	.
.	4r	4r	4r	4r	.	.	.	.	.	.	.	4cc#'y	4ee'	.	.
=129	=129	=129	=129	=129	=129	=129	=129	=129	=129	=129	=129	=129	=129	=129	=129
2.r	4r	4r	4r	4r	2.r	2.r	2.r	2.r	2.r	2.r	2.r	8cc#	8ee	2.r	2.r
.	.	.	.	.	.	.	.	.	.	.	.	8dd	8ff#	.	.
.	4d'	4d'	4f#'	4b'	.	.	.	.	.	.	.	4dd	4ff#	.	.
.	4d'	4d'	4f#'	4b'	.	.	.	.	.	.	.	4ryy	4r	.	.
=130	=130	=130	=130	=130	=130	=130	=130	=130	=130	=130	=130	=130	=130	=130	=130
2.r	8d	8d	8f#	8b	2.r	2.r	2.r	2.r	2.r	2.r	2.r	2.r	2.r	4ryy	4r
.	8c#	8c#	8e	8a#	.	.	.	.	.	.	.	.	.	.	.
.	4c#	4c#	4e	4a#	.	.	.	.	.	.	.	.	.	4aa#	4ccc#
.	4r	4r	4r	4r	.	.	.	.	.	.	.	.	.	4aa#	4ccc#
=131	=131	=131	=131	=131	=131	=131	=131	=131	=131	=131	=131	=131	=131	=131	=131
2.r	4r	4r	4r	4r	2.r	2.r	2.r	2.r	2.r	2.r	2.r	2.r	2.r	8aa#	8ccc#
.	.	.	.	.	.	.	.	.	.	.	.	.	.	8bb	8ddd
.	4B'	4B'	4d'	4g'	.	.	.	.	.	.	.	.	.	4bb	4ddd
.	4B'	4B'	4d'	4g'	.	.	.	.	.	.	.	.	.	4ryy	4r
=132	=132	=132	=132	=132	=132	=132	=132	=132	=132	=132	=132	=132	=132	=132	=132
4r	8B	8B	8d	8g	2.r	2.r	2.r	2.r	2.r	4r	4r	4ryy	4r	2.r	2.r
.	8A	8A	8cn	8f#	.	.	.	.	.	.	.	.	.	.	.
8r	8A'	8A'	4c	4f#	.	.	.	.	.	4cn	4cn	4ff#	4aa	.	.
8DD'	8D'	8f#'	.	.	.	.	.	.	.	.	.	.	.	.	.
8EE'	8E'	8g'	4r	4r	.	.	.	.	.	4c	4c	4ff#	4aa	.	.
8FF#'	8F#'	8a'	.	.	.	.	.	.	.	.	.	.	.	.	.
=133	=133	=133	=133	=133	=133	=133	=133	=133	=133	=133	=133	=133	=133	=133	=133
8GG'	8G'	8b'	4r	4r	2.r	2.r	2.r	2.r	2.r	8cn	8cn	8ff#	8aa	4r	4r
8FF#'	8F#'	8a'	.	.	.	.	.	.	.	8B	8B	8gg	8bb	.	.
8EE'	8E'	8g'	8r	8r	.	.	.	.	.	4B	4B	4gg	4bb	8r	8r
8DD'	8D'	8f#'	8G'	8g'	.	.	.	.	.	.	.	.	.	8g'	8g'
8CC'	8Cn'	8e'	8A'	8a'	.	.	.	.	.	4r	4r	4ryy	4r	8a'	8a'
8BBB'	8BB'	8d'	8B'	8b'	.	.	.	.	.	.	.	.	.	8b'	8b'
=134	=134	=134	=134	=134	=134	=134	=134	=134	=134	=134	=134	=134	=134	=134	=134
4AAA	4AA	4cn	8cn'	8ccn'	2.r	2.r	2.r	2.r	2.r	4r	4r	2.r	2.r	8ccn'	8ccn'
.	.	.	8B'	8b'	.	.	.	.	.	.	.	.	.	8b'	8b'
4CC	4Cn	4ccn	8c'	8cc'	.	.	.	.	.	4Cn	4Cn	.	.	8cc'	8cc'
.	.	.	8d'	8dd'	.	.	.	.	.	.	.	.	.	8dd'	8dd'
4CC	4C	4cc	8e'	8ee'	.	.	.	.	.	4C	4C	.	.	8ee'	8ee'
.	.	.	8d'	8dd'	.	.	.	.	.	.	.	.	.	8dd'	8dd'
=135	=135	=135	=135	=135	=135	=135	=135	=135	=135	=135	=135	=135	=135	=135	=135
8CC	8Cn	8ccn	8e	8ee	2.r	2.r	2.r	2.r	2.r	8Cn	8Cn	2.r	2.r	8ee	8ee
8BBB	8BB	8b	8f#	8ff#	.	.	.	.	.	8BB	8BB	.	.	8ff#	8ff#
4BBB	4BB	4b	8g	8gg	.	.	.	.	.	4BB	4BB	.	.	8gg	8gg
.	.	.	8f#	8ff#	.	.	.	.	.	.	.	.	.	8ff#	8ff#
4r	4r	4r	8g	8gg	.	.	.	.	.	4r	4r	.	.	8gg	8gg
.	.	.	8a	8aa	.	.	.	.	.	.	.	.	.	8aa	8aa
=136	=136	=136	=136	=136	=136	=136	=136	=136	=136	=136	=136	=136	=136	=136	=136
4r	4r	4r	8b	8bb	2.r	2.r	2.r	2.r	2.r	4r	4r	2.r	2.r	8bb	8bb
.	.	.	8ccn	8cccn	.	.	.	.	.	.	.	.	.	8cccn	8cccn
4FF	4Fn	4fn	8dd	8ddd	.	.	.	.	.	4Fn	4Fn	.	.	8ddd	8ddd
.	.	.	8cc	8ccc	.	.	.	.	.	.	.	.	.	8ccc	8ccc
4FF	4F	4f	8b	8bb	.	.	.	.	.	4F	4F	.	.	8bb	8bb
.	.	.	8a	8aa	.	.	.	.	.	.	.	.	.	8aa	8aa
=137	=137	=137	=137	=137	=137	=137	=137	=137	=137	=137	=137	=137	=137	=137	=137
8FF	8Fn	8fn	8g#	8gg#	2.r	2.r	2.r	4r	4r	8Fn	8Fn	2.r	2.r	8gg#	8gg#
8EE	8E	8e	8a	8aa	.	.	.	.	.	8E	8E	.	.	8aa	8aa
4EE	4E	4e	8b	8bb	.	.	.	4ee	4ee	4E	4E	.	.	8bb	8bb
.	.	.	8fn	8ffn	.	.	.	.	.	.	.	.	.	8ffn	8ffn
4r	4r	4r	8e	8ee	.	.	.	4ee	4ee	4r	4r	.	.	8ee	8ee
.	.	.	8d	8dd	.	.	.	.	.	.	.	.	.	8dd	8dd
=138	=138	=138	=138	=138	=138	=138	=138	=138	=138	=138	=138	=138	=138	=138	=138
4r	4r	4r	8cn	8ccn	2.r	2.r	2.r	4ee	4ee	4r	4r	2.r	8r	8ccn	8ccn
.	.	.	8e	8ee	.	.	.	.	.	.	.	.	8ee	8ee	8ee
4AA	4A	4a	8a	8aa	.	.	.	4r	4r	4A	4A	.	8ccn	8aa	8aa
.	.	.	8b	8bb	.	.	.	.	.	.	.	.	8dd	8bb	8bb
4AA	4A	4a	8ccn	8cccn	.	.	.	4r	4r	4A	4A	.	8ee	8cccn	8cccn
.	.	.	8b	8bb	.	.	.	.	.	.	.	.	8dd	8bb	8bb
=139	=139	=139	=139	=139	=139	=139	=139	=139	=139	=139	=139	=139	=139	=139	=139
8AA	8A	8a	8ccn	8cccn	2.r	2.r	2.r	2.r	2.r	8A	8A	4r	[2.ee	8cccn	8cccn
8GG#	8G#	8g#	8dd	8ddd	.	.	.	.	.	8G#	8G#	.	.	8ddd	8ddd
4GG#	4G#	4g#	8ee	8eee	.	.	.	.	.	4G#	4G#	4b	.	8eee	8eee
.	.	.	8b	8bb	.	.	.	.	.	.	.	.	.	8bb	8bb
4GG	4Gn	4gn	8ee	8eee	.	.	.	.	.	4Gn	4Gn	4b	.	8eee	8eee
.	.	.	8b	8bb	.	.	.	.	.	.	.	.	.	8bb	8bb
=140	=140	=140	=140	=140	=140	=140	=140	=140	=140	=140	=140	=140	=140	=140	=140
8GG	8G	8g	8a#	8aa#	2.r	2.r	2.r	4r	4r	8G	8G	2a#	2ee]	8aa#	8aa#
8FF#	8F#	8f#	8b	8bb	.	.	.	.	.	8F#	8F#	.	.	8bb	8bb
4FF#	4F#	4f#	8cc#X	8ccc#X	.	.	.	4ff#	4ff#	8F#'	8F#'	.	.	8ccc#X	8ccc#X
.	.	.	8gn	8ggn	.	.	.	.	.	8e'	8e'	.	.	8ggn	8ggn
4AAA#	4AA#	4A#	8f#	8ff#	.	.	.	4ff#	4ff#	8d'	8d'	4cc#	4cc#X	8ff#	8ff#
.	.	.	8e	8ee	.	.	.	.	.	8c#'	8c#'	.	.	8ee	8ee
=141	=141	=141	=141	=141	=141	=141	=141	=141	=141	=141	=141	=141	=141	=141	=141
4BBB	4BB	4B	8d	4dd	2.r	2.r	2.r	[2.ff#	[2.ff#	4B	4B	4f#'	4dd	4dd	4dd
.	.	.	8c#	.	.	.	.	.	.	.	.	.	.	.	.
4r	4B	4r	8B	4r	.	.	.	.	.	4B	4B	4b'	4r	4bb'	4bb'
.	.	.	8f#	.	.	.	.	.	.	.	.	.	.	.	.
4r	4B	4r	8b	4r	.	.	.	.	.	4B	4B	4dd'	4r	4ddd'	4ddd'
.	.	.	8dd	.	.	.	.	.	.	.	.	.	.	.	.
=142	=142	=142	=142	=142	=142	=142	=142	=142	=142	=142	=142	=142	=142	=142	=142
2.r	8B	8r	2cc#	2.r	2.r	2.r	2.r	2.ff#_	2.ff#_	8B	8B	2cc#	8r	2ccc#	2ccc#
.	8A#	8e	.	.	.	.	.	.	.	8A#	8A#	.	8ee	.	.
.	4A#	8f#	.	.	.	.	.	.	.	4A#	4A#	.	8ff#	.	.
.	.	8g	.	.	.	.	.	.	.	.	.	.	8gg	.	.
.	4e	8f#	8a#	.	.	.	.	.	.	4e	4e	8a#	8ff#	4aa#	4aa#
.	.	8A#	8f#	.	.	.	.	.	.	.	.	8f#	8a#X	.	.
=143	=143	=143	=143	=143	=143	=143	=143	=143	=143	=143	=143	=143	=143	=143	=143
4BBB	8e	2.B	4ff#'	4ff#'	2.r	2.r	2.r	4ff#]	4ff#]	8e	8e	2.ff#	4b	4ff#'	4ff#'
.	8d	.	.	.	.	.	.	.	.	8d	8d	.	.	.	.
4r	4d	.	4dd'	4bb'	.	.	.	4r	4r	4d	4d	.	4r	4bb'	4bb'
4r	4r	.	4b'	4ddd'	.	.	.	4r	4r	4r	4r	.	4r	4ddd'	4ddd'
=144	=144	=144	=144	=144	=144	=144	=144	=144	=144	=144	=144	=144	=144	=144	=144
4r	4r	4r	8b	2ccc#	2.r	2.r	2.r	2.r	2.r	[2.f#	[2.f#	4r	2.r	2ccc#	2ccc#
.	.	.	8a#	.	.	.	.	.	.	.	.	.	.	.	.
4r	4r	4e	4a#	.	.	.	.	.	.	.	.	4ee	.	.	.
4FF#	4F#	4e	4cc#	8aa#	.	.	.	.	.	.	.	4ee	.	8aa#	8aa#
.	.	.	.	8ff#	.	.	.	.	.	.	.	.	.	8ff#	8ff#
=145	=145	=145	=145	=145	=145	=145	=145	=145	=145	=145	=145	=145	=145	=145	=145
4BBB	4BB	8e	8cc#	2bb	2.r	2.r	2.r	2.r	2.r	2f#]	2f#]	8ee	2.r	2bb	2bb
.	.	8d#	8b	.	.	.	.	.	.	.	.	8dd#	.	.	.
4r	4r	4d#	4f#	.	.	.	.	.	.	.	.	4dd#	.	.	.
4EE	4E	4dn	4b	8gg#	.	.	.	.	.	4e	4e	4ddn	.	8gg#	8gg#
.	.	.	.	8ee	.	.	.	.	.	.	.	.	.	8ee	8ee
=146	=146	=146	=146	=146	=146	=146	=146	=146	=146	=146	=146	=146	=146	=146	=146
4AAA	4AA	8d	8b	4aan	2.r	2.r	2.r	4ryy	4r	4e'	4e'	8dd	4e	4aan'	4aan'
.	.	8c#	8an	.	.	.	.	.	.	.	.	8cc#	.	.	.
4r	4r	4c#	4e	4r	.	.	.	4ee	4ee	4c#'	4c#'	4cc#	4a'	4aa	4aa
4r	4r	4A	4e	4r	.	.	.	4ee	4ee	4A'	4A'	4r	4cc#'	4ccc#'	4ccc#'
=147	=147	=147	=147	=147	=147	=147	=147	=147	=147	=147	=147	=147	=147	=147	=147
2.r	2.r	8A^z	2.e	2.r	2.r	2.r	2.r	2.ee	2.ee	8Az	8Az	2.r	2b	2bb	2bb
.	.	8G#	.	.	.	.	.	.	.	8G#	8G#	.	.	.	.
.	.	4G#	.	.	.	.	.	.	.	4G#	4G#	.	.	.	.
.	.	4d	.	.	.	.	.	.	.	4d	4d	.	8g#	8gg#	8gg#
.	.	.	.	.	.	.	.	.	.	.	.	.	8e	8ee	8ee
=148	=148	=148	=148	=148	=148	=148	=148	=148	=148	=148	=148	=148	=148	=148	=148
2.r	2.r	8d^	4A	4ee'	2.r	2.r	2.r	4a	4aa	8d	8d	2.r	4ee	[2.eee	[2.eee
.	.	8c#	.	.	.	.	.	.	.	8c#	8c#	.	.	.	.
.	.	4c#	4a	4aa'	.	.	.	4ryy	4r	4c#	4c#	.	4r	.	.
.	.	4r	4a	4ccc#'	.	.	.	4ryy	4r	4r	4r	.	4r	.	.
=149	=149	=149	=149	=149	=149	=149	=149	=149	=149	=149	=149	=149	=149	=149	=149
2.r	2.r	2.r	8a	2bb	2.r	2.r	2.r	2.r	2.r	2.r	2.r	2.r	2.r	2.eee_	2.eee_
.	.	.	8g#	.	.	.	.	.	.	.	.	.	.	.	.
.	.	.	4g#	.	.	.	.	.	.	.	.	.	.	.	.
.	.	.	4dd	8gg#	.	.	.	.	.	.	.	.	.	.	.
.	.	.	.	8ee	.	.	.	.	.	.	.	.	.	.	.
=150	=150	=150	=150	=150	=150	=150	=150	=150	=150	=150	=150	=150	=150	=150	=150
4r	4r	4r	8dd	2eee	4r	4ryy	4r	2.r	2.r	4r	4r	2.r	2.r	2eee]	2eee]
.	.	.	8cc#	.	.	.	.	.	.	.	.	.	.	.	.
4GG	4Gn	8A	8cc#'	.	4AA	4a	4ee	.	.	4Gn	4Gn	.	.	.	.
.	.	8a	8dd'	.	.	.	.	.	.	.	.	.	.	.	.
4GG	4G	8gn	8ee'	8ccc#	4AA	4a	4ee	.	.	4G	4G	.	.	8ccc#	8ccc#
.	.	8e	8cc#'	8aa	.	.	.	.	.	.	.	.	.	8aa	8aa
=151	=151	=151	=151	=151	=151	=151	=151	=151	=151	=151	=151	=151	=151	=151	=151
8GG	8G	2.d	[2.a	2ddd	4D	2dd	2ff#	4ryy	4r	8G	8G	4a'	4a'	4ddd	4ddd
8FF#	8F#	.	.	.	.	.	.	.	.	8F#	8F#	.	.	.	.
4FF#	4F#	.	.	.	4r	.	.	4dd	4ff#	4F#	4F#	4dd'	4dd'	4r	4r
4D	4d	.	.	4ff#	4r	4ryy	4r	4dd	4ff#	4d	4d	4ff#'	4ff#'	4r	4r
=152	=152	=152	=152	=152	=152	=152	=152	=152	=152	=152	=152	=152	=152	=152	=152
8D	8d	8d	4a]	4ee	2.r	2.r	2.r	2a	2ee	8d	8d	4ee	4ee	2.r	2.r
8C#	8c#	8c#	.	.	.	.	.	.	.	8c#	8c#	.	.	.	.
4C#	4c#	4c#	8aa	4aa	.	.	.	.	.	4c#	4c#	4r	4aa	.	.
.	.	.	8ggn	.	.	.	.	.	.	.	.	.	.	.	.
4C	4cn	4cn	8ff#	4aa	.	.	.	4ryy	4r	4cn	4cn	4r	4aa	.	.
.	.	.	8ee	.	.	.	.	.	.	.	.	.	.	.	.
=153	=153	=153	=153	=153	=153	=153	=153	=153	=153	=153	=153	=153	=153	=153	=153
4BB	4B	4B	4dd	8aaz	2.r	2.r	2.r	2.r	2.r	4B	4B	2.r	8aaz	2.r	2.r
.	.	.	.	8gg#	.	.	.	.	.	.	.	.	8gg#	.	.
4E	4e	4e	4r	4gg#	.	.	.	.	.	4e	4e	.	4gg#	.	.
4E	4e	4e	[4b	4ggn	.	.	.	.	.	4e	4e	.	4ggn	.	.
=154	=154	=154	=154	=154	=154	=154	=154	=154	=154	=154	=154	=154	=154	=154	=154
8E^	8e^	8e^	4b]	4ff#	2.r	2.r	2.r	2.r	2.r	8e	8e	4r	4ff#	2.r	2.r
8D#	8d#	8d#	.	.	.	.	.	.	.	8d#	8d#	.	.	.	.
4D#	4d#	4d#	4ff#	4bb	.	.	.	.	.	4d#	4d#	4f#	4bb	.	.
4D	4dn	4dn	4ff#	4bb	.	.	.	.	.	4dn	4dn	4ff#	4bb	.	.
=155	=155	=155	=155	=155	=155	=155	=155	=155	=155	=155	=155	=155	=155	=155	=155
2C#	2c#	2c#	2ee	8bb	2.r	2.r	2.r	2.r	2.r	2c#	2c#	2ee	8bb	2.r	2.r
.	.	.	.	8aa#	.	.	.	.	.	.	.	.	8aa#	.	.
.	.	.	.	4aa#	.	.	.	.	.	.	.	.	4aa#	.	.
4BB	4B	4B	4dd	4ggn	.	.	.	.	.	4B	4B	4dd	4ggn	.	.
=156	=156	=156	=156	=156	=156	=156	=156	=156	=156	=156	=156	=156	=156	=156	=156
2AA#	2A#	2A#	2cc#	8gg	2.r	2.r	2.r	2.r	2.r	2A#	2A#	2.cc#	8gg^	2ryy	4r
.	.	.	.	8ff#	.	.	.	.	.	.	.	.	8ff#	.	.
.	.	.	.	4ff#	.	.	.	.	.	.	.	.	4ff#	.	4r
4FF#	4F#	4F#	4a#	4ee	.	.	.	.	.	4F#	4F#	.	4ee	4cc#	4ee
=157	=157	=157	=157	=157	=157	=157	=157	=157	=157	=157	=157	=157	=157	=157	=157
2GG	2G	2G	8a#	8ee	4r	2ryy	4r	2ryy	4r	2G	2G	8cc#^y	8ee^	8cc#	8ee
.	.	.	8b	8dd	.	.	.	.	.	.	.	8b	8dd	8b	8dd
.	.	.	4b	4dd	4r	.	4r	.	4r	.	.	4b	4dd	4b	4dd
4GGG	4GG	4G	4bb	4ddd	4D	4d	4dd	4d	4dd	4GG	4GG	4bb	4ddd	4bb	4ddd
=158	=158	=158	=158	=158	=158	=158	=158	=158	=158	=158	=158	=158	=158	=158	=158
4GGG	4GG	4G	4bb	4ddd	4D	4d	4dd	4d	4dd	4GG	4GG	4bb	4ddd	4bb	4ddd
4r;	4r;	4r;	4r;	4r;	4r;	4ryy	4r;	4ryy	4r;	4r;	4r;	4ryy	4r;	4ryy	4r;
4r	4r	4r	4cc#	4ee	4r	4ryy	4r	4ryy	4r	4r	4r	4ryy	4r	4ryy	4r
=159	=159	=159	=159	=159	=159	=159	=159	=159	=159	=159	=159	=159	=159	=159	=159
2.r	2.r	2.r	8cc#	8ee	2.r	2.r	2.r	2.r	2.r	2.r	2.r	2.r	2.r	2.r	2.r
.	.	.	8b	8dd	.	.	.	.	.	.	.	.	.	.	.
.	.	.	4b	4dd	.	.	.	.	.	.	.	.	.	.	.
.	.	.	4bb	4ddd	.	.	.	.	.	.	.	.	.	.	.
=160	=160	=160	=160	=160	=160	=160	=160	=160	=160	=160	=160	=160	=160	=160	=160
4r	4r	4r	4bb	4ddd	4r	4r	4r	4r	4r	4r	4r	4r	4r	4ryy	4r
4r;	4r;	4r;	4r;	4r;	4r;	4r;	4r;	4r;	4r;	4r;	4r;	4r;	4r;	4ryy	4r;
4r	4r	4r	4r	4r	4r	4r	4r	4r	4r	4r	4r	4r	4r	4cc#	4ee
=161	=161	=161	=161	=161	=161	=161	=161	=161	=161	=161	=161	=161	=161	=161	=161
2.r	2.r	2.r	2.r	2.r	2.r	2.r	2.r	2.r	2.r	2.r	2.r	2.r	2.r	8cc#	8ee
.	.	.	.	.	.	.	.	.	.	.	.	.	.	8b	8dd
.	.	.	.	.	.	.	.	.	.	.	.	.	.	4b	4dd
.	.	.	.	.	.	.	.	.	.	.	.	.	.	4bb	4ddd
=162	=162	=162	=162	=162	=162	=162	=162	=162	=162	=162	=162	=162	=162	=162	=162
2.r	2.r	2.r	2.r	8G	2.r	2.r	2.r	2.r	2.r	2.r	2.r	2.r	2.r	4bb	4ddd
.	.	.	.	8B	.	.	.	.	.	.	.	.	.	.	.
.	.	.	.	8d'	.	.	.	.	.	.	.	.	.	4ryy	4r
.	.	.	.	8g'	.	.	.	.	.	.	.	.	.	.	.
.	.	.	.	8b'	.	.	.	.	.	.	.	.	.	4gg	4bb
.	.	.	.	8r	.	.	.	.	.	.	.	.	.	.	.
=163	=163	=163	=163	=163	=163	=163	=163	=163	=163	=163	=163	=163	=163	=163	=163
2.r	2.r	2.r	2.r	8G	2.r	2.r	2.r	2.r	2.r	2.r	2.r	2.r	2.r	4gg	4bb
.	.	.	.	8B	.	.	.	.	.	.	.	.	.	.	.
.	.	.	.	8d'	.	.	.	.	.	.	.	.	.	4ryy	4r
.	.	.	.	8g'	.	.	.	.	.	.	.	.	.	.	.
.	.	.	.	8b'	.	.	.	.	.	.	.	.	.	4b	4gg
.	.	.	.	8r	.	.	.	.	.	.	.	.	.	.	.
=164	=164	=164	=164	=164	=164	=164	=164	=164	=164	=164	=164	=164	=164	=164	=164
2.r	2.r	2.r	2.r	8G	2.r	2.r	2.r	2.r	2.r	2.r	2.r	2.r	2.r	4b	4gg
.	.	.	.	8B	.	.	.	.	.	.	.	.	.	.	.
.	.	.	.	8d'	.	.	.	.	.	.	.	.	.	4ryy	4r
.	.	.	.	8g'	.	.	.	.	.	.	.	.	.	.	.
.	.	.	.	8b'	.	.	.	.	.	.	.	.	.	4b	4dd
.	.	.	.	8dd'	.	.	.	.	.	.	.	.	.	.	.
=165	=165	=165	=165	=165	=165	=165	=165	=165	=165	=165	=165	=165	=165	=165	=165
2.r	2.r	2.B	2.r	2ffn	2.r	2.r	2.r	2.r	2.r	2.G	2.d	2.ryy	4r	2.b	2.dd
.	.	.	.	.	.	.	.	.	.	.	.	.	4r	.	.
.	.	.	.	8aa	.	.	.	.	.	.	.	.	8aa	.	.
.	.	.	.	8gg	.	.	.	.	.	.	.	.	8gg	.	.
=166	=166	=166	=166	=166	=166	=166	=166	=166	=166	=166	=166	=166	=166	=166	=166
4CC	4Cn	8cn'	8e'	2gg	2.r	2.r	2.r	2.r	2.r	4cn	4e	2.ryy	2gg	4ccn	4ee
.	.	8e'	8g'	.	.	.	.	.	.	.	.	.	.	.	.
4r	4r	8c'	8e'	.	.	.	.	.	.	4ryy	4r	.	.	4ryy	4r
.	.	8e'	8g'	.	.	.	.	.	.	.	.	.	.	.	.
4r	4r	8c'	8e'	8ee	.	.	.	.	.	4ryy	4r	.	8ee	4ryy	4r
.	.	8e'	8g'	8ccn	.	.	.	.	.	.	.	.	8ccn	.	.
=167	=167	=167	=167	=167	=167	=167	=167	=167	=167	=167	=167	=167	=167	=167	=167
4GG	4G	8d	8fn	8ccn	2.r	2.r	2.r	2.r	2.r	2.r	2.r	2.ryy	8ccn	2.r	2.r
.	.	8fn	8g	8b	.	.	.	.	.	.	.	.	8b	.	.
4r	4r	8d	8f	4b'	.	.	.	.	.	.	.	.	4b'	.	.
.	.	8f	8g	.	.	.	.	.	.	.	.	.	.	.	.
4r	4r	8d	8f	4g'	.	.	.	.	.	.	.	.	4g'	.	.
.	.	8f	8g	.	.	.	.	.	.	.	.	.	.	.	.
=168	=168	=168	=168	=168	=168	=168	=168	=168	=168	=168	=168	=168	=168	=168	=168
4CC	4Cn	8cn	8e	8ccn	2.r	2.r	2.r	2.r	2.r	2.r	2.r	2.ryy	8ccn	2.r	2.r
.	.	8e	8g	8b	.	.	.	.	.	.	.	.	8b	.	.
4r	4r	8c	8e	8cc	.	.	.	.	.	.	.	.	8cc	.	.
.	.	8e	8g	8dd	.	.	.	.	.	.	.	.	8dd	.	.
4r	4r	8c	8e	8ee	.	.	.	.	.	.	.	.	8ee	.	.
.	.	8e	8g	8ffn	.	.	.	.	.	.	.	.	8ffn	.	.
=169	=169	=169	=169	=169	=169	=169	=169	=169	=169	=169	=169	=169	=169	=169	=169
2.AAAz	2.AAz	8c#Xz	8ez	2ggz	2.r	2.r	2.r	2.r	2.r	2.E	2.c#Xz	2.cc#X	2ggz	2eez	2eez
.	.	8e	8g	.	.	.	.	.	.	.	.	.	.	.	.
.	.	8c#	8e	.	.	.	.	.	.	.	.	.	.	.	.
.	.	8e	8g	.	.	.	.	.	.	.	.	.	.	.	.
.	.	8c#	8e	8ee	.	.	.	.	.	.	.	.	8ee	4gg	4gg
.	.	8e	8g	8cc#X	.	.	.	.	.	.	.	.	8cc#X	.	.
=170	=170	=170	=170	=170	=170	=170	=170	=170	=170	=170	=170	=170	=170	=170	=170
4DD	4D	8d	8f#X	8dd	2.r	2.r	2.r	2.r	2.r	4F#	4d	4dd	8dd	4ff#X	4ff#X
.	.	8A	8d	8cc#	.	.	.	.	.	.	.	.	8cc#	.	.
4r	4r	8d	8f#	8dd	.	.	.	.	.	4ryy	4r	4r	8dd	4r	4r
.	.	8A	8d	8ee	.	.	.	.	.	.	.	.	8ee	.	.
4r	4r	8f#X	8a	8ff#X	.	.	.	.	.	4ryy	4r	4r	8ff#X	4r	4r
.	.	8e	8g	8gg	.	.	.	.	.	.	.	.	8gg	.	.
=171	=171	=171	=171	=171	=171	=171	=171	=171	=171	=171	=171	=171	=171	=171	=171
2.BBBz	2.BBz	8d#z	8f#z	2aaz	2.r	2.r	2.r	2.r	2.r	2.F#	2.d#z	2.dd#	2aaz	2ff#z	2ff#z
.	.	8f#	8a	.	.	.	.	.	.	.	.	.	.	.	.
.	.	8d#	8f#	.	.	.	.	.	.	.	.	.	.	.	.
.	.	8f#	8a	.	.	.	.	.	.	.	.	.	.	.	.
.	.	8d#	8f#	8ff#	.	.	.	.	.	.	.	.	8ff#	4aa	4aa
.	.	8f#	8a	8dd#	.	.	.	.	.	.	.	.	8dd#X	.	.
=172	=172	=172	=172	=172	=172	=172	=172	=172	=172	=172	=172	=172	=172	=172	=172
4EE	4E	8e	8g	8ee	2.r	2.r	2.r	2.r	2.r	4G	4e	4ee	8ee	4gg	4gg
.	.	8B	8e	8dd#	.	.	.	.	.	.	.	.	8dd#	.	.
4r	4r	8e	8g	8ee	.	.	.	.	.	4ryy	4r	4r	8ee	4r	4r
.	.	8B	8e	8ff#	.	.	.	.	.	.	.	.	8ff#	.	.
4r	4r	8g	8b	8gg	.	.	.	.	.	4ryy	4r	4r	8gg	4r	4r
.	.	8f#	8a	8aa	.	.	.	.	.	.	.	.	8aa	.	.
=173	=173	=173	=173	=173	=173	=173	=173	=173	=173	=173	=173	=173	=173	=173	=173
2.EE#z	2.E#z	2.e#z	2.g#z	2.bbz	2.r	2.r	2.r	2.r	2.r	2.E#	2.dnz	2ddn	2.bbz	2ddnz	2ddnz
.	.	.	.	.	.	.	.	.	.	.	.	4b	.	4bb	4bb
=174	=174	=174	=174	=174	=174	=174	=174	=174	=174	=174	=174	=174	=174	=174	=174
8FF#	8F#	4f#	4f#	4aa#	2.r	4f#	4ff#	4f#	4ff#	4F#	4c#	4cc#	4aa#	4aa#	4aa#
8FF#	8F#	.	.	.	.	.	.	.	.	.	.	.	.	.	.
8FF#	8F#	4f#	4a#	4ff#	.	4f#	4ff#	4f#	4ff#	4F#	4F#	4a#X	4ff#	4ff#	4ff#
8FF#	8F#	.	.	.	.	.	.	.	.	.	.	.	.	.	.
8FF#	8F#	4f#	4a#	4ff#	.	4f#	4ff#	4f#	4ff#	4F#	4F#	4a#	4ff#	4ff#	4ff#
8FF#	8F#	.	.	.	.	.	.	.	.	.	.	.	.	.	.
=175	=175	=175	=175	=175	=175	=175	=175	=175	=175	=175	=175	=175	=175	=175	=175
8FF#z	8F#z	8f#z	8a#z	8ff#z	2.r	4.f#	4.ff#	4.f#	4.ff#	4FF#z	4FF#z	8a#	8ff#z	8ff#z	8ff#z
8FF#	8F#	8e#	8b	8gg#	.	.	.	.	.	.	.	8b	8ee#	8gg#	8gg#
8FF#	8F#	2e#	2b	2gg#	.	.	.	.	.	4F#	4F#	2b	2ee#	2gg#	2gg#
8FF#	8F#	.	.	.	.	8f#	8ff#	8f#	8ff#	.	.	.	.	.	.
8FF#	8F#	.	.	.	.	8f#	8ff#	8f#	8ff#	4F#	4F#	.	.	.	.
8FF#	8F#	.	.	.	.	8f#	8ff#	8f#	8ff#	.	.	.	.	.	.
=176	=176	=176	=176	=176	=176	=176	=176	=176	=176	=176	=176	=176	=176	=176	=176
8FF#z	8F#z	8e#z	8bz	8gg#z	2.r	4.f#	4.ff#	4.f#	4.ff#	4FF#z	4FF#z	8b	8ee#z	8gg#z	8gg#z
8FF#	8F#	8en	8cc#	8aa#	.	.	.	.	.	.	.	8cc#	8een	8aa#	8aa#
8FF#	8F#	2e	2cc#	2aa#	.	.	.	.	.	4F#	4F#	2cc#	2ee	2aa#	2aa#
8FF#	8F#	.	.	.	.	8f#	8ff#	8f#	8ff#	.	.	.	.	.	.
8FF#	8F#	.	.	.	.	8f#	8ff#	8f#	8ff#	4F#	4F#	.	.	.	.
8FF#	8F#	.	.	.	.	8f#	8ff#	8f#	8ff#	.	.	.	.	.	.
=177	=177	=177	=177	=177	=177	=177	=177	=177	=177	=177	=177	=177	=177	=177	=177
8FF#z	8F#z	8ez	8cc#z	8aa#z	2.r	4.f#	4.ff#	4.f#	4.ff#	4FF#z	4FF#z	8cc#	8eez	8aa#z	8aa#z
8FF#	8F#	8d	8dd	8bb	.	.	.	.	.	.	.	8b	8dd	8bb	8bb
8FF#	8F#	2d	2dd	2bb	.	.	.	.	.	4F#	4F#	2b	2dd	2bb	2bb
8FF#	8F#	.	.	.	.	8f#	8ff#	8f#	8ff#	.	.	.	.	.	.
8FF#	8F#	.	.	.	.	8f#	8ff#	8f#	8ff#	4F#	4F#	.	.	.	.
8FF#	8F#	.	.	.	.	8f#	8ff#	8f#	8ff#	.	.	.	.	.	.
=178	=178	=178	=178	=178	=178	=178	=178	=178	=178	=178	=178	=178	=178	=178	=178
8FF#z	8F#z	8Dz	8ddz	8bbz	4D	4.d	4.dd	4.d	4.dd	4FF#z	4FF#z	8b	8dz	8bbz	8bbz
8FF#	8F#	8d	8aa	8cccn	.	.	.	.	.	.	.	8ccn	8dd	8cccn	8cccn
8FF#	8F#	2d	2aa	2ccc	4D	.	.	.	.	4F#	4F#	2cc	2dd	2ccc	2ccc
8FF#	8F#	.	.	.	.	8d	8dd	8d	8dd	.	.	.	.	.	.
8FF#	8F#	.	.	.	4D	8d	8dd	8d	8dd	4F#	4F#	.	.	.	.
8FF#	8F#	.	.	.	.	8d	8dd	8d	8dd	.	.	.	.	.	.
=179	=179	=179	=179	=179	=179	=179	=179	=179	=179	=179	=179	=179	=179	=179	=179
8GGz	8Gz	8Dz	8aaz	8cccnz	4D	4.d	4.dd	4.d	4.dd	4GGz	4GGz	8ccn	8dz	8cccnz	8cccnz
8GG	8G	8d	8gg	8bb	.	.	.	.	.	.	.	8b	8dd	8bb	8bb
8GG	8G	2d	8gg'	4bb	4r	.	.	.	.	4G	4G	2b	2dd	4bb	4bb
8GG	8G	.	8dd'	.	.	8dd	8dd	8dd	8dd	.	.	.	.	.	.
8GG	8G	.	8bb	8bb	4r	8dd	8dd	8dd	8dd	4G	4G	.	.	8bb	8bb
8GG	8G	.	8aa	8ddd	.	8dd	8dd	8dd	8dd	.	.	.	.	8ddd	8ddd
=180	=180	=180	=180	=180	=180	=180	=180	=180	=180	=180	=180	=180	=180	=180	=180
8EEz	8Ez	4dz	2.b 2.gg#	2.dddz	2.r	4.ee	4.ee	4.ee	4.ee	4EEz	4EEz	8b	8ddz	2.dddz	2.dddz
8EE	8E	.	.	.	.	.	.	.	.	.	.	8dd	8gg#	.	.
8EE	8E	4b	.	.	.	.	.	.	.	4E	4E	2dd	2gg#	.	.
8EE	8E	.	.	.	.	8ee	8ee	8ee	8ee	.	.	.	.	.	.
8EE	8E	4g#	.	.	.	8ee	8ee	8ee	8ee	4E	4E	.	.	.	.
8EE	8E	.	.	.	.	8ee	8ee	8ee	8ee	.	.	.	.	.	.
=181	=181	=181	=181	=181	=181	=181	=181	=181	=181	=181	=181	=181	=181	=181	=181
4AA	4A	4e	4a 4aa	4ccc#X	4AA	4a	4ee	4a	4ee	4AA	4AA	4cc#X	4aa	4ccc#X	4ccc#X
4AAA	4AA	4c#	4cc# 4ggn	4eee	4AA	4a	4ee	4a	4ee	4A	4A	4cc#	4ggn	4eee	4eee
4AAA	4AA	4A	4cc# 4gg	4eee	4AA	4a	4ee	4a	4ee	4A	4A	4cc#	4gg	4eee	4eee
=182	=182	=182	=182	=182	=182	=182	=182	=182	=182	=182	=182	=182	=182	=182	=182
4AAA	4AA	4A	4cc# 4gg	8eee'	8AA	2.a	[2.ee	2.a	[2.ee	2.e	[2.g	2.cc#	[2.gg	[2.eee	[2.eee
.	.	.	.	8ddd'	8AA	.	.	.	.	.	.	.	.	.	.
8r	8r	8r	8r	8ccc#'	8AA	.	.	.	.	.	.	.	.	.	.
8AAA'	8AA'	8C#'	8gg'	8bb'	8AA	.	.	.	.	.	.	.	.	.	.
8BBB'	8BB'	8D'	8ff#'	8aa'	8AA	.	.	.	.	.	.	.	.	.	.
8CC#'	8C#'	8E'	8ee'	8gg'	8AA	.	.	.	.	.	.	.	.	.	.
=183	=183	=183	=183	=183	=183	=183	=183	=183	=183	=183	=183	=183	=183	=183	=183
8DD'	8D'	8F#'	8dd'	8ff#'	8AA	2.a	2.ee_	2.a	2.ee_	2.e	2.g_	2.cc#	2.gg_	2.eee_	2.eee_
8EE'	8E'	8G'	8cc#'	8ee'	8AA	.	.	.	.	.	.	.	.	.	.
8FF#'	8F#'	8A'	8b'	8dd'	8AA	.	.	.	.	.	.	.	.	.	.
8GG'	8G'	8B'	8a'	8cc#'	8AA	.	.	.	.	.	.	.	.	.	.
8AA'	8A'	8c#'	8g'	8b'	8AA	.	.	.	.	.	.	.	.	.	.
8BB'	8B'	8d'	8f#'	8a'	8AA	.	.	.	.	.	.	.	.	.	.
=184	=184	=184	=184	=184	=184	=184	=184	=184	=184	=184	=184	=184	=184	=184	=184
8C#'	8c#'	8e'	4e	4g	4AA	4a	4ee]	4a	4ee]	4e	4g]	4cc#	4gg]	4eee]	4eee]
8D'	8d'	8f#'	.	.	.	.	.	.	.	.	.	.	.	.	.
8E'	8e'	8g'	4c# 4e	4a 4gg	4AA	4a	4ee	4a	4ee	4e	4g	4cc#	4gg	4eee	4eee
8D'	8d'	8f#'	.	.	.	.	.	.	.	.	.	.	.	.	.
8C#'	8c#'	8e'	4c# 4e	4a 4gg	4AA	4a	4ee	4a	4ee	4e	4g	4cc#	4gg	4eee	4eee
8BB'	8B'	8d'	.	.	.	.	.	.	.	.	.	.	.	.	.
=185	=185	=185	=185	=185	=185	=185	=185	=185	=185	=185	=185	=185	=185	=185	=185
4AA	4A	4c#	4c# 4e	4a 4gg	4AA	4a	4ee	4a	4ee	4e	4g	4cc#	4gg	4eee	4eee
4r	4r	4r	4r	4r	4r	4ryy	4r	4ryy	4r	4ryy	4r	4ryy	4r	4r	4r
4r	4r	4r	4r	4r	4r	4ryy	4r	4ryy	4r	4ryy	4r	4ryy	4r	4r	4r
=186	=186	=186	=186	=186	=186	=186	=186	=186	=186	=186	=186	=186	=186	=186	=186
2.r;	2.r;	2.r;	2.r;	2.r;	2.r;	2.r;	2.r;	2.r;	2.r;	2.r;	2.r;	2.r;	2.r;	2.r;	2.r;
=187	=187	=187	=187	=187	=187	=187	=187	=187	=187	=187	=187	=187	=187	=187	=187
4DD	4DD	2.r	2d	2f#	2.r	2.r	2.r	2.r	2.r	2.r	2.r	2.r	2.r	2.r	2.r
4r	4D	.	.	.	.	.	.	.	.	.	.	.	.	.	.
4r	4D	.	8e	8g	.	.	.	.	.	.	.	.	.	.	.
.	.	.	8c#	8e	.	.	.	.	.	.	.	.	.	.	.
=188	=188	=188	=188	=188	=188	=188	=188	=188	=188	=188	=188	=188	=188	=188	=188
2.r	4D	2.r	4d	4f#	2.r	2.r	2.r	2.r	2.r	2.r	2.r	2.r	2.r	2.r	2.r
.	4D	.	4e	4g	.	.	.	.	.	.	.	.	.	.	.
.	4D	.	4f#	4a	.	.	.	.	.	.	.	.	.	.	.
=189	=189	=189	=189	=189	=189	=189	=189	=189	=189	=189	=189	=189	=189	=189	=189
4DD	4DD	2.r	2.g	2b	2.r	2.r	2.r	2.r	2.r	2.r	2.r	2.r	2.r	2.r	2.r
4r	4D	.	.	.	.	.	.	.	.	.	.	.	.	.	.
4r	4D	.	.	8ee	.	.	.	.	.	.	.	.	.	.	.
.	.	.	.	8cc#	.	.	.	.	.	.	.	.	.	.	.
=190	=190	=190	=190	=190	=190	=190	=190	=190	=190	=190	=190	=190	=190	=190	=190
2.r	4D	2.r	4f#	4dd	2.r	2.r	2.r	2.r	2.r	2.r	2.r	2.r	2.r	2.r	2.r
.	4r	.	4r	4a	.	.	.	.	.	.	.	.	.	.	.
.	4r	.	4r	4a'	.	.	.	.	.	.	.	.	.	.	.
=191	=191	=191	=191	=191	=191	=191	=191	=191	=191	=191	=191	=191	=191	=191	=191
2BBz	2Bz	2.r	2d	4az	2.r	2.r	2.r	2.r	2.r	2.r	2.r	2.r	2.r	2.r	2.r
.	.	.	.	4g	.	.	.	.	.	.	.	.	.	.	.
4AA	4A	.	4c#	4f#	.	.	.	.	.	.	.	.	.	.	.
=192	=192	=192	=192	=192	=192	=192	=192	=192	=192	=192	=192	=192	=192	=192	=192
2GGz	2Gz	2.r	2B	4f#z	2.r	2.r	2.r	2.r	2.r	2.r	2.r	2.r	2.r	2.r	2.r
.	.	.	.	4e	.	.	.	.	.	.	.	.	.	.	.
4FF#	4F#	.	4A	4d	.	.	.	.	.	.	.	.	.	.	.
=193	=193	=193	=193	=193	=193	=193	=193	=193	=193	=193	=193	=193	=193	=193	=193
2EE	2E	2.r	4A	8c#	2.r	2.r	2.r	2.r	2.r	2.r	2.r	2.r	2.r	2.r	2.r
.	.	.	.	8a	.	.	.	.	.	.	.	.	.	.	.
.	.	.	4c#	4g	.	.	.	.	.	.	.	.	.	.	.
4DD	4D	.	4d	4f#	.	.	.	.	.	.	.	.	.	.	.
=194	=194	=194	=194	=194	=194	=194	=194	=194	=194	=194	=194	=194	=194	=194	=194
4AAA	4AA	2.r	2d	2f#	2.r	2.r	2.r	2.r	2.r	2.r	2.r	2.r	2.r	2.r	2.r
4AA	4A	.	.	.	.	.	.	.	.	.	.	.	.	.	.
4AA	4A	.	8c#	8e	.	.	.	.	.	.	.	.	.	.	.
.	.	.	8r	8r	.	.	.	.	.	.	.	.	.	.	.
=195	=195	=195	=195	=195	=195	=195	=195	=195	=195	=195	=195	=195	=195	=195	=195
4DD	4D	2d	2f#	8r	2.r	2.r	2.r	2.r	2.r	2.r	2.r	2.r	2.r	2.r	2.r
.	.	.	.	8aa'	.	.	.	.	.	.	.	.	.	.	.
4r	4r	.	.	8aa'	.	.	.	.	.	.	.	.	.	.	.
.	.	.	.	8aa'	.	.	.	.	.	.	.	.	.	.	.
4r	4r	8e	8g	8aa'	.	.	.	.	.	.	.	.	.	.	.
.	.	8c#	8e	8aa'	.	.	.	.	.	.	.	.	.	.	.
=196	=196	=196	=196	=196	=196	=196	=196	=196	=196	=196	=196	=196	=196	=196	=196
2.r	2.r	4d	4f#	8bb	2.r	2.r	2.r	2.r	2.r	2.r	2.r	2.r	2.r	2.r	2.r
.	.	.	.	8aa	.	.	.	.	.	.	.	.	.	.	.
.	.	4e	4g	8aa	.	.	.	.	.	.	.	.	.	.	.
.	.	.	.	8gg	.	.	.	.	.	.	.	.	.	.	.
.	.	4f#	4a	8gg	.	.	.	.	.	.	.	.	.	.	.
.	.	.	.	8ff#	.	.	.	.	.	.	.	.	.	.	.
=197	=197	=197	=197	=197	=197	=197	=197	=197	=197	=197	=197	=197	=197	=197	=197
2.r	2.r	2.g	2b	8ff#	2.r	2.r	2.r	2.r	2.r	2.r	2.r	2.r	2.r	2.r	2.r
.	.	.	.	8ee	.	.	.	.	.	.	.	.	.	.	.
.	.	.	.	8dd#	.	.	.	.	.	.	.	.	.	.	.
.	.	.	.	8ee	.	.	.	.	.	.	.	.	.	.	.
.	.	.	8ee	8gg	.	.	.	.	.	.	.	.	.	.	.
.	.	.	8cc#	8bb	.	.	.	.	.	.	.	.	.	.	.
=198	=198	=198	=198	=198	=198	=198	=198	=198	=198	=198	=198	=198	=198	=198	=198
2.r	2.r	2.f#	4dd	8bb	2.r	2.r	2.r	2.r	2.r	2.r	2.r	2.r	2.r	2.r	2.r
.	.	.	.	8aa	.	.	.	.	.	.	.	.	.	.	.
.	.	.	4a	8gg	.	.	.	.	.	.	.	.	.	.	.
.	.	.	.	8ff#	.	.	.	.	.	.	.	.	.	.	.
.	.	.	4a	8ee	.	.	.	.	.	.	.	.	.	.	.
.	.	.	.	8ddn	.	.	.	.	.	.	.	.	.	.	.
=199	=199	=199	=199	=199	=199	=199	=199	=199	=199	=199	=199	=199	=199	=199	=199
2.r	2.r	4e	4g	8dd	2.r	2.r	2.r	2.r	2.r	2.r	2.r	2.r	2.r	2.r	2.r
.	.	.	.	8cc#	.	.	.	.	.	.	.	.	.	.	.
.	.	2d	2f#	8ee	.	.	.	.	.	.	.	.	.	.	.
.	.	.	.	8dd	.	.	.	.	.	.	.	.	.	.	.
.	.	.	.	8cc#	.	.	.	.	.	.	.	.	.	.	.
.	.	.	.	8b	.	.	.	.	.	.	.	.	.	.	.
=200	=200	=200	=200	=200	=200	=200	=200	=200	=200	=200	=200	=200	=200	=200	=200
2.r	2.r	4c#	4e	8b	2.r	2.r	2.r	2.r	2.r	2.r	2.r	2.r	2.r	2.r	2.r
.	.	.	.	8a	.	.	.	.	.	.	.	.	.	.	.
.	.	2B	2d	8cc#	.	.	.	.	.	.	.	.	.	.	.
.	.	.	.	8b	.	.	.	.	.	.	.	.	.	.	.
.	.	.	.	8a	.	.	.	.	.	.	.	.	.	.	.
.	.	.	.	8g	.	.	.	.	.	.	.	.	.	.	.
=201	=201	=201	=201	=201	=201	=201	=201	=201	=201	=201	=201	=201	=201	=201	=201
2.r	2.r	4A	4c#	8g	2.r	2.r	2.r	2.r	2.r	2.r	2.r	2.r	2.r	2.r	2.r
.	.	.	.	8f#	.	.	.	.	.	.	.	.	.	.	.
.	.	2G	2B	8a^	.	.	.	.	.	.	.	.	.	.	.
.	.	.	.	8g	.	.	.	.	.	.	.	.	.	.	.
.	.	.	.	8f#	.	.	.	.	.	.	.	.	.	.	.
.	.	.	.	8e	.	.	.	.	.	.	.	.	.	.	.
=202	=202	=202	=202	=202	=202	=202	=202	=202	=202	=202	=202	=202	=202	=202	=202
2.r	2.r	4F#	4A	8e	2.r	2.r	2.r	2.r	2.r	2.r	2.r	2.r	2.r	2.r	2.r
.	.	.	.	8d	.	.	.	.	.	.	.	.	.	.	.
.	.	4G	4B	8f#	.	.	.	.	.	.	.	.	.	.	.
.	.	.	.	8e	.	.	.	.	.	.	.	.	.	.	.
.	.	4A	4c#	8g	.	.	.	.	.	.	.	.	.	.	.
.	.	.	.	8f#	.	.	.	.	.	.	.	.	.	.	.
=203	=203	=203	=203	=203	=203	=203	=203	=203	=203	=203	=203	=203	=203	=203	=203
2.r	2.r	4B	4d	8a	2.r	2.r	2.r	2.r	2.r	2.r	2.r	2.r	2.r	2.r	2.r
.	.	.	.	8g	.	.	.	.	.	.	.	.	.	.	.
.	.	4c#	4e	8b	.	.	.	.	.	.	.	.	.	.	.
.	.	.	.	8g	.	.	.	.	.	.	.	.	.	.	.
.	.	4d	4f#	8f#	.	.	.	.	.	.	.	.	.	.	.
.	.	.	.	8dd	.	.	.	.	.	.	.	.	.	.	.
=204	=204	=204	=204	=204	=204	=204	=204	=204	=204	=204	=204	=204	=204	=204	=204
2.r	2.r	2G	2.B	8cc#	2.r	2.r	2.r	2.r	2.r	2.r	2.r	2.r	2.r	2.r	2.r
.	.	.	.	8b	.	.	.	.	.	.	.	.	.	.	.
.	.	.	.	8a	.	.	.	.	.	.	.	.	.	.	.
.	.	.	.	8g	.	.	.	.	.	.	.	.	.	.	.
.	.	4G#	.	8f#	.	.	.	.	.	.	.	.	.	.	.
.	.	.	.	8e	.	.	.	.	.	.	.	.	.	.	.
=205	=205	=205	=205	=205	=205	=205	=205	=205	=205	=205	=205	=205	=205	=205	=205
[2.AAA	[2.AA	4A	4A	8d	4AA	4A	4a	4A	4a	4AA	4AA	2.a	2.aa	4aa	4aa
.	.	.	.	8c#	.	.	.	.	.	.	.	.	.	.	.
.	.	4c#	4aa	8A'	4r	4ryy	4r	4ryy	4r	4r	4r	.	.	4ccc#	4ccc#
.	.	.	.	8c#'	.	.	.	.	.	.	.	.	.	.	.
.	.	4c#	4aa	8e'	4r	4ryy	4r	4ryy	4r	4r	4r	.	.	4ccc#	4ccc#
.	.	.	.	8a'	.	.	.	.	.	.	.	.	.	.	.
=206	=206	=206	=206	=206	=206	=206	=206	=206	=206	=206	=206	=206	=206	=206	=206
2.AAAz_	2.AAz_	2.d	2.gg#	4b	4AA	4A	4a	4A	4a	4AA	4AA	2.b	2.gg#z	2.dddz	2.dddz
.	.	.	.	8B	4r	4ryy	4r	4ryy	4r	4r	4r	.	.	.	.
.	.	.	.	8d	.	.	.	.	.	.	.	.	.	.	.
.	.	.	.	8g#	4r	4ryy	4r	4ryy	4r	4r	4r	.	.	.	.
.	.	.	.	8b	.	.	.	.	.	.	.	.	.	.	.
=207	=207	=207	=207	=207	=207	=207	=207	=207	=207	=207	=207	=207	=207	=207	=207
2.AAAz_	2.AAz_	4e	4ggn	4cc#	4AA	4A	4a	4A	4a	4AA	4AA	2.cc#	2.ggnz	2.eeez	2.eeez
.	.	4.eT	4.ggT	8c#	4r	4ryy	4r	4ryy	4r	4r	4r	.	.	.	.
.	.	.	.	8e	.	.	.	.	.	.	.	.	.	.	.
.	.	.	.	8a	4r	4ryy	4r	4ryy	4r	4r	4r	.	.	.	.
.	.	16d	16ff#	8cc#	.	.	.	.	.	.	.	.	.	.	.
.	.	16e	16gg	.	.	.	.	.	.	.	.	.	.	.	.
=208	=208	=208	=208	=208	=208	=208	=208	=208	=208	=208	=208	=208	=208	=208	=208
2.AAAz_	2.AAz_	2.d	2.ff#	4dd	4AA	4A	4a	4A	4a	4AA	4AA	2.dd	2.ff#z	2.dddz	2.dddz
.	.	.	.	16d	4r	4ryy	4r	4ryy	4r	4r	4r	.	.	.	.
.	.	.	.	16e	.	.	.	.	.	.	.	.	.	.	.
.	.	.	.	16f#	.	.	.	.	.	.	.	.	.	.	.
.	.	.	.	16g	.	.	.	.	.	.	.	.	.	.	.
.	.	.	.	16a	4r	4ryy	4r	4ryy	4r	4r	4r	.	.	.	.
.	.	.	.	16b	.	.	.	.	.	.	.	.	.	.	.
.	.	.	.	16cc#	.	.	.	.	.	.	.	.	.	.	.
.	.	.	.	16dd	.	.	.	.	.	.	.	.	.	.	.
=209	=209	=209	=209	=209	=209	=209	=209	=209	=209	=209	=209	=209	=209	=209	=209
2.AAAz]	2.AAz]	4g	4cc#	4ee	4AA	4a	4ee	4A	4a	4AA	4AA	2.cc#	2.eez	2.aaz	2.aaz
.	.	4g	4.cc#t	8e	4r	4ryy	4r	4ryy	4r	4r	4r	.	.	.	.
.	.	.	.	8g	.	.	.	.	.	.	.	.	.	.	.
.	.	4g	.	8cc#	4r	4ryy	4r	4ryy	4r	4r	4r	.	.	.	.
.	.	.	16b	8ee	.	.	.	.	.	.	.	.	.	.	.
.	.	.	16cc#	.	.	.	.	.	.	.	.	.	.	.	.
=210	=210	=210	=210	=210	=210	=210	=210	=210	=210	=210	=210	=210	=210	=210	=210
4DD	4D	4f#	8dd	8ff#	4D	2.dd	[2.ff#	2.f#	[2.dd	4D	4D	2.dd	[2.ff#	[2.aa	[2.aa
.	.	.	8r	8r	.	.	.	.	.	.	.	.	.	.	.
4r	4r	4r	[12ff#	[12aa	4r	.	.	.	.	4r	4r	.	.	.	.
.	.	.	12ff#]	12aa]	.	.	.	.	.	.	.	.	.	.	.
.	.	.	12ff#	12aa	.	.	.	.	.	.	.	.	.	.	.
4r	4r	4r	[12dd	[12ff#	4r	.	.	.	.	4r	4r	.	.	.	.
.	.	.	12dd]	12ff#]	.	.	.	.	.	.	.	.	.	.	.
.	.	.	12dd	12ff#	.	.	.	.	.	.	.	.	.	.	.
=211	=211	=211	=211	=211	=211	=211	=211	=211	=211	=211	=211	=211	=211	=211	=211
2.r	2.r	2.r	[12a	[12dd	2.r	2.dd	2.ff#]	2.f#	2.dd]	2.r	2.r	2.dd	2.ff#]	2.aa]	2.aa]
.	.	.	12a]	12dd]	.	.	.	.	.	.	.	.	.	.	.
.	.	.	12a	12dd	.	.	.	.	.	.	.	.	.	.	.
.	.	.	[12f#	[12a	.	.	.	.	.	.	.	.	.	.	.
.	.	.	12f#]	12a]	.	.	.	.	.	.	.	.	.	.	.
.	.	.	12f#	12a	.	.	.	.	.	.	.	.	.	.	.
.	.	.	[12d	[12f#	.	.	.	.	.	.	.	.	.	.	.
.	.	.	12d]	12f#]	.	.	.	.	.	.	.	.	.	.	.
.	.	.	12d	12f#	.	.	.	.	.	.	.	.	.	.	.
=212	=212	=212	=212	=212	=212	=212	=212	=212	=212	=212	=212	=212	=212	=212	=212
4GGG	4GG	4G	12g	12b	4D	[2.d	[2.d	2.d	[2.dd	4G	4G	2.dd	[2.gg	[2.bb	[2.bb
.	.	.	12g	12b	.	.	.	.	.	.	.	.	.	.	.
.	.	.	12g	12b	.	.	.	.	.	.	.	.	.	.	.
4r	4r	4r	12bb	12ddd	4r	.	.	.	.	4r	4r	.	.	.	.
.	.	.	12bb	12ddd	.	.	.	.	.	.	.	.	.	.	.
.	.	.	12bb	12ddd	.	.	.	.	.	.	.	.	.	.	.
4r	4r	4r	12gg	12bb	4r	.	.	.	.	4r	4r	.	.	.	.
.	.	.	12gg	12bb	.	.	.	.	.	.	.	.	.	.	.
.	.	.	12gg	12bb	.	.	.	.	.	.	.	.	.	.	.
=213	=213	=213	=213	=213	=213	=213	=213	=213	=213	=213	=213	=213	=213	=213	=213
2.r	2.r	2.r	12ee	12gg	2.r	2.d]	2.d]	2.d	2.dd]	2.r	2.r	2.ee	2.gg]	2.bb]	2.bb]
.	.	.	12ee	12gg	.	.	.	.	.	.	.	.	.	.	.
.	.	.	12ee	12gg	.	.	.	.	.	.	.	.	.	.	.
.	.	.	12gg	12bb	.	.	.	.	.	.	.	.	.	.	.
.	.	.	12gg	12bb	.	.	.	.	.	.	.	.	.	.	.
.	.	.	12gg	12bb	.	.	.	.	.	.	.	.	.	.	.
.	.	.	12ee	12gg	.	.	.	.	.	.	.	.	.	.	.
.	.	.	12ee	12gg	.	.	.	.	.	.	.	.	.	.	.
.	.	.	12ee	12gg	.	.	.	.	.	.	.	.	.	.	.
=214	=214	=214	=214	=214	=214	=214	=214	=214	=214	=214	=214	=214	=214	=214	=214
2GGG	2GG	2.A	2cc#	2a 2ee	4AA	2.a	2.a	2.a	2.ee	2GG	2GG	2.cc#	2.ee	2aa	2aa
.	.	.	.	.	8AA	.	.	.	.	.	.	.	.	.	.
.	.	.	.	.	8AA	.	.	.	.	.	.	.	.	.	.
8GG	8G	.	8cc#	8bb	8AA	.	.	.	.	8G	8G	.	.	8bb	8bb
8FF#	8F#	.	8dd	8aa	8AA	.	.	.	.	8F#	8F#	.	.	8aa	8aa
=215	=215	=215	=215	=215	=215	=215	=215	=215	=215	=215	=215	=215	=215	=215	=215
4FF#	4F#	4A	4dd	4aa	4D	4dd	4dd	4dd	4ff#	4F#	4F#	[2.dd	4ff#	4aa	4aa
2FF#z	2F#z	2F#z	2dz 2az	2dddz	8Dz	2ddz	2ddz	2dd	2ddz	2F#z	2F#z	.	2aaz	2dddz	2dddz
.	.	.	.	.	8D	.	.	.	.	.	.	.	.	.	.
.	.	.	.	.	8D	.	.	.	.	.	.	.	.	.	.
.	.	.	.	.	8D	.	.	.	.	.	.	.	.	.	.
=216	=216	=216	=216	=216	=216	=216	=216	=216	=216	=216	=216	=216	=216	=216	=216
4GG	4G	4G	4d 4b	8ccc#	4D	4dd	4dd	4dd	4dd	4G	4G	4dd]	4dd	8ccc#	8ccc#
.	.	.	.	8bb	.	.	.	.	.	.	.	.	.	8bb	8bb
4r	4r	4r	4r	8aa	4r	4r	4r	4ryy	4r	4r	4r	4ryy	4r	8aa	8aa
.	.	.	.	8gg	.	.	.	.	.	.	.	.	.	8gg	8gg
4r	4r	4r	4r	8ff#	4r	4r	4r	4ryy	4r	4r	4r	4ryy	4r	8ff#	8ff#
.	.	.	.	8ee	.	.	.	.	.	.	.	.	.	8ee	8ee
=217	=217	=217	=217	=217	=217	=217	=217	=217	=217	=217	=217	=217	=217	=217	=217
2.AA	2.A	4A	2f#	2dd	4AA	2dd	2ff#	2dd	2ff#	2.A	2.A	2dd	2ff#	2dd	2dd
.	.	4d	.	.	8AA	.	.	.	.	.	.	.	.	.	.
.	.	.	.	.	8AA	.	.	.	.	.	.	.	.	.	.
.	.	4c#	8a	8ff#	4AA	4a	4ee	4a	4ee	.	.	4cc#	4ee	8ff#	8ff#
.	.	.	8g	8ee	.	.	.	.	.	.	.	.	.	8ee	8ee
=218	=218	=218	=218	=218	=218	=218	=218	=218	=218	=218	=218	=218	=218	=218	=218
4DD	4D	4d	4f#	8dd	4D	4f#	4dd	4f#	4dd	4D	4D	4dd	4dd	4dd	4dd
.	.	.	.	8d'	.	.	.	.	.	.	.	.	.	.	.
4r	4r	4r	4r	8e'	4r	4ryy	4r	4ryy	4r	4r	4r	4ryy	4r	4r	4r
.	.	.	.	8f#'	.	.	.	.	.	.	.	.	.	.	.
4r	4r	4r	4r	8g'	4r	4ryy	4r	4ryy	4r	4r	4r	4ryy	4r	4r	4r
.	.	.	.	8a'	.	.	.	.	.	.	.	.	.	.	.
=219	=219	=219	=219	=219	=219	=219	=219	=219	=219	=219	=219	=219	=219	=219	=219
2.r	2.r	2.r	2.r	8b'	2.r	2.r	2.r	2.r	2.r	2.r	2.r	2.r	2.r	2.r	2.r
.	.	.	.	8cc#'	.	.	.	.	.	.	.	.	.	.	.
.	.	.	.	8dd'	.	.	.	.	.	.	.	.	.	.	.
.	.	.	.	8ee'	.	.	.	.	.	.	.	.	.	.	.
.	.	.	.	8ff#'	.	.	.	.	.	.	.	.	.	.	.
.	.	.	.	8gg'	.	.	.	.	.	.	.	.	.	.	.
=220	=220	=220	=220	=220	=220	=220	=220	=220	=220	=220	=220	=220	=220	=220	=220
4DD	4D	8d'	8f#'	2aa	2.r	2.r	2.r	2.r	2.r	2.r	2.r	2.r	2.r	2.r	2.r
.	.	8f#'	8a'	.	.	.	.	.	.	.	.	.	.	.	.
4r	4r	8d'	8f#'	.	.	.	.	.	.	.	.	.	.	.	.
.	.	8f#'	8a'	.	.	.	.	.	.	.	.	.	.	.	.
4r	4r	8d'	8f#'	8ff#	.	.	.	.	.	.	.	.	.	.	.
.	.	8f#'	8a'	8dd	.	.	.	.	.	.	.	.	.	.	.
=221	=221	=221	=221	=221	=221	=221	=221	=221	=221	=221	=221	=221	=221	=221	=221
4AA	4A	8e'	8g'	8dd	2.r	2.r	2.r	2.r	2.r	2.ryy	2g	2.r	2.r	2.r	2.r
.	.	8g'	8a'	8cc#	.	.	.	.	.	.	.	.	.	.	.
4r	4r	8e'	8g'	4cc#'	.	.	.	.	.	.	.	.	.	.	.
.	.	8g'	8a'	.	.	.	.	.	.	.	.	.	.	.	.
4r	4r	8e'	8g'	4a'	.	.	.	.	.	.	8e	.	.	.	.
.	.	8g'	8a'	.	.	.	.	.	.	.	8c#	.	.	.	.
=222	=222	=222	=222	=222	=222	=222	=222	=222	=222	=222	=222	=222	=222	=222	=222
.	.	.	.	8eeq	.	.	.	.	.	.	.	.	.	.	.
4DD	4D	8d	8f#	8dd	2.r	2.r	2.r	2.r	2.r	2.ryy	8d	2.r	2.r	2.r	2.r
.	.	8f#	8a	8cc#	.	.	.	.	.	.	8c#	.	.	.	.
4r	4r	8d	8f#	8dd	.	.	.	.	.	.	8d	.	.	.	.
.	.	8f#	8a	8ee	.	.	.	.	.	.	8e	.	.	.	.
4r	4r	8d	8f#	8ff#	.	.	.	.	.	.	8f#	.	.	.	.
.	.	8f#	8a	8gg	.	.	.	.	.	.	8g	.	.	.	.
=223	=223	=223	=223	=223	=223	=223	=223	=223	=223	=223	=223	=223	=223	=223	=223
4AA	4A	8c#	8g	4ee	2.r	2.r	2.r	2.r	2.r	2.ryy	4e	2.r	2.r	2.r	2.r
.	.	8g	8a	.	.	.	.	.	.	.	.	.	.	.	.
4r	4r	8e	8g	4a	.	.	.	.	.	.	4A	.	.	.	.
.	.	8g	8a	.	.	.	.	.	.	.	.	.	.	.	.
4r	4r	8c#	8g	8bb	.	.	.	.	.	.	4r	.	.	.	.
.	.	8g	8a	8aa	.	.	.	.	.	.	.	.	.	.	.
=224	=224	=224	=224	=224	=224	=224	=224	=224	=224	=224	=224	=224	=224	=224	=224
4DD	4D	8d	8f#	2aa	2.r	2.r	2.r	2.r	2.r	2.r	2.r	2.r	2.r	2.r	2.r
.	.	8f#	8a	.	.	.	.	.	.	.	.	.	.	.	.
4r	4r	8d	8f#	.	.	.	.	.	.	.	.	.	.	.	.
.	.	8f#	8a	.	.	.	.	.	.	.	.	.	.	.	.
4r	4r	8d	8f#	8ff#	.	.	.	.	.	.	.	.	.	.	.
.	.	8f#	8a	8dd	.	.	.	.	.	.	.	.	.	.	.
=225	=225	=225	=225	=225	=225	=225	=225	=225	=225	=225	=225	=225	=225	=225	=225
4AA	4A	8e	8g	8dd	2.r	2.r	2.r	2.r	2.r	2.ryy	2g	2.r	2.r	2.r	2.r
.	.	8g	8a	8cc#	.	.	.	.	.	.	.	.	.	.	.
4r	4r	8e	8g	4cc#'	.	.	.	.	.	.	.	.	.	.	.
.	.	8g	8a	.	.	.	.	.	.	.	.	.	.	.	.
4r	4r	8e	8g	4a'	.	.	.	.	.	.	8e	.	.	.	.
.	.	8g	8a	.	.	.	.	.	.	.	8c#	.	.	.	.
=226	=226	=226	=226	=226	=226	=226	=226	=226	=226	=226	=226	=226	=226	=226	=226
4DD	4D	8d	8f#	8dd	2.r	2.r	2.r	2.r	2.r	2.ryy	8d	2.r	2.r	2.r	2.r
.	.	8f#	8a	8cc#	.	.	.	.	.	.	8c#	.	.	.	.
4r	4r	8a	8f#	8dd	.	.	.	.	.	.	8d	.	.	.	.
.	.	8d	8a	8ff#	.	.	.	.	.	.	8f#	.	.	.	.
4AA	4A	8c#	8g	8ee	.	.	.	.	.	.	8e	.	.	.	.
.	.	8e	8e	8cc#	.	.	.	.	.	.	8c#	.	.	.	.
=227	=227	=227	=227	=227	=227	=227	=227	=227	=227	=227	=227	=227	=227	=227	=227
4DD	4D	4d	4f#	8dd	2.r	2.r	2.r	2.r	2.r	2.ryy	4d	2.ryy	8r	2.r	2.r
.	.	.	.	8d'	.	.	.	.	.	.	.	.	8d'	.	.
4r	4r	4r	4r	8e'	.	.	.	.	.	.	4r	.	8e'	.	.
.	.	.	.	8f#'	.	.	.	.	.	.	.	.	8f#'	.	.
4r	4r	4r	4r	8g'	.	.	.	.	.	.	4r	.	8g'	.	.
.	.	.	.	8a'	.	.	.	.	.	.	.	.	8a'	.	.
=228	=228	=228	=228	=228	=228	=228	=228	=228	=228	=228	=228	=228	=228	=228	=228
2.r	2.r	2.r	2.r	8b'	2.r	2.r	2.r	2.r	2.r	2.r	2.r	2.ryy	8b'	2.r	2.r
.	.	.	.	8cc#'	.	.	.	.	.	.	.	.	8cc#'	.	.
.	.	.	.	8dd'	.	.	.	.	.	.	.	.	8dd'	.	.
.	.	.	.	8ee'	.	.	.	.	.	.	.	.	8ee'	.	.
.	.	.	.	8ff#'	.	.	.	.	.	.	.	.	8ff#'	.	.
.	.	.	.	8gg'	.	.	.	.	.	.	.	.	8gg'	.	.
=229	=229	=229	=229	=229	=229	=229	=229	=229	=229	=229	=229	=229	=229	=229	=229
4DD	4D	8d'	8f#'	2aa	2.r	2.r	2.r	4ryy	4r	2.r	2.r	2.ryy	2aa	2.r	2.r
.	.	8f#'	8a'	.	.	.	.	.	.	.	.	.	.	.	.
4r	4r	8d'	8f#'	.	.	.	.	4dd	4ff#	.	.	.	.	.	.
.	.	8f#'	8a'	.	.	.	.	.	.	.	.	.	.	.	.
4r	4r	8d'	8f#'	8ff#	.	.	.	4dd	4ff#	.	.	.	8ff#	.	.
.	.	8f#'	8a'	8dd	.	.	.	.	.	.	.	.	8dd	.	.
=230	=230	=230	=230	=230	=230	=230	=230	=230	=230	=230	=230	=230	=230	=230	=230
4AA	4A	8e	8g	8dd	2.r	2.r	2.r	4ryy	4r	2.ryy	2g	2.ryy	8dd	2.r	2eee
.	.	8g	8a	8cc#	.	.	.	.	.	.	.	.	8cc#	.	.
4r	4r	8e	8g	4cc#'	.	.	.	4a	4ee	.	.	.	4cc#'	.	.
.	.	8g	8a	.	.	.	.	.	.	.	.	.	.	.	.
4r	4r	8e	8g	4a'	.	.	.	4a	4ee	.	8e	.	4a'	.	8ccc#
.	.	8g	8a	.	.	.	.	.	.	.	8c#	.	.	.	8aa
=231	=231	=231	=231	=231	=231	=231	=231	=231	=231	=231	=231	=231	=231	=231	=231
4DD	4D	8d	8f#	8dd	2.r	2.r	2.r	4ryy	4r	2.r	4d	2.r	8dd	2.r	4ddd
.	.	8f#	8a	8cc#	.	.	.	.	.	.	.	.	8cc#	.	.
4r	4r	8d	8f#	8dd	.	.	.	4f#	4dd	.	4r	.	8dd	.	4r
.	.	8f#	8a	8ee	.	.	.	.	.	.	.	.	8ee	.	.
4r	4r	8d	8f#	8ff#	.	.	.	4f#	4dd	.	4r	.	8ff#	.	4r
.	.	8f#	8a	8gg	.	.	.	.	.	.	.	.	8gg	.	.
=232	=232	=232	=232	=232	=232	=232	=232	=232	=232	=232	=232	=232	=232	=232	=232
4AA	4A	8e	8g	4ee	2.r	2.r	2.r	4ryy	4r	4r	4r	2.r	4ee	2.r	2.r
.	.	8g	8a	.	.	.	.	.	.	.	.	.	.	.	.
4r	4r	8e	8g	4a	.	.	.	4a	4ee	4r	4r	.	4a	.	.
.	.	8g	8a	.	.	.	.	.	.	.	.	.	.	.	.
8GG	8G	8e	8c#	8bb	.	.	.	4a	4ee	8G	8G	.	8bb	.	.
8FF#	8F#	8f#	8d	8aa	.	.	.	.	.	8F#	8F#	.	8aa	.	.
=233	=233	=233	=233	=233	=233	=233	=233	=233	=233	=233	=233	=233	=233	=233	=233
4FF#	4F#	4f#	4d	4aa	4D	4ryy	4r	4ryy	4r	4F#	4F#	4r	4aa	4r	4r
4r	4r	4r	4r	2dddz	4r	2d	2dd	2d	2dd	4r	4r	2dd	2dddz	2dddz	2dddz
8GGz	8Gz	8gz	8bz	.	4r	.	.	.	.	8Gz	8Gz	.	.	.	.
8FF#	8F#	8f#	8a	.	.	.	.	.	.	8F#	8F#	.	.	.	.
=234	=234	=234	=234	=234	=234	=234	=234	=234	=234	=234	=234	=234	=234	=234	=234
4FF#	4F#	4f#	4a	4r	4D	4ryy	4r	4ryy	4r	4F#	4F#	4ryy	4r	4r	4r
4r	4r	4r	4r	2dddz	4r	2d	2dd	2d	2dd	4r	4r	2dd	2dddz	2dddz	2dddz
8Gz	8gz	8gz	8bz	.	4r	.	.	.	.	8gz	8gz	.	.	.	.
8F#	8f#	8f#	8a	.	.	.	.	.	.	8f#	8f#	.	.	.	.
=235	=235	=235	=235	=235	=235	=235	=235	=235	=235	=235	=235	=235	=235	=235	=235
4F#	4f#	4f#	4a	4r	2.r	2.r	2.r	2.r	2.r	4f#	4f#	4r	4r	4r	4r
4r	4r	4r	4r	2cccnz	.	.	.	.	.	4r	4r	4r	2cccn	2cccnz	2cccnz
8Ez	8ez	8ez	8gz	.	.	.	.	.	.	8ez	8ez	8ggz	.	.	.
8D#	8d#	8d#	8f#	.	.	.	.	.	.	8d#	8d#	8ff#	.	.	.
=236	=236	=236	=236	=236	=236	=236	=236	=236	=236	=236	=236	=236	=236	=236	=236
4D#	4d#	4d#	4f#	4cccn	2.r	2.r	2.r	2.r	2.r	4d#	4d#	4ff#	4cccn	4cccn	4cccn
4E	4e	4e	4g	4bb	.	.	.	.	.	4e	4e	4gg	4bb	4bb	4bb
8C#z	8c#z	8c#z	8ez	8bb-z	.	.	.	.	.	8c#z	8c#z	8ee	8bb-z	8bb-z	8bb-z
8D	8dn	8dn	8f#	8aa	.	.	.	.	.	8dn	8dn	8ff#	8aa	8aa	8aa
=237	=237	=237	=237	=237	=237	=237	=237	=237	=237	=237	=237	=237	=237	=237	=237
4D	4d	4d	4f#	4aa	2.r	2.r	2.r	2.r	2.r	4d	4d	4ff#	4aa	4aa	4aa
8BBz	8Bz	8Bz	8dz	4gg#	.	.	.	.	.	8Bz	8Bz	8ddz	4gg#	4gg#	4gg#
8C#	8c#	8c#	8e	.	.	.	.	.	.	8c#	8c#	8ee	.	.	.
8C#	8c#	8c#	8e	8ggnz	.	.	.	.	.	8c#	8c#	8ee	8ggnz	8ggnz	8ggnz
8D	8d	8d	8f#	8ff#	.	.	.	.	.	8d	8d	8ff#	8ff#	8ff#	8ff#
=238	=238	=238	=238	=238	=238	=238	=238	=238	=238	=238	=238	=238	=238	=238	=238
4D	4d	4d	4A	4ff#	4r	4ryy	4r	4ryy	4r	4d	4d	4a	4ff#	4ff#	4ff#
2GG#z	2G#z	2dz	2Bz	4.ffnz	4D	4d	4dd	4d	4dd	2G#z	2G#z	2bz	4.ffnz	4.ffnz	4.ffnz
.	.	.	.	.	4D	4d	4dd	4d	4dd	.	.	.	.	.	.
.	.	.	.	16ee	.	.	.	.	.	.	.	.	16ee	16ee	16ee
.	.	.	.	16dd	.	.	.	.	.	.	.	.	16dd	16dd	16dd
=239	=239	=239	=239	=239	=239	=239	=239	=239	=239	=239	=239	=239	=239	=239	=239
2GG	2Gn	2e	2A 2e	4cc#	4AA	2a	2ee	2a	2ee	2Gn	2Gn	4e	4cc#	4cc#	4cc#
.	.	.	.	4ccc#	8AA	.	.	.	.	.	.	4ee	4ccc#	4ccc#	4ccc#
.	.	.	.	.	8AA	.	.	.	.	.	.	.	.	.	.
4FF#	4F#	4a	4A 4f#	4ddd	4D	4dd	4ff#	4dd	4ff#	4F#	4F#	4ff#	4ddd	4ddd	4ddd
=240	=240	=240	=240	=240	=240	=240	=240	=240	=240	=240	=240	=240	=240	=240	=240
4GG	4G	4g	4d	4bb	4D	4ee	4gg	4ee	4gg	4G	4G	4dd	4bb	4bb	4bb
4r	4r	4r	4r	4r	4r	4ryy	4r	4ryy	4r	4r	4r	4ryy	4r	4r	4r
4r	4r	4r	4r	4r	4r	4ryy	4r	4ryy	4r	4r	4r	4ryy	4r	4r	4r
=241	=241	=241	=241	=241	=241	=241	=241	=241	=241	=241	=241	=241	=241	=241	=241
4AA	4A	4e	4A 4g	4cc#	4AA	4a	4ee	4a	4ee	4A	4A	4g	4cc#	4cc#	4cc#
4r	4r	4r	4r	4r	4r	4ryy	4r	4ryy	4r	4r	4r	4ryy	4r	4r	4r
4r	4r	4r	4r	4r	4r	4ryy	4r	4ryy	4r	4r	4r	4ryy	4r	4r	4r
=242	=242	=242	=242	=242	=242	=242	=242	=242	=242	=242	=242	=242	=242	=242	=242
8D	8d	8d	8f#	8dd	4D	4d	4dd	4d	4dd	4D	4D	4f#	4dd	4dd	4dd
8DD'	8D'	8d'	8d'	8d'	.	.	.	.	.	.	.	.	.	.	.
8EE'	8E'	8e'	8e'	8e'	4r	4ryy	4r	4ryy	4r	4r	4r	4ryy	4r	4r	4r
8FF#'	8F#'	8f#'	8f#'	8f#'	.	.	.	.	.	.	.	.	.	.	.
8GG'	8G'	8g'	8g'	8g'	4r	4ryy	4r	4ryy	4r	4r	4r	4ryy	4r	4r	4r
8FF#'	8F#'	8f#'	8f#'	8f#'	.	.	.	.	.	.	.	.	.	.	.
=243	=243	=243	=243	=243	=243	=243	=243	=243	=243	=243	=243	=243	=243	=243	=243
8GG'	8G'	8g'	8g'	8g'	4D	4d	4dd	4d	4dd	4DD	4DD	4dd	4dd	4ddd	4ddd
8AA'	8A'	8a'	8a'	8a'	.	.	.	.	.	.	.	.	.	.	.
8BB'	8B'	8b'	8b'	8b'	4r	4ryy	4r	4ryy	4r	4r	4r	4r	4r	4r	4r
8FF#'	8F#'	8f#'	8f#'	8f#'	.	.	.	.	.	.	.	.	.	.	.
8GG'	8G'	8g'	8g'	8g'	4r	4ryy	4r	4ryy	4r	4r	4r	4r	4r	4r	4r
8FF#'	8F#'	8f#'	8f#'	8f#'	.	.	.	.	.	.	.	.	.	.	.
=244	=244	=244	=244	=244	=244	=244	=244	=244	=244	=244	=244	=244	=244	=244	=244
8GG'	8G'	8g'	8g'	8g'	4D	4d	4dd	4d	4dd	4DD	4DD	4dd	4dd	4ddd	4ddd
8AA	8A	8a	8a	8a	.	.	.	.	.	.	.	.	.	.	.
8BB	8B	8b	8b	8b	4r	4ryy	4r	4ryy	4r	4r	4r	4r	4r	4r	4r
8FF#	8F#	8f#	8f#	8f#	.	.	.	.	.	.	.	.	.	.	.
8GG	8G	8g	8g	8g	4r	4ryy	4r	4ryy	4r	4r	4r	4r	4r	4r	4r
8FF#	8F#	8f#	8f#	8f#	.	.	.	.	.	.	.	.	.	.	.
=245	=245	=245	=245	=245	=245	=245	=245	=245	=245	=245	=245	=245	=245	=245	=245
8GG	8G	8g	8g	8g	4D	4d	4dd	4d	4dd	4DD	4DD	4dd	4dd	4ddd	4ddd
8AA	8A	8a	8a	8a	.	.	.	.	.	.	.	.	.	.	.
8BB	8B	8b	8b	8b	4r	4ryy	4r	4ryy	4r	4r	4r	4r	4r	4r	4r
8AA	8A	8a	8a	8a	.	.	.	.	.	.	.	.	.	.	.
8BB	8B	8b	8b	8b	4r	4ryy	4r	4ryy	4r	4r	4r	4r	4r	4r	4r
8AA	8A	8a	8a	8a	.	.	.	.	.	.	.	.	.	.	.
=246	=246	=246	=246	=246	=246	=246	=246	=246	=246	=246	=246	=246	=246	=246	=246
8BB	8B	8b	8b	8b	4D	4d	4dd	4d	4dd	4DD	4DD	4dd	4dd	4ddd	4ddd
8AA	8A	8a	8a	8a	.	.	.	.	.	.	.	.	.	.	.
8BB	8B	8b	8b	8b	4r	4ryy	4r	4ryy	4r	4r	4r	4r	4r	4r	4r
8AA	8A	8a	8a	8a	.	.	.	.	.	.	.	.	.	.	.
8BB	8B	8b	8b	8b	4r	4ryy	4r	4ryy	4r	4r	4r	4r	4r	4r	4r
8C#	8c#	8cc#	8cc#	8cc#	.	.	.	.	.	.	.	.	.	.	.
=247	=247	=247	=247	=247	=247	=247	=247	=247	=247	=247	=247	=247	=247	=247	=247
8D	8d	8dd	8dd	8dd	4D	4dd	4ff#	4f#	4dd	8d	8d	4dd	4dd	4dd	4dd
8AA	8A	8a	8ff#	8ff#	.	.	.	.	.	8A	8A	.	.	.	.
8C#	8c#	8cc#	8ee	8ee	4AA	4a	4ee	4a	4ee	8c#	8c#	4ee	4ee	4ee	4ee
8AA	8A	8a	8aa	8aa	.	.	.	.	.	8A	8A	.	.	.	.
8C#	8c#	8cc#	8a	8a	4r	4ryy	4r	4ryy	4r	8c#	8c#	4aa	4aa	4aa	4aa
8AA	8A	8a	8aa	8aa	.	.	.	.	.	8A	8A	.	.	.	.
=248	=248	=248	=248	=248	=248	=248	=248	=248	=248	=248	=248	=248	=248	=248	=248
8D	8d	8dd	8dd	8dd	4D	4dd	4ff#	4f#	4dd	8d	8d	4dd	4dd	4dd	4dd
8AA	8A	8a	8ff#	8ff#	.	.	.	.	.	8A	8A	.	.	.	.
8C#	8c#	8cc#	8ee	8ee	4AA	4a	4ee	4a	4ee	8c#	8c#	4ee	4ee	4ee	4ee
8AA	8A	8a	8aa	8aa	.	.	.	.	.	8A	8A	.	.	.	.
8C#	8c#	8cc#	8a	8a	4r	4ryy	4r	4ryy	4r	8c#	8c#	4aa	4aa	4aa	4aa
8AA	8A	8a	8aa	8aa	.	.	.	.	.	8A	8A	.	.	.	.
=249	=249	=249	=249	=249	=249	=249	=249	=249	=249	=249	=249	=249	=249	=249	=249
8BB	8B	8b	8aa	8aa	2.r	2.r	2.r	2.r	2.r	8B	8B	8aa	8aa	8aa	8aa
8D	8d	8dd	8gg	8gg	.	.	.	.	.	8d	8d	8gg	8gg	8gg	8gg
8AA	8A	8a	8ff#	8ff#	.	.	.	.	.	8A	8A	4ff#	4ff#	4ff#	4ff#
8C#	8c#	8cc#	8f#	8f#	.	.	.	.	.	8c#	8c#	.	.	.	.
8GG	8G	8g	8ff#	8ff#	.	.	.	.	.	8G	8G	8ff#	8ff#	8ff#	8ff#
8BB	8B	8b	8ee	8ee	.	.	.	.	.	8B	8B	8ee	8ee	8ee	8ee
=250	=250	=250	=250	=250	=250	=250	=250	=250	=250	=250	=250	=250	=250	=250	=250
8FF#	8F#	8f#	8dd	8dd	2.r	2.r	2.r	2.r	2.r	8F#	8F#	4dd	4dd	4dd	4dd
8AA	8A	8a	8d	8d	.	.	.	.	.	8A	8A	.	.	.	.
8EE	8E	8e	8dd	8dd	.	.	.	.	.	8E	8E	8dd	8dd	8ddd	8ddd
8GG	8G	8g	8cc#	8cc#	.	.	.	.	.	8G	8G	8cc#	8cc#	8ccc#	8ccc#
8DD	8D	8d	8b	8b	.	.	.	.	.	8D	8D	4b	4b	4bb	4bb
8FF#	8F#	8f#	8B	8B	.	.	.	.	.	8F#	8F#	.	.	.	.
=251	=251	=251	=251	=251	=251	=251	=251	=251	=251	=251	=251	=251	=251	=251	=251
8CC#	8C#	8c#	8b	8b	2.r	2.r	2.r	2.r	2.r	8C#	8C#	8b	8b	8bb	8bb
8EE	8E	8e	8a	8a	.	.	.	.	.	8E	8E	8a	8a	8aa	8aa
8BBB	8BB	8B	8g#	8g#	.	.	.	.	.	8BB	8BB	4g#	4g#	4gg#	4gg#
8DD	8D	8d	8fn	8fn	.	.	.	.	.	8D	8D	.	.	.	.
8BBB	8BB	8B	8d	8d	.	.	.	.	.	8BB	8BB	4g#	4g#	4gg#	4gg#
8DD	8D	8d	8B	8B	.	.	.	.	.	8D	8D	.	.	.	.
=252	=252	=252	=252	=252	=252	=252	=252	=252	=252	=252	=252	=252	=252	=252	=252
8BBBz	8BBz	8Bz	2.G#z	2.G#z	4D	4d	4dd	4d	4dd	8BBz	8BBz	2.dd	2.g#z	2.gg#z	2.gg#z
8DD	8D	8d	.	.	.	.	.	.	.	8D	8D	.	.	.	.
8BBB	8BB	8B	.	.	8D	8d	8dd	8d	8dd	8BB	8BB	.	.	.	.
8DD	8D	8d	.	.	8D	8d	8dd	8d	8dd	8D	8D	.	.	.	.
8BBB	8BB	8B	.	.	4D	4d	4dd	4d	4dd	8BB	8BB	.	.	.	.
8DD	8D	8d	.	.	.	.	.	.	.	8D	8D	.	.	.	.
=253	=253	=253	=253	=253	=253	=253	=253	=253	=253	=253	=253	=253	=253	=253	=253
8BBB-z	8BB-z	8B-z	2.Gnz	2.Gnz	4D	4d	4dd	4d	4dd	8BB-z	8BB-z	2.dd	2.gnz	2.ggnz	2.ggnz
8DD	8D	8d	.	.	.	.	.	.	.	8D	8D	.	.	.	.
8BBB-	8BB-	8B-	.	.	8D	8d	8dd	8d	8dd	8BB-	8BB-	.	.	.	.
8DD	8D	8d	.	.	8D	8d	8dd	8d	8dd	8D	8D	.	.	.	.
8BBB-	8BB-	8B-	.	.	4D	4d	4dd	4d	4dd	8BB-	8BB-	.	.	.	.
8DD	8D	8d	.	.	.	.	.	.	.	8D	8D	.	.	.	.
=254	=254	=254	=254	=254	=254	=254	=254	=254	=254	=254	=254	=254	=254	=254	=254
8AAAz	8AAz	8Az	4Gz	8Gz	4AAz	2.a	2.eez	2.a	2.eez	2.AAz	2.AAz	2.cc#	2.ggz	2.eez	2.eez
8AAA	8AA	8g	.	8c#	.	.	.	.	.	.	.	.	.	.	.
8AAA	8AA	8g	4e 4cc#	8e	4r	.	.	.	.	.	.	.	.	.	.
8AAA	8AA	8g	.	8g	.	.	.	.	.	.	.	.	.	.	.
8AAA	8AA	8g	4e 4cc#	8cc#	4r	.	.	.	.	.	.	.	.	.	.
8AAA	8AA	8g	.	8ee	.	.	.	.	.	.	.	.	.	.	.
=255	=255	=255	=255	=255	=255	=255	=255	=255	=255	=255	=255	=255	=255	=255	=255
8AAAz	8AAz	8f#z	4f#z 4ddz	8dz	4AAz	2.dd	2.ff#z	2.dd	2.ff#z	2.AAz	2.AAz	2.dd	2.ff#z	2.ff#z	2.ff#z
8AAA	8AA	8f#	.	8f#	.	.	.	.	.	.	.	.	.	.	.
8AAA	8AA	8f#	4f# 4dd	8a	4r	.	.	.	.	.	.	.	.	.	.
8AAA	8AA	8f#	.	8dd	.	.	.	.	.	.	.	.	.	.	.
8AAA	8AA	8f#	4f# 4dd	8ff#	4r	.	.	.	.	.	.	.	.	.	.
8AAA	8AA	8f#	.	8aa	.	.	.	.	.	.	.	.	.	.	.
=256	=256	=256	=256	=256	=256	=256	=256	=256	=256	=256	=256	=256	=256	=256	=256
8GGGz	8GGz	8ez	4cc# 4ee	8ez	4AAz	2.a	2.eez	2.a	2.eez	2.GGz	2.GGz	2.cc#	2.eez	2.aaz	2.aaz
8GGG	8GG	8e	.	8g	.	.	.	.	.	.	.	.	.	.	.
8GGG	8GG	8e	4cc# 4ee	8cc#	8AA	.	.	.	.	.	.	.	.	.	.
8GGG	8GG	8e	.	8ee	8AA	.	.	.	.	.	.	.	.	.	.
8GGG	8GG	8e	4cc# 4ee	8gg	8AA	.	.	.	.	.	.	.	.	.	.
8GGG	8GG	8e	.	8ccc#	8AA	.	.	.	.	.	.	.	.	.	.
=257	=257	=257	=257	=257	=257	=257	=257	=257	=257	=257	=257	=257	=257	=257	=257
4FFF#	4FF#	4d	4d 4a 4ff#	4ddd	4D	4dd	4dd	4dd	4dd	4FF#	4FF#	4dd	4ff#	4ddd	4ddd
4r	4r	4r	4r	4r	4r	4r	4r	4r	4r	4r	4r	4ryy	4r	4r	4r
4r	4r	4r	4r	4r	4r	4r	4r	4r	4r	4r	4r	4ryy	4r	4r	4r
=258	=258	=258	=258	=258	=258	=258	=258	=258	=258	=258	=258	=258	=258	=258	=258
4GGG	4GG	4G	4B 4d	4g 4dd 4bb	4D	4dd	4dd	4dd	4dd	4GG	4GG	4dd	4bb	4bb	4bb
4r	4r	4r	4r	4r	4r	4r	4r	4r	4r	4r	4r	4ryy	4r	4r	4r
4r	4r	4r	4r	4r	4r	4r	4r	4r	4r	4r	4r	4ryy	4r	4r	4r
=259	=259	=259	=259	=259	=259	=259	=259	=259	=259	=259	=259	=259	=259	=259	=259
4AAA	4AA	4A	4dd 4ff#	4f# 4dd 4aa	4D	4dd	4ff#	4dd	4ff#	4AA	4AA	4dd	4ff#	4aa	4aa
4r	4r	4r	4r	4r	4r	4ryy	4r	4ryy	4r	4r	4r	4ryy	4r	4r	4r
4r	4r	4r	4r	4r	4r	4ryy	4r	4ryy	4r	4r	4r	4ryy	4r	4r	4r
=260	=260	=260	=260	=260	=260	=260	=260	=260	=260	=260	=260	=260	=260	=260	=260
4AAA	4AA	4A	4A 4e 4cc#	4A 4e 4cc#	4AA	4a	4ee	4a	4ee	4AA	4AA	4cc#	4ee	4cc#	4cc#
4r	4r	4r	4r	4r	4r	4ryy	4r	4ryy	4r	4r	4r	4ryy	4r	4r	4r
4r	4r	4r	4r	4r	4r	4ryy	4r	4ryy	4r	4r	4r	4ryy	4r	4r	4r
=261	=261	=261	=261	=261	=261	=261	=261	=261	=261	=261	=261	=261	=261	=261	=261
8DD	8D	8D	8d	8d	4D	4f#	4dd	4f#	4dd	4D	4D	4dd	4dd	4dd	4dd
8FF#	8F#	8F#	8f#	8f#	.	.	.	.	.	.	.	.	.	.	.
8AA'	8A'	8A'	8a'	8a'	4r	4ryy	4r	4ryy	4r	4r	4r	4ryy	4r	4r	4r
8D'	8d'	8d'	8dd'	8dd'	.	.	.	.	.	.	.	.	.	.	.
8F#'	8f#'	8f#'	8ff#'	8ff#'	8D	4dd	4ff#	4dd	4ddd	4F#	4d	4ff#	4ddd	4ddd	4ddd
8r	8r	8r	8r	8r	8D	.	.	.	.	.	.	.	.	.	.
=262	=262	=262	=262	=262	=262	=262	=262	=262	=262	=262	=262	=262	=262	=262	=262
8DD	8D	8D	8d	8d	4D	4ff#	4aa	4ff#	4aa	4F#	4A	4ff#	4aa	4aa	4aa
8FF#	8F#	8F#	8f#	8f#	.	.	.	.	.	.	.	.	.	.	.
8AA'	8A'	8A'	8a'	8a'	4r	4ryy	4r	4ryy	4r	4ryy	4r	4ryy	4r	4r	4r
8D'	8d'	8d'	8dd'	8dd'	.	.	.	.	.	.	.	.	.	.	.
8F#'	8f#'	8f#'	8ff#'	8ff#'	8D	4ff#	4aa	4ff#	4aa	4F#	4A	4ff#	4aa	4ff#	4ff#
8r	8r	8r	8r	8r	8D	.	.	.	.	.	.	.	.	.	.
=263	=263	=263	=263	=263	=263	=263	=263	=263	=263	=263	=263	=263	=263	=263	=263
8DD	8D	8D	8d	8d	4D	4dd	4ff#	4dd	4ff#	4D	4F#	4dd	4ff#	4dd	4dd
8FF#	8F#	8F#	8f#	8f#	.	.	.	.	.	.	.	.	.	.	.
8AA'	8A'	8A'	8a'	8a'	4r	4ryy	4r	4ryy	4r	4ryy	4r	4ryy	4r	4r	4r
8D'	8d'	8d'	8dd'	8dd'	.	.	.	.	.	.	.	.	.	.	.
8F#'	8f#'	8f#'	8ff#'	8ff#'	8D	4dd	4ff#	4dd	4ff#	4D	4F#	8dd	4ff#	8dd	8dd
8r	8r	8r	8r	8r	8D	.	.	.	.	.	.	8a	.	8a	8a
=264	=264	=264	=264	=264	=264	=264	=264	=264	=264	=264	=264	=264	=264	=264	=264
8DD	8D	8d	8d	8d	4D	4f#	4dd	4f#	4dd	4D	4D	4f#	4dd	4f#	4f#
8FF#	8F#	8f#	8f#	8f#	.	.	.	.	.	.	.	.	.	.	.
8AA'	8A'	8a'	8a'	8a'	4D	4f#	4dd	4f#	4dd	4D	4D	4f#	4dd	4f#	4f#
8D'	8d'	8dd'	8dd'	8dd'	.	.	.	.	.	.	.	.	.	.	.
8AA'	8A'	8a'	8ff#'	8ff#'	4D	4f#	4dd	4f#	4dd	4D	4D	4f#	4dd	4f#	4f#
8FF#'	8F#'	8f#'	8aa'	8aa'	.	.	.	.	.	.	.	.	.	.	.
=265	=265	=265	=265	=265	=265	=265	=265	=265	=265	=265	=265	=265	=265	=265	=265
4DD	4D	4d	4ddd	4ddd	4D	4f#	4dd	4f#	4dd	4D	4D	4f#	4dd	4f#	4f#
4r	4r	4r	4r	4r	4r	4ryy	4r	4ryy	4r	4r	4r	4ryy	4r	4r	4r
4r	4r	4r	4r	4r	4r	4ryy	4r	4ryy	4r	4r	4r	4ryy	4r	4r	4r
=266	=266	=266	=266	=266	=266	=266	=266	=266	=266	=266	=266	=266	=266	=266	=266
4DD	4D	4D 4A 4d	4d 4a 4ff#	4d 4ff# 4ddd	4D	4f#	4dd	4f#	4dd	4DD	4DD	4a	4ff#	4a	4a
4r	4r	4r	4r	4r	4r	4ryy	4r	4ryy	4r	4r	4r	4ryy	4r	4r	4r
4r	4r	4r	4r	4r	4r	4ryy	4r	4ryy	4r	4r	4r	4ryy	4r	4r	4r
=267	=267	=267	=267	=267	=267	=267	=267	=267	=267	=267	=267	=267	=267	=267	=267
4DD	4D	4D 4A 4d	4d 4a 4ff#	4d 4dd 4ddd	4D	4f#	4dd	4f#	4dd	4DD	4DD	4f#	4dd	4f#	4f#
4r	4r	4r	4r	4r	4r	4ryy	4r	4ryy	4r	4r	4r	4ryy	4r	4r	4r
4r	4r	4r	4r	4r	4r	4ryy	4r	4ryy	4r	4r	4r	4ryy	4r	4r	4r
==	==	==	==	==	==	==	==	==	==	==	==	==	==	==	==
*-	*-	*-	*-	*-	*-	*-	*-	*-	*-	*-	*-	*-	*-	*-	*-
!!!CDT: 1732/03/31/-1809/05/31/
!!!CNT: Austrian
!!!PPR: Ernst Eulenburg, Ltd.
!!!PPP: London
!!!PDT: 1880///
!!!AGN: symphony
!!!AST: classical, orchestral
!!!YOR: Ernst Praetorius, editor
!!!RDT: 1995 February 15
!!!YER: March 2012
!!!EEV: 2.0
!!!EFL: 1/48
!!!ENC: Frances Bennion
!!!EED: W.B. Hewlett
!!!ONB: Converted from MuseData Fall 2011 by Andreas Kornstaedt
!!!ONB: Manual editing 2012/02/21/ by Craig Stuart Sapp
!!!YEC: Copyright 1996,2012 Center for Computer Assisted Research in the Humanities
!!!YEM: Rights to all derivative electronic formats reserved.
!!!YEM: Refer to licensing agreement for further details.
